;FLAVOR:Marlin
;TIME:91
;Filament used: 0.105447m
;Layer height: 0.2
;MINX:86.274
;MINY:78.6
;MINZ:0.2
;MAXX:123.726
;MAXY:131.4
;MAXZ:0.275
;Generated with Cura_SteamEngine 4.8.0
M140 S60
M105
M190 S60
M104 S200
M105
M109 S200
M82 ;absolute extrusion mode
; Script based on an original created by tjjfvi (https://github.com/tjjfvi)
; An up-to-date version of the tjjfvi's original script can be found
; here:  https://csi.t6.fyi/
; Note - This script will only work in Cura V4.2 and above!
; --- Global Settings
; layer_height = 0.2
; smooth_spiralized_contours = True
; magic_mesh_surface_mode = normal
; machine_extruder_count = 1
; --- Single Extruder Settings
; speed_z_hop = 10
; retraction_amount = 6
; retraction_hop = 0.075
; retraction_hop_enabled = True
; retraction_enable = True
; retraction_speed = 40
; retraction_retract_speed = 40
; retraction_prime_speed = 40
; speed_travel = 100


G21 ;metric values
G90 ;absolute positioning
M82 ;set extruder to absolute mode
M107 ;start with the fan off
G28 X0 Y0 ;move X/Y to min endstops
G28 Z0 ;move Z to min endstops
G1 Z15.0 F100 ;move the platform down 15mm
G92 E0 ;zero the extruded length
G1 F200 E3 ;extrude 3mm of feed stock
G92 E0 ;zero the extruded length again
G1 F100
G0 Y20 F100
M117 Printing...
G5
G92 E0
G92 E0
G1 F2400 E-6
;LAYER_COUNT:1
;LAYER:0
M106 S255
M204 S3000
M205 X10 Y10
G1 F600 Z0.275
G0 F3000 X88.207 Y80.435 Z0.275
M204 S1800
M205 X8 Y8
;TYPE:SKIRT
G1 F600 Z0.2
G1 F2400 E0
G1 X88.745 Y79.964 E0.0333
G1 X89.333 Y79.556 E0.06662
G1 X89.962 Y79.216 E0.09991
G1 X90.626 Y78.949 E0.13324
G1 X91.315 Y78.757 E0.16654
G1 X92.021 Y78.643 E0.19984
G1 X92.825 Y78.603 E0.23733
G1 X93.004 Y78.6 E0.24566
G1 X116.619 Y78.6 E1.34528
G1 X117.409 Y78.611 E1.38207
G1 X118.122 Y78.661 E1.41535
G1 X118.826 Y78.79 E1.44868
G1 X119.51 Y78.998 E1.48197
G1 X120.167 Y79.28 E1.51526
G1 X120.789 Y79.634 E1.54858
G1 X121.367 Y80.055 E1.58188
G1 X121.895 Y80.538 E1.6152
G1 X122.365 Y81.076 E1.64847
G1 X122.773 Y81.664 E1.68179
G1 X123.112 Y82.294 E1.7151
G1 X123.379 Y82.957 E1.74838
G1 X123.57 Y83.647 E1.78172
G1 X123.683 Y84.353 E1.81502
G1 X123.723 Y85.15 E1.85217
G1 X123.726 Y85.33 E1.86056
G1 X123.726 Y124.343 E3.67716
G1 X123.717 Y125.07 E3.71102
G1 X123.668 Y125.784 E3.74434
G1 X123.54 Y126.488 E3.77766
G1 X123.334 Y127.173 E3.81097
G1 X123.053 Y127.83 E3.84424
G1 X122.7 Y128.453 E3.87759
G1 X122.28 Y129.032 E3.91089
G1 X121.798 Y129.56 E3.94418
G1 X121.261 Y130.032 E3.97747
G1 X120.673 Y130.44 E4.0108
G1 X120.044 Y130.781 E4.04412
G1 X119.381 Y131.049 E4.07741
G1 X118.692 Y131.241 E4.11072
G1 X117.986 Y131.356 E4.14403
G1 X117.175 Y131.397 E4.18184
G1 X116.996 Y131.4 E4.19018
G1 X93.298 Y131.399 E5.29365
G1 X92.6 Y131.39 E5.32616
G1 X91.887 Y131.341 E5.35944
G1 X91.183 Y131.213 E5.39276
G1 X90.498 Y131.007 E5.42606
G1 X89.841 Y130.725 E5.45935
G1 X89.219 Y130.372 E5.49266
G1 X88.64 Y129.952 E5.52596
G1 X88.111 Y129.47 E5.55929
G1 X87.64 Y128.932 E5.59258
G1 X87.232 Y128.345 E5.62587
G1 X86.892 Y127.715 E5.6592
G1 X86.624 Y127.052 E5.6925
G1 X86.432 Y126.363 E5.72581
G1 X86.318 Y125.657 E5.75911
G1 X86.276 Y124.831 E5.79762
G1 X86.274 Y124.658 E5.80568
G1 X86.275 Y85.587 E7.62499
G1 X86.284 Y84.922 E7.65595
G1 X86.333 Y84.209 E7.68923
G1 X86.462 Y83.505 E7.72256
G1 X86.669 Y82.821 E7.75584
G1 X86.951 Y82.163 E7.78917
G1 X87.304 Y81.541 E7.82247
G1 X87.724 Y80.963 E7.85574
G1 X88.207 Y80.435 E7.88906
M204 S3000
M205 X10 Y10
G0 F3000 X88.754 Y80.688
M204 S1800
M205 X8 Y8
G1 F2400 X89.286 Y80.259 E7.92089
G1 X89.864 Y79.894 E7.95272
G1 X90.481 Y79.6 E7.98454
G1 X91.127 Y79.38 E8.01632
G1 X91.795 Y79.237 E8.04813
G1 X92.519 Y79.171 E8.08198
G1 X93.004 Y79.16 E8.10457
G1 X116.619 Y79.16 E9.20418
G1 X117.401 Y79.171 E9.2406
G1 X118.082 Y79.22 E9.27239
G1 X118.753 Y79.349 E9.30421
G1 X119.404 Y79.556 E9.33602
G1 X120.027 Y79.837 E9.36784
G1 X120.613 Y80.189 E9.39967
G1 X121.153 Y80.607 E9.43147
G1 X121.641 Y81.085 E9.46328
G1 X122.07 Y81.617 E9.4951
G1 X122.434 Y82.195 E9.52691
G1 X122.728 Y82.812 E9.55873
G1 X122.947 Y83.459 E9.59054
G1 X123.09 Y84.127 E9.62235
G1 X123.155 Y84.846 E9.65597
G1 X123.166 Y85.33 E9.67851
G1 X123.166 Y124.336 E11.49479
G1 X123.157 Y125.063 E11.52865
G1 X123.108 Y125.745 E11.56048
G1 X122.98 Y126.416 E11.59229
G1 X122.775 Y127.068 E11.62412
G1 X122.495 Y127.691 E11.65592
G1 X122.145 Y128.277 E11.68771
G1 X121.728 Y128.819 E11.71955
G1 X121.251 Y129.308 E11.75136
G1 X120.72 Y129.737 E11.78314
G1 X120.142 Y130.102 E11.81498
G1 X119.526 Y130.397 E11.84678
G1 X118.879 Y130.618 E11.87861
G1 X118.211 Y130.762 E11.91043
G1 X117.481 Y130.829 E11.94457
G1 X116.996 Y130.84 E11.96716
G1 X93.306 Y130.84 E13.07026
G1 X92.608 Y130.831 E13.10277
G1 X91.926 Y130.782 E13.13461
G1 X91.255 Y130.654 E13.16641
G1 X90.604 Y130.448 E13.19821
G1 X89.98 Y130.168 E13.23006
G1 X89.394 Y129.817 E13.26186
G1 X88.853 Y129.4 E13.29367
G1 X88.364 Y128.922 E13.32551
G1 X87.935 Y128.391 E13.3573
G1 X87.57 Y127.813 E13.38913
G1 X87.276 Y127.197 E13.42091
G1 X87.055 Y126.55 E13.45275
G1 X86.911 Y125.882 E13.48457
G1 X86.845 Y125.149 E13.51884
G1 X86.834 Y124.658 E13.54171
G1 X86.835 Y85.595 E15.36064
G1 X86.844 Y84.93 E15.39161
G1 X86.893 Y84.249 E15.4234
G1 X87.021 Y83.577 E15.45526
G1 X87.227 Y82.926 E15.48705
G1 X87.508 Y82.303 E15.51888
G1 X87.859 Y81.717 E15.55068
G1 X88.277 Y81.176 E15.58252
G1 X88.754 Y80.688 E15.61429
M204 S3000
M205 X10 Y10
G0 F3000 X88.828 Y81.401
M204 S1800
M205 X8 Y8
G1 F2400 X89.3 Y80.955 E15.64453
G1 X89.823 Y80.571 E15.67474
G1 X90.39 Y80.253 E15.70501
G1 X90.991 Y80.007 E15.73525
G1 X91.618 Y79.837 E15.7655
G1 X92.535 Y79.731 E15.80849
G1 X93.004 Y79.72 E15.83033
G1 X116.619 Y79.72 E16.92994
G1 X117.393 Y79.731 E16.96599
G1 X118.04 Y79.78 E16.9962
G1 X118.677 Y79.908 E17.02646
G1 X119.293 Y80.114 E17.0567
G1 X119.88 Y80.394 E17.08698
G1 X120.427 Y80.743 E17.1172
G1 X120.928 Y81.157 E17.14746
G1 X121.373 Y81.63 E17.1777
G1 X121.758 Y82.154 E17.20798
G1 X122.075 Y82.721 E17.23823
G1 X122.32 Y83.322 E17.26845
G1 X122.489 Y83.949 E17.29869
G1 X122.595 Y84.862 E17.34148
G1 X122.606 Y85.33 E17.36328
G1 X122.606 Y124.329 E19.17924
G1 X122.597 Y125.056 E19.21309
G1 X122.549 Y125.704 E19.24335
G1 X122.421 Y126.341 E19.2736
G1 X122.217 Y126.958 E19.30386
G1 X121.938 Y127.545 E19.33413
G1 X121.59 Y128.093 E19.36435
G1 X121.177 Y128.594 E19.39459
G1 X120.705 Y129.041 E19.42486
G1 X120.182 Y129.426 E19.4551
G1 X119.616 Y129.744 E19.48533
G1 X119.014 Y129.991 E19.51563
G1 X118.388 Y130.161 E19.54583
G1 X117.465 Y130.269 E19.5891
G1 X116.996 Y130.28 E19.61095
G1 X93.313 Y130.28 E20.71373
G1 X92.615 Y130.271 E20.74623
G1 X91.967 Y130.222 E20.77649
G1 X91.33 Y130.095 E20.80674
G1 X90.714 Y129.89 E20.83697
G1 X90.127 Y129.611 E20.86723
G1 X89.579 Y129.262 E20.89748
G1 X89.078 Y128.849 E20.92772
G1 X88.631 Y128.377 E20.95799
G1 X88.246 Y127.854 E20.98823
G1 X87.928 Y127.287 E21.0185
G1 X87.682 Y126.686 E21.04874
G1 X87.512 Y126.059 E21.07899
G1 X87.405 Y125.134 E21.12235
G1 X87.394 Y124.658 E21.14452
G1 X87.394 Y85.603 E22.96308
G1 X87.403 Y84.938 E22.99405
G1 X87.452 Y84.29 E23.02431
G1 X87.58 Y83.653 E23.05456
G1 X87.785 Y83.036 E23.08484
G1 X88.065 Y82.45 E23.11508
G1 X88.414 Y81.902 E23.14533
G1 X88.828 Y81.401 E23.17559
M204 S3000
M205 X10 Y10
G1 F2400 E17.17559
;MESH:test.stl
G0 F3000 X92.009 Y85.854
G0 X93.528 Y85.854
G0 X115.926 Y123.6
M204 S1800
M205 X8 Y8
;TYPE:WALL-INNER
G1 F2400 E23.17559
G1 F1500 X94.074 Y123.6 E24.19312
G1 X94.074 Y86.4 E25.9253
G1 X115.926 Y86.4 E26.94282
G1 X115.926 Y123.6 E28.67501
M204 S3000
M205 X10 Y10
G0 F3000 X116.486 Y124.16
M204 S1800
M205 X8 Y8
G1 F1500 X93.514 Y124.16 E29.74468
G1 X93.514 Y85.84 E31.52902
G1 X116.486 Y85.84 E32.5987
G1 X116.486 Y124.16 E34.38304
M204 S3000
M205 X10 Y10
G0 F3000 X117.046 Y124.72
M204 S1800
M205 X8 Y8
;TYPE:WALL-OUTER
G1 F1500 X92.954 Y124.72 E35.50486
G1 X92.954 Y85.28 E37.34135
G1 X117.046 Y85.28 E38.46318
G1 X117.046 Y124.72 E40.29967
M204 S3000
M205 X10 Y10
G0 F3000 X116.846 Y124.72
G0 X116.416 Y124.09
G0 X115.376 Y123.05
M204 S1800
M205 X8 Y8
;TYPE:SKIN
G1 F1500 X94.624 Y123.05 E41.26597
G1 X94.624 Y86.95 E42.94694
G1 X115.376 Y86.95 E43.91324
G1 X115.376 Y123.05 E45.5942
M204 S3000
M205 X10 Y10
G0 F3000 X95.07 Y122.789
M204 S1800
M205 X8 Y8
G1 F1500 X94.883 Y122.601 E45.60655
M204 S3000
M205 X10 Y10
G0 F3000 X94.883 Y121.809
M204 S1800
M205 X8 Y8
G1 F1500 X95.862 Y122.789 E45.67105
M204 S3000
M205 X10 Y10
G0 F3000 X96.654 Y122.789
M204 S1800
M205 X8 Y8
G1 F1500 X94.883 Y121.017 E45.78771
M204 S3000
M205 X10 Y10
G0 F3000 X94.883 Y120.225
M204 S1800
M205 X8 Y8
G1 F1500 X97.446 Y122.789 E45.95652
M204 S3000
M205 X10 Y10
G0 F3000 X98.238 Y122.789
M204 S1800
M205 X8 Y8
G1 F1500 X94.883 Y119.433 E46.17748
M204 S3000
M205 X10 Y10
G0 F3000 X94.883 Y118.641
M204 S1800
M205 X8 Y8
G1 F1500 X99.03 Y122.789 E46.4506
M204 S3000
M205 X10 Y10
G0 F3000 X99.822 Y122.789
M204 S1800
M205 X8 Y8
G1 F1500 X94.883 Y117.849 E46.77588
M204 S3000
M205 X10 Y10
G0 F3000 X94.883 Y117.057
M204 S1800
M205 X8 Y8
G1 F1500 X100.614 Y122.789 E47.15331
M204 S3000
M205 X10 Y10
G0 F3000 X101.406 Y122.789
M204 S1800
M205 X8 Y8
G1 F1500 X94.883 Y116.266 E47.58286
M204 S3000
M205 X10 Y10
G0 F3000 X94.883 Y115.474
M204 S1800
M205 X8 Y8
G1 F1500 X102.198 Y122.789 E48.06456
M204 S3000
M205 X10 Y10
G0 F3000 X102.99 Y122.789
M204 S1800
M205 X8 Y8
G1 F1500 X94.883 Y114.682 E48.59842
M204 S3000
M205 X10 Y10
G0 F3000 X94.883 Y113.89
M204 S1800
M205 X8 Y8
G1 F1500 X103.782 Y122.789 E49.18444
M204 S3000
M205 X10 Y10
G0 F3000 X104.574 Y122.789
M204 S1800
M205 X8 Y8
G1 F1500 X94.883 Y113.098 E49.82261
M204 S3000
M205 X10 Y10
G0 F3000 X94.883 Y112.306
M204 S1800
M205 X8 Y8
G1 F1500 X105.365 Y122.789 E50.5129
M204 S3000
M205 X10 Y10
G0 F3000 X106.157 Y122.789
M204 S1800
M205 X8 Y8
G1 F1500 X94.883 Y111.514 E51.25534
M204 S3000
M205 X10 Y10
G0 F3000 X94.883 Y110.722
M204 S1800
M205 X8 Y8
G1 F1500 X106.949 Y122.789 E52.04994
M204 S3000
M205 X10 Y10
G0 F3000 X107.741 Y122.789
M204 S1800
M205 X8 Y8
G1 F1500 X94.883 Y109.93 E52.8967
M204 S3000
M205 X10 Y10
G0 F3000 X94.883 Y109.138
M204 S1800
M205 X8 Y8
G1 F1500 X108.533 Y122.789 E53.79561
M204 S3000
M205 X10 Y10
G0 F3000 X109.325 Y122.789
M204 S1800
M205 X8 Y8
G1 F1500 X94.883 Y108.346 E54.74667
M204 S3000
M205 X10 Y10
G0 F3000 X94.883 Y107.554
M204 S1800
M205 X8 Y8
G1 F1500 X110.117 Y122.789 E55.74989
M204 S3000
M205 X10 Y10
G0 F3000 X110.909 Y122.789
M204 S1800
M205 X8 Y8
G1 F1500 X94.883 Y106.762 E56.80526
M204 S3000
M205 X10 Y10
G0 F3000 X94.883 Y105.97
M204 S1800
M205 X8 Y8
G1 F1500 X111.701 Y122.789 E57.91279
M204 S3000
M205 X10 Y10
G0 F3000 X112.493 Y122.789
M204 S1800
M205 X8 Y8
G1 F1500 X94.883 Y105.178 E59.07247
M204 S3000
M205 X10 Y10
G0 F3000 X94.883 Y104.386
M204 S1800
M205 X8 Y8
G1 F1500 X113.285 Y122.789 E60.2843
M204 S3000
M205 X10 Y10
G0 F3000 X114.077 Y122.789
M204 S1800
M205 X8 Y8
G1 F1500 X94.883 Y103.594 E61.54829
M204 S3000
M205 X10 Y10
G0 F3000 X94.883 Y102.802
M204 S1800
M205 X8 Y8
G1 F1500 X114.869 Y122.789 E62.86444
M204 S3000
M205 X10 Y10
G0 F3000 X115.115 Y122.243
M204 S1800
M205 X8 Y8
G1 F1500 X94.883 Y102.01 E64.19678
M204 S3000
M205 X10 Y10
G0 F3000 X94.883 Y101.218
M204 S1800
M205 X8 Y8
G1 F1500 X115.115 Y121.451 E65.52913
M204 S3000
M205 X10 Y10
G0 F3000 X115.115 Y120.659
M204 S1800
M205 X8 Y8
G1 F1500 X94.883 Y100.426 E66.86147
M204 S3000
M205 X10 Y10
G0 F3000 X94.883 Y99.634
M204 S1800
M205 X8 Y8
G1 F1500 X115.115 Y119.867 E68.19382
M204 S3000
M205 X10 Y10
G0 F3000 X115.115 Y119.075
M204 S1800
M205 X8 Y8
G1 F1500 X94.883 Y98.842 E69.52616
M204 S3000
M205 X10 Y10
G0 F3000 X94.883 Y98.05
M204 S1800
M205 X8 Y8
G1 F1500 X115.115 Y118.283 E70.85851
M204 S3000
M205 X10 Y10
G0 F3000 X115.115 Y117.491
M204 S1800
M205 X8 Y8
G1 F1500 X94.883 Y97.259 E72.19082
M204 S3000
M205 X10 Y10
G0 F3000 X94.883 Y96.467
M204 S1800
M205 X8 Y8
G1 F1500 X115.115 Y116.699 E73.52313
M204 S3000
M205 X10 Y10
G0 F3000 X115.115 Y115.907
M204 S1800
M205 X8 Y8
G1 F1500 X94.883 Y95.675 E74.85544
M204 S3000
M205 X10 Y10
G0 F3000 X94.883 Y94.883
M204 S1800
M205 X8 Y8
G1 F1500 X115.115 Y115.115 E76.18775
M204 S3000
M205 X10 Y10
G0 F3000 X115.115 Y114.323
M204 S1800
M205 X8 Y8
G1 F1500 X94.883 Y94.091 E77.52007
M204 S3000
M205 X10 Y10
G0 F3000 X94.883 Y93.299
M204 S1800
M205 X8 Y8
G1 F1500 X115.115 Y113.531 E78.85238
M204 S3000
M205 X10 Y10
G0 F3000 X115.115 Y112.739
M204 S1800
M205 X8 Y8
G1 F1500 X94.883 Y92.507 E80.18469
M204 S3000
M205 X10 Y10
G0 F3000 X94.883 Y91.715
M204 S1800
M205 X8 Y8
G1 F1500 X115.115 Y111.947 E81.517
M204 S3000
M205 X10 Y10
G0 F3000 X115.115 Y111.155
M204 S1800
M205 X8 Y8
G1 F1500 X94.883 Y90.923 E82.84931
M204 S3000
M205 X10 Y10
G0 F3000 X94.883 Y90.131
M204 S1800
M205 X8 Y8
G1 F1500 X115.115 Y110.363 E84.18162
M204 S3000
M205 X10 Y10
G0 F3000 X115.115 Y109.571
M204 S1800
M205 X8 Y8
G1 F1500 X94.883 Y89.339 E85.51394
M204 S3000
M205 X10 Y10
G0 F3000 X94.883 Y88.547
M204 S1800
M205 X8 Y8
G1 F1500 X115.115 Y108.779 E86.84625
M204 S3000
M205 X10 Y10
G0 F3000 X115.115 Y107.987
M204 S1800
M205 X8 Y8
G1 F1500 X94.883 Y87.755 E88.17856
M204 S3000
M205 X10 Y10
G0 F3000 X95.129 Y87.21
M204 S1800
M205 X8 Y8
G1 F1500 X115.115 Y107.195 E89.49464
M204 S3000
M205 X10 Y10
G0 F3000 X115.115 Y106.404
M204 S1800
M205 X8 Y8
G1 F1500 X95.921 Y87.21 E90.7586
M204 S3000
M205 X10 Y10
G0 F3000 X96.713 Y87.21
M204 S1800
M205 X8 Y8
G1 F1500 X115.115 Y105.612 E91.9704
M204 S3000
M205 X10 Y10
G0 F3000 X115.115 Y104.82
M204 S1800
M205 X8 Y8
G1 F1500 X97.505 Y87.21 E93.13005
M204 S3000
M205 X10 Y10
G0 F3000 X98.297 Y87.21
M204 S1800
M205 X8 Y8
G1 F1500 X115.115 Y104.028 E94.23754
M204 S3000
M205 X10 Y10
G0 F3000 X115.115 Y103.236
M204 S1800
M205 X8 Y8
G1 F1500 X99.089 Y87.21 E95.29288
M204 S3000
M205 X10 Y10
G0 F3000 X99.881 Y87.21
M204 S1800
M205 X8 Y8
G1 F1500 X115.115 Y102.444 E96.29607
M204 S3000
M205 X10 Y10
G0 F3000 X115.115 Y101.652
M204 S1800
M205 X8 Y8
G1 F1500 X100.673 Y87.21 E97.2471
M204 S3000
M205 X10 Y10
G0 F3000 X101.465 Y87.21
M204 S1800
M205 X8 Y8
G1 F1500 X115.115 Y100.86 E98.14597
M204 S3000
M205 X10 Y10
G0 F3000 X115.115 Y100.068
M204 S1800
M205 X8 Y8
G1 F1500 X102.257 Y87.21 E98.99269
M204 S3000
M205 X10 Y10
G0 F3000 X103.049 Y87.21
M204 S1800
M205 X8 Y8
G1 F1500 X115.115 Y99.276 E99.78726
M204 S3000
M205 X10 Y10
G0 F3000 X115.115 Y98.484
M204 S1800
M205 X8 Y8
G1 F1500 X103.841 Y87.21 E100.52967
M204 S3000
M205 X10 Y10
G0 F3000 X104.633 Y87.21
M204 S1800
M205 X8 Y8
G1 F1500 X115.115 Y97.692 E101.21993
M204 S3000
M205 X10 Y10
G0 F3000 X115.115 Y96.9
M204 S1800
M205 X8 Y8
G1 F1500 X105.425 Y87.21 E101.85803
M204 S3000
M205 X10 Y10
G0 F3000 X106.217 Y87.21
M204 S1800
M205 X8 Y8
G1 F1500 X115.115 Y96.108 E102.44398
M204 S3000
M205 X10 Y10
G0 F3000 X115.115 Y95.316
M204 S1800
M205 X8 Y8
G1 F1500 X107.009 Y87.21 E102.97778
M204 S3000
M205 X10 Y10
G0 F3000 X107.801 Y87.21
M204 S1800
M205 X8 Y8
G1 F1500 X115.115 Y94.524 E103.45942
M204 S3000
M205 X10 Y10
G0 F3000 X115.115 Y93.732
M204 S1800
M205 X8 Y8
G1 F1500 X108.593 Y87.21 E103.8889
M204 S3000
M205 X10 Y10
G0 F3000 X109.385 Y87.21
M204 S1800
M205 X8 Y8
G1 F1500 X115.115 Y92.94 E104.26623
M204 S3000
M205 X10 Y10
G0 F3000 X115.115 Y92.148
M204 S1800
M205 X8 Y8
G1 F1500 X110.177 Y87.21 E104.59141
M204 S3000
M205 X10 Y10
G0 F3000 X110.969 Y87.21
M204 S1800
M205 X8 Y8
G1 F1500 X115.115 Y91.356 E104.86443
M204 S3000
M205 X10 Y10
G0 F3000 X115.115 Y90.564
M204 S1800
M205 X8 Y8
G1 F1500 X111.761 Y87.21 E105.08529
M204 S3000
M205 X10 Y10
G0 F3000 X112.553 Y87.21
M204 S1800
M205 X8 Y8
G1 F1500 X115.115 Y89.772 E105.25401
M204 S3000
M205 X10 Y10
G0 F3000 X115.115 Y88.98
M204 S1800
M205 X8 Y8
G1 F1500 X113.344 Y87.21 E105.3706
M204 S3000
M205 X10 Y10
G0 F3000 X114.136 Y87.21
M204 S1800
M205 X8 Y8
G1 F1500 X115.115 Y88.188 E105.43503
M204 S3000
M205 X10 Y10
G0 F3000 X115.115 Y87.396
M204 S1800
M205 X8 Y8
G1 F1500 X114.928 Y87.21 E105.44731
;TIME_ELAPSED:91.618210
G1 F2400 E99.44731
M140 S0
M204 S4000
M205 X20 Y20
M107
M104 S0 ; turn off extruder
M140 S0 ; turn off bed
M84 ; disable motors
M107
G91 ;relative positioning
