;FLAVOR:Marlin
;TIME:2854
;Filament used: 2.33234m
;Layer height: 0.2
;MINX:56.1
;MINY:86.1
;MINZ:0.2
;MAXX:153.9
;MAXY:123.9
;MAXZ:5
;Generated with Cura_SteamEngine 4.8.0
M140 S60
M105
M190 S60
M104 S200
M105
M109 S200
M82 ;absolute extrusion mode
; Script based on an original created by tjjfvi (https://github.com/tjjfvi)
; An up-to-date version of the tjjfvi's original script can be found
; here:  https://csi.t6.fyi/
; Note - This script will only work in Cura V4.2 and above!
; --- Global Settings
; layer_height = 0.2
; smooth_spiralized_contours = True
; magic_mesh_surface_mode = normal
; machine_extruder_count = 1
; --- Single Extruder Settings
; speed_z_hop = 10
; retraction_amount = 6
; retraction_hop = 0.075
; retraction_hop_enabled = True
; retraction_enable = True
; retraction_speed = 40
; retraction_retract_speed = 40
; retraction_prime_speed = 40
; speed_travel = 100


G21 ;metric values
G90 ;absolute positioning
M82 ;set extruder to absolute mode
M107 ;start with the fan off
G28 X0 Y0 ;move X/Y to min endstops
G28 Z0 ;move Z to min endstops
G1 Z15.0 F100 ;move the platform down 15mm
G92 E0 ;zero the extruded length
G1 F200 E3 ;extrude 3mm of feed stock
G92 E0 ;zero the extruded length again
G1 F100
G0 Y20 F100
M117 Printing...
G5
G92 E0
G92 E0
G1 F2400 E-6
;LAYER_COUNT:25
;LAYER:0
M106 S255
M204 S3000
M205 X10 Y10
G1 F600 Z0.275
G0 F3000 X59.159 Y87.056 Z0.275
M204 S1800
M205 X8 Y8
;TYPE:SKIRT
G1 F600 Z0.2
G1 F2400 E0
G1 X59.788 Y86.716 E0.03329
G1 X60.452 Y86.449 E0.06662
G1 X61.141 Y86.257 E0.09992
G1 X61.847 Y86.143 E0.13322
G1 X62.651 Y86.103 E0.17071
G1 X62.83 Y86.1 E0.17904
G1 X146.793 Y86.1 E4.08871
G1 X147.583 Y86.111 E4.1255
G1 X148.296 Y86.161 E4.15878
G1 X149 Y86.29 E4.19211
G1 X149.684 Y86.498 E4.2254
G1 X150.341 Y86.78 E4.25869
G1 X150.963 Y87.134 E4.29202
G1 X151.541 Y87.555 E4.32531
G1 X152.069 Y88.038 E4.35864
G1 X152.539 Y88.576 E4.3919
G1 X152.947 Y89.164 E4.42523
G1 X153.286 Y89.794 E4.45854
G1 X153.553 Y90.457 E4.49182
G1 X153.744 Y91.147 E4.52516
G1 X153.857 Y91.853 E4.55845
G1 X153.897 Y92.65 E4.59561
G1 X153.9 Y92.83 E4.60399
G1 X153.9 Y116.843 E5.72214
G1 X153.891 Y117.57 E5.75599
G1 X153.842 Y118.284 E5.78932
G1 X153.714 Y118.988 E5.82264
G1 X153.508 Y119.673 E5.85594
G1 X153.227 Y120.33 E5.88922
G1 X152.874 Y120.953 E5.92256
G1 X152.454 Y121.532 E5.95587
G1 X151.972 Y122.06 E5.98916
G1 X151.435 Y122.532 E6.02245
G1 X150.847 Y122.94 E6.05577
G1 X150.218 Y123.281 E6.08909
G1 X149.555 Y123.549 E6.12239
G1 X148.866 Y123.741 E6.15569
G1 X148.16 Y123.856 E6.189
G1 X147.349 Y123.897 E6.22681
G1 X147.17 Y123.9 E6.23515
G1 X63.124 Y123.899 E10.14868
G1 X62.426 Y123.89 E10.18119
G1 X61.713 Y123.841 E10.21446
G1 X61.009 Y123.713 E10.24778
G1 X60.324 Y123.507 E10.28109
G1 X59.667 Y123.225 E10.31438
G1 X59.045 Y122.872 E10.34768
G1 X58.466 Y122.452 E10.38099
G1 X57.937 Y121.97 E10.41432
G1 X57.466 Y121.432 E10.44761
G1 X57.058 Y120.845 E10.4809
G1 X56.718 Y120.215 E10.51423
G1 X56.45 Y119.552 E10.54753
G1 X56.258 Y118.863 E10.58084
G1 X56.144 Y118.157 E10.61414
G1 X56.102 Y117.331 E10.65265
G1 X56.1 Y117.158 E10.6607
G1 X56.101 Y93.087 E11.78155
G1 X56.11 Y92.422 E11.81252
G1 X56.159 Y91.709 E11.8458
G1 X56.288 Y91.005 E11.87912
G1 X56.495 Y90.321 E11.9124
G1 X56.777 Y89.663 E11.94574
G1 X57.13 Y89.041 E11.97904
G1 X57.55 Y88.463 E12.01231
G1 X58.033 Y87.935 E12.04563
G1 X58.571 Y87.464 E12.07892
G1 X59.159 Y87.056 E12.11225
M204 S3000
M205 X10 Y10
G0 F3000 X59.69 Y87.394
M204 S1800
M205 X8 Y8
G1 F2400 X60.307 Y87.1 E12.14407
G1 X60.953 Y86.88 E12.17585
G1 X61.621 Y86.737 E12.20766
G1 X62.345 Y86.671 E12.24151
G1 X62.83 Y86.66 E12.2641
G1 X146.793 Y86.66 E16.17377
G1 X147.575 Y86.671 E16.21019
G1 X148.256 Y86.72 E16.24198
G1 X148.927 Y86.849 E16.2738
G1 X149.578 Y87.056 E16.30561
G1 X150.201 Y87.337 E16.33743
G1 X150.787 Y87.689 E16.36926
G1 X151.327 Y88.107 E16.40106
G1 X151.815 Y88.585 E16.43287
G1 X152.244 Y89.117 E16.46469
G1 X152.608 Y89.695 E16.4965
G1 X152.902 Y90.312 E16.52832
G1 X153.121 Y90.959 E16.56013
G1 X153.264 Y91.627 E16.59194
G1 X153.329 Y92.346 E16.62555
G1 X153.34 Y92.83 E16.6481
G1 X153.34 Y116.836 E17.76592
G1 X153.331 Y117.563 E17.79977
G1 X153.282 Y118.245 E17.83161
G1 X153.154 Y118.916 E17.86342
G1 X152.949 Y119.568 E17.89524
G1 X152.669 Y120.191 E17.92705
G1 X152.319 Y120.777 E17.95883
G1 X151.902 Y121.319 E17.99067
G1 X151.425 Y121.808 E18.02248
G1 X150.894 Y122.237 E18.05427
G1 X150.316 Y122.602 E18.0861
G1 X149.7 Y122.897 E18.1179
G1 X149.053 Y123.118 E18.14974
G1 X148.385 Y123.262 E18.18156
G1 X147.655 Y123.329 E18.21569
G1 X147.17 Y123.34 E18.23828
G1 X63.132 Y123.34 E22.15144
G1 X62.434 Y123.331 E22.18395
G1 X61.752 Y123.282 E22.21579
G1 X61.081 Y123.154 E22.24759
G1 X60.43 Y122.948 E22.27939
G1 X59.806 Y122.668 E22.31124
G1 X59.22 Y122.317 E22.34304
G1 X58.679 Y121.9 E22.37485
G1 X58.19 Y121.422 E22.40669
G1 X57.761 Y120.891 E22.43848
G1 X57.396 Y120.313 E22.47031
G1 X57.102 Y119.697 E22.50209
G1 X56.881 Y119.05 E22.53393
G1 X56.737 Y118.382 E22.56575
G1 X56.671 Y117.649 E22.60002
G1 X56.66 Y117.158 E22.62289
G1 X56.661 Y93.095 E23.74336
G1 X56.67 Y92.43 E23.77433
G1 X56.719 Y91.749 E23.80612
G1 X56.847 Y91.077 E23.83797
G1 X57.053 Y90.426 E23.86977
G1 X57.334 Y89.803 E23.90159
G1 X57.685 Y89.217 E23.9334
G1 X58.103 Y88.676 E23.96523
G1 X58.58 Y88.188 E23.99701
G1 X59.112 Y87.759 E24.02883
G1 X59.69 Y87.394 E24.06066
M204 S3000
M205 X10 Y10
G0 F3000 X59.649 Y88.071
M204 S1800
M205 X8 Y8
G1 F2400 X60.216 Y87.753 E24.09093
G1 X60.817 Y87.507 E24.12117
G1 X61.444 Y87.337 E24.15142
G1 X62.361 Y87.231 E24.19441
G1 X62.83 Y87.22 E24.21625
G1 X146.793 Y87.22 E28.12592
G1 X147.567 Y87.231 E28.16197
G1 X148.214 Y87.28 E28.19218
G1 X148.851 Y87.408 E28.22243
G1 X149.467 Y87.614 E28.25268
G1 X150.054 Y87.894 E28.28296
G1 X150.601 Y88.243 E28.31317
G1 X151.102 Y88.657 E28.34344
G1 X151.547 Y89.13 E28.37368
G1 X151.932 Y89.654 E28.40395
G1 X152.249 Y90.221 E28.4342
G1 X152.494 Y90.822 E28.46442
G1 X152.663 Y91.449 E28.49466
G1 X152.769 Y92.362 E28.53746
G1 X152.78 Y92.83 E28.55926
G1 X152.78 Y116.829 E29.67675
G1 X152.771 Y117.556 E29.71061
G1 X152.723 Y118.204 E29.74086
G1 X152.595 Y118.841 E29.77112
G1 X152.391 Y119.458 E29.80138
G1 X152.112 Y120.045 E29.83164
G1 X151.764 Y120.593 E29.86187
G1 X151.351 Y121.094 E29.8921
G1 X150.879 Y121.541 E29.92237
G1 X150.356 Y121.926 E29.95261
G1 X149.79 Y122.244 E29.98284
G1 X149.188 Y122.491 E30.01314
G1 X148.562 Y122.661 E30.04335
G1 X147.639 Y122.769 E30.08662
G1 X147.17 Y122.78 E30.10846
G1 X63.139 Y122.78 E34.0213
G1 X62.441 Y122.771 E34.0538
G1 X61.793 Y122.722 E34.08406
G1 X61.156 Y122.595 E34.11431
G1 X60.54 Y122.39 E34.14454
G1 X59.953 Y122.111 E34.1748
G1 X59.405 Y121.762 E34.20505
G1 X58.904 Y121.349 E34.23529
G1 X58.457 Y120.877 E34.26556
G1 X58.072 Y120.354 E34.2958
G1 X57.754 Y119.787 E34.32607
G1 X57.508 Y119.186 E34.35631
G1 X57.338 Y118.559 E34.38656
G1 X57.231 Y117.634 E34.42992
G1 X57.22 Y117.158 E34.45209
G1 X57.22 Y93.103 E35.57219
G1 X57.229 Y92.438 E35.60316
G1 X57.278 Y91.79 E35.63342
G1 X57.406 Y91.153 E35.66367
G1 X57.611 Y90.536 E35.69394
G1 X57.891 Y89.95 E35.72419
G1 X58.24 Y89.402 E35.75444
G1 X58.654 Y88.901 E35.7847
G1 X59.126 Y88.455 E35.81494
G1 X59.649 Y88.071 E35.84515
M204 S3000
M205 X10 Y10
G1 F2400 E29.84515
;MESH:PCBBox_mk2.stl
G0 F3000 X63.354 Y91.835
G0 X63.354 Y93.354
G0 X146.1 Y116.1
M204 S1800
M205 X8 Y8
;TYPE:WALL-INNER
G1 F2400 E35.84515
G1 F1500 X63.9 Y116.1 E39.67273
G1 X63.9 Y93.9 E40.70645
G1 X146.1 Y93.9 E44.53403
G1 X146.1 Y116.1 E45.56775
M204 S3000
M205 X10 Y10
G0 F3000 X146.66 Y116.66
M204 S1800
M205 X8 Y8
G1 F1500 X63.34 Y116.66 E49.44748
G1 X63.34 Y93.34 E50.53336
G1 X146.66 Y93.34 E54.41309
G1 X146.66 Y116.66 E55.49896
M204 S3000
M205 X10 Y10
G0 F3000 X147.22 Y117.22
M204 S1800
M205 X8 Y8
;TYPE:WALL-OUTER
G1 F1500 X62.78 Y117.22 E59.43084
G1 X62.78 Y92.78 E60.56887
G1 X147.22 Y92.78 E64.50075
G1 X147.22 Y117.22 E65.63878
M204 S3000
M205 X10 Y10
G0 F3000 X147.02 Y117.22
G0 X146.59 Y116.59
G0 X145.55 Y115.55
M204 S1800
M205 X8 Y8
;TYPE:SKIN
G1 F1500 X64.45 Y115.55 E69.41514
G1 X64.45 Y94.45 E70.39764
G1 X145.55 Y94.45 E74.174
G1 X145.55 Y115.55 E75.1565
M204 S3000
M205 X10 Y10
G0 F3000 X145.289 Y95.395
M204 S1800
M205 X8 Y8
G1 F1500 X144.603 Y94.709 E75.20168
M204 S3000
M205 X10 Y10
G0 F3000 X143.811 Y94.709
M204 S1800
M205 X8 Y8
G1 F1500 X145.289 Y96.187 E75.29901
M204 S3000
M205 X10 Y10
G0 F3000 X145.289 Y96.979
M204 S1800
M205 X8 Y8
G1 F1500 X143.019 Y94.709 E75.44849
M204 S3000
M205 X10 Y10
G0 F3000 X142.227 Y94.709
M204 S1800
M205 X8 Y8
G1 F1500 X145.289 Y97.771 E75.65013
M204 S3000
M205 X10 Y10
G0 F3000 X145.289 Y98.563
M204 S1800
M205 X8 Y8
G1 F1500 X141.435 Y94.709 E75.90392
M204 S3000
M205 X10 Y10
G0 F3000 X140.643 Y94.709
M204 S1800
M205 X8 Y8
G1 F1500 X145.289 Y99.355 E76.20987
M204 S3000
M205 X10 Y10
G0 F3000 X145.289 Y100.147
M204 S1800
M205 X8 Y8
G1 F1500 X139.851 Y94.709 E76.56797
M204 S3000
M205 X10 Y10
G0 F3000 X139.059 Y94.709
M204 S1800
M205 X8 Y8
G1 F1500 X145.289 Y100.939 E76.97822
M204 S3000
M205 X10 Y10
G0 F3000 X145.289 Y101.731
M204 S1800
M205 X8 Y8
G1 F1500 X138.267 Y94.709 E77.44064
M204 S3000
M205 X10 Y10
G0 F3000 X137.475 Y94.709
M204 S1800
M205 X8 Y8
G1 F1500 X145.289 Y102.523 E77.9552
M204 S3000
M205 X10 Y10
G0 F3000 X145.289 Y103.315
M204 S1800
M205 X8 Y8
G1 F1500 X136.683 Y94.709 E78.52192
M204 S3000
M205 X10 Y10
G0 F3000 X135.891 Y94.709
M204 S1800
M205 X8 Y8
G1 F1500 X145.289 Y104.107 E79.14079
M204 S3000
M205 X10 Y10
G0 F3000 X145.289 Y104.899
M204 S1800
M205 X8 Y8
G1 F1500 X135.099 Y94.709 E79.81182
M204 S3000
M205 X10 Y10
G0 F3000 X134.307 Y94.709
M204 S1800
M205 X8 Y8
G1 F1500 X145.289 Y105.691 E80.53501
M204 S3000
M205 X10 Y10
G0 F3000 X145.289 Y106.483
M204 S1800
M205 X8 Y8
G1 F1500 X133.515 Y94.709 E81.31034
M204 S3000
M205 X10 Y10
G0 F3000 X132.723 Y94.709
M204 S1800
M205 X8 Y8
G1 F1500 X145.289 Y107.275 E82.13784
M204 S3000
M205 X10 Y10
G0 F3000 X145.289 Y108.067
M204 S1800
M205 X8 Y8
G1 F1500 X131.931 Y94.709 E83.01748
M204 S3000
M205 X10 Y10
G0 F3000 X131.14 Y94.709
M204 S1800
M205 X8 Y8
G1 F1500 X145.289 Y108.859 E83.94925
M204 S3000
M205 X10 Y10
G0 F3000 X145.289 Y109.651
M204 S1800
M205 X8 Y8
G1 F1500 X130.348 Y94.709 E84.93318
M204 S3000
M205 X10 Y10
G0 F3000 X129.556 Y94.709
M204 S1800
M205 X8 Y8
G1 F1500 X145.289 Y110.443 E85.96925
M204 S3000
M205 X10 Y10
G0 F3000 X145.289 Y111.234
M204 S1800
M205 X8 Y8
G1 F1500 X128.764 Y94.709 E87.05745
M204 S3000
M205 X10 Y10
G0 F3000 X127.972 Y94.709
M204 S1800
M205 X8 Y8
G1 F1500 X145.289 Y112.026 E88.19781
M204 S3000
M205 X10 Y10
G0 F3000 X145.289 Y112.818
M204 S1800
M205 X8 Y8
G1 F1500 X127.18 Y94.709 E89.39032
M204 S3000
M205 X10 Y10
G0 F3000 X126.388 Y94.709
M204 S1800
M205 X8 Y8
G1 F1500 X145.289 Y113.61 E90.63498
M204 S3000
M205 X10 Y10
G0 F3000 X145.289 Y114.402
M204 S1800
M205 X8 Y8
G1 F1500 X125.596 Y94.709 E91.9318
M204 S3000
M205 X10 Y10
G0 F3000 X124.804 Y94.709
M204 S1800
M205 X8 Y8
G1 F1500 X145.289 Y115.194 E93.28077
M204 S3000
M205 X10 Y10
G0 F3000 X144.592 Y115.289
M204 S1800
M205 X8 Y8
G1 F1500 X124.012 Y94.709 E94.636
M204 S3000
M205 X10 Y10
G0 F3000 X123.22 Y94.709
M204 S1800
M205 X8 Y8
G1 F1500 X143.8 Y115.289 E95.99123
M204 S3000
M205 X10 Y10
G0 F3000 X143.008 Y115.289
M204 S1800
M205 X8 Y8
G1 F1500 X122.428 Y94.709 E97.34645
M204 S3000
M205 X10 Y10
G0 F3000 X121.636 Y94.709
M204 S1800
M205 X8 Y8
G1 F1500 X142.216 Y115.289 E98.70168
M204 S3000
M205 X10 Y10
G0 F3000 X141.424 Y115.289
M204 S1800
M205 X8 Y8
G1 F1500 X120.844 Y94.709 E100.05691
M204 S3000
M205 X10 Y10
G0 F3000 X120.052 Y94.709
M204 S1800
M205 X8 Y8
G1 F1500 X140.632 Y115.289 E101.41214
M204 S3000
M205 X10 Y10
G0 F3000 X139.84 Y115.289
M204 S1800
M205 X8 Y8
G1 F1500 X119.26 Y94.709 E102.76737
M204 S3000
M205 X10 Y10
G0 F3000 X118.468 Y94.709
M204 S1800
M205 X8 Y8
G1 F1500 X139.048 Y115.289 E104.12259
M204 S3000
M205 X10 Y10
G0 F3000 X138.256 Y115.289
M204 S1800
M205 X8 Y8
G1 F1500 X117.676 Y94.709 E105.47782
M204 S3000
M205 X10 Y10
G0 F3000 X116.884 Y94.709
M204 S1800
M205 X8 Y8
G1 F1500 X137.464 Y115.289 E106.83305
M204 S3000
M205 X10 Y10
G0 F3000 X136.672 Y115.289
M204 S1800
M205 X8 Y8
G1 F1500 X116.092 Y94.709 E108.18828
M204 S3000
M205 X10 Y10
G0 F3000 X115.3 Y94.709
M204 S1800
M205 X8 Y8
G1 F1500 X135.88 Y115.289 E109.54351
M204 S3000
M205 X10 Y10
G0 F3000 X135.088 Y115.289
M204 S1800
M205 X8 Y8
G1 F1500 X114.508 Y94.709 E110.89874
M204 S3000
M205 X10 Y10
G0 F3000 X113.716 Y94.709
M204 S1800
M205 X8 Y8
G1 F1500 X134.296 Y115.289 E112.25396
M204 S3000
M205 X10 Y10
G0 F3000 X133.504 Y115.289
M204 S1800
M205 X8 Y8
G1 F1500 X112.924 Y94.709 E113.60919
M204 S3000
M205 X10 Y10
G0 F3000 X112.132 Y94.709
M204 S1800
M205 X8 Y8
G1 F1500 X132.712 Y115.289 E114.96442
M204 S3000
M205 X10 Y10
G0 F3000 X131.92 Y115.289
M204 S1800
M205 X8 Y8
G1 F1500 X111.341 Y94.709 E116.31962
M204 S3000
M205 X10 Y10
G0 F3000 X110.549 Y94.709
M204 S1800
M205 X8 Y8
G1 F1500 X131.128 Y115.289 E117.67481
M204 S3000
M205 X10 Y10
G0 F3000 X130.336 Y115.289
M204 S1800
M205 X8 Y8
G1 F1500 X109.757 Y94.709 E119.03001
M204 S3000
M205 X10 Y10
G0 F3000 X108.965 Y94.709
M204 S1800
M205 X8 Y8
G1 F1500 X129.544 Y115.289 E120.3852
M204 S3000
M205 X10 Y10
G0 F3000 X128.752 Y115.289
M204 S1800
M205 X8 Y8
G1 F1500 X108.173 Y94.709 E121.7404
M204 S3000
M205 X10 Y10
G0 F3000 X107.381 Y94.709
M204 S1800
M205 X8 Y8
G1 F1500 X127.96 Y115.289 E123.09559
M204 S3000
M205 X10 Y10
G0 F3000 X127.168 Y115.289
M204 S1800
M205 X8 Y8
G1 F1500 X106.589 Y94.709 E124.45079
M204 S3000
M205 X10 Y10
G0 F3000 X105.797 Y94.709
M204 S1800
M205 X8 Y8
G1 F1500 X126.376 Y115.289 E125.80598
M204 S3000
M205 X10 Y10
G0 F3000 X125.584 Y115.289
M204 S1800
M205 X8 Y8
G1 F1500 X105.005 Y94.709 E127.16118
M204 S3000
M205 X10 Y10
G0 F3000 X104.213 Y94.709
M204 S1800
M205 X8 Y8
G1 F1500 X124.793 Y115.289 E128.51641
M204 S3000
M205 X10 Y10
G0 F3000 X124.001 Y115.289
M204 S1800
M205 X8 Y8
G1 F1500 X103.421 Y94.709 E129.87163
M204 S3000
M205 X10 Y10
G0 F3000 X102.629 Y94.709
M204 S1800
M205 X8 Y8
G1 F1500 X123.209 Y115.289 E131.22686
M204 S3000
M205 X10 Y10
G0 F3000 X122.417 Y115.289
M204 S1800
M205 X8 Y8
G1 F1500 X101.837 Y94.709 E132.58209
M204 S3000
M205 X10 Y10
G0 F3000 X101.045 Y94.709
M204 S1800
M205 X8 Y8
G1 F1500 X121.625 Y115.289 E133.93732
M204 S3000
M205 X10 Y10
G0 F3000 X120.833 Y115.289
M204 S1800
M205 X8 Y8
G1 F1500 X100.253 Y94.709 E135.29255
M204 S3000
M205 X10 Y10
G0 F3000 X99.461 Y94.709
M204 S1800
M205 X8 Y8
G1 F1500 X120.041 Y115.289 E136.64777
M204 S3000
M205 X10 Y10
G0 F3000 X119.249 Y115.289
M204 S1800
M205 X8 Y8
G1 F1500 X98.669 Y94.709 E138.003
M204 S3000
M205 X10 Y10
G0 F3000 X97.877 Y94.709
M204 S1800
M205 X8 Y8
G1 F1500 X118.457 Y115.289 E139.35823
M204 S3000
M205 X10 Y10
G0 F3000 X117.665 Y115.289
M204 S1800
M205 X8 Y8
G1 F1500 X97.085 Y94.709 E140.71346
M204 S3000
M205 X10 Y10
G0 F3000 X96.293 Y94.709
M204 S1800
M205 X8 Y8
G1 F1500 X116.873 Y115.289 E142.06869
M204 S3000
M205 X10 Y10
G0 F3000 X116.081 Y115.289
M204 S1800
M205 X8 Y8
G1 F1500 X95.501 Y94.709 E143.42391
M204 S3000
M205 X10 Y10
G0 F3000 X94.709 Y94.709
M204 S1800
M205 X8 Y8
G1 F1500 X115.289 Y115.289 E144.77914
M204 S3000
M205 X10 Y10
G0 F3000 X114.497 Y115.289
M204 S1800
M205 X8 Y8
G1 F1500 X93.917 Y94.709 E146.13437
M204 S3000
M205 X10 Y10
G0 F3000 X93.125 Y94.709
M204 S1800
M205 X8 Y8
G1 F1500 X113.705 Y115.289 E147.4896
M204 S3000
M205 X10 Y10
G0 F3000 X112.913 Y115.289
M204 S1800
M205 X8 Y8
G1 F1500 X92.334 Y94.709 E148.84479
M204 S3000
M205 X10 Y10
G0 F3000 X91.542 Y94.709
M204 S1800
M205 X8 Y8
G1 F1500 X112.121 Y115.289 E150.19999
M204 S3000
M205 X10 Y10
G0 F3000 X111.329 Y115.289
M204 S1800
M205 X8 Y8
G1 F1500 X90.75 Y94.709 E151.55518
M204 S3000
M205 X10 Y10
G0 F3000 X89.958 Y94.709
M204 S1800
M205 X8 Y8
G1 F1500 X110.537 Y115.289 E152.91038
M204 S3000
M205 X10 Y10
G0 F3000 X109.745 Y115.289
M204 S1800
M205 X8 Y8
G1 F1500 X89.166 Y94.709 E154.26558
M204 S3000
M205 X10 Y10
G0 F3000 X88.374 Y94.709
M204 S1800
M205 X8 Y8
G1 F1500 X108.953 Y115.289 E155.62077
