;FLAVOR:Marlin
;TIME:3566
;Filament used: 2.88085m
;Layer height: 0.2
;MINX:46.1
;MINY:86.1
;MINZ:0.2
;MAXX:163.9
;MAXY:123.9
;MAXZ:5
;Generated with Cura_SteamEngine 4.8.0
M140 S60
M105
M190 S60
M104 S200
M105
M109 S200
M82 ;absolute extrusion mode
; Script based on an original created by tjjfvi (https://github.com/tjjfvi)
; An up-to-date version of the tjjfvi's original script can be found
; here:  https://csi.t6.fyi/
; Note - This script will only work in Cura V4.2 and above!
; --- Global Settings
; layer_height = 0.2
; smooth_spiralized_contours = True
; magic_mesh_surface_mode = normal
; machine_extruder_count = 1
; --- Single Extruder Settings
; speed_z_hop = 10
; retraction_amount = 6
; retraction_hop = 0.075
; retraction_hop_enabled = True
; retraction_enable = True
; retraction_speed = 40
; retraction_retract_speed = 40
; retraction_prime_speed = 40
; speed_travel = 100


G21 ;metric values
G90 ;absolute positioning
M82 ;set extruder to absolute mode
M107 ;start with the fan off
G28 X0 Y0 ;move X/Y to min endstops
G28 Z0 ;move Z to min endstops
G1 Z15.0 F100 ;move the platform down 15mm
G92 E0 ;zero the extruded length
G1 F200 E3 ;extrude 3mm of feed stock
G92 E0 ;zero the extruded length again
G1 F100
G0 Y20 F100
M117 Printing...
G5
G92 E0
G92 E0
G1 F2400 E-6
;LAYER_COUNT:25
;LAYER:0
M106 S255
M204 S3000
M205 X10 Y10
G1 F600 Z0.275
G0 F3000 X49.159 Y87.056 Z0.275
M204 S1800
M205 X8 Y8
;TYPE:SKIRT
G1 F600 Z0.2
G1 F2400 E0
G1 X49.788 Y86.716 E0.03329
G1 X50.452 Y86.449 E0.06662
G1 X51.141 Y86.257 E0.09992
G1 X51.847 Y86.143 E0.13322
G1 X52.651 Y86.103 E0.17071
G1 X52.83 Y86.1 E0.17904
G1 X156.793 Y86.1 E5.02
G1 X157.583 Y86.111 E5.05679
G1 X158.296 Y86.161 E5.09007
G1 X159 Y86.29 E5.12339
G1 X159.684 Y86.498 E5.15668
G1 X160.341 Y86.78 E5.18998
G1 X160.963 Y87.134 E5.2233
G1 X161.541 Y87.555 E5.2566
G1 X162.069 Y88.038 E5.28992
G1 X162.539 Y88.576 E5.32318
G1 X162.947 Y89.164 E5.35651
G1 X163.286 Y89.794 E5.38982
G1 X163.553 Y90.457 E5.4231
G1 X163.744 Y91.147 E5.45644
G1 X163.857 Y91.853 E5.48973
G1 X163.897 Y92.65 E5.52689
G1 X163.9 Y92.83 E5.53527
G1 X163.9 Y116.843 E6.65342
G1 X163.891 Y117.57 E6.68728
G1 X163.842 Y118.284 E6.7206
G1 X163.714 Y118.988 E6.75392
G1 X163.508 Y119.673 E6.78723
G1 X163.227 Y120.33 E6.8205
G1 X162.874 Y120.953 E6.85384
G1 X162.454 Y121.532 E6.88715
G1 X161.972 Y122.06 E6.92044
G1 X161.435 Y122.532 E6.95373
G1 X160.847 Y122.94 E6.98706
G1 X160.218 Y123.281 E7.02037
G1 X159.555 Y123.549 E7.05367
G1 X158.866 Y123.741 E7.08698
G1 X158.16 Y123.856 E7.12028
G1 X157.349 Y123.897 E7.1581
G1 X157.17 Y123.9 E7.16643
G1 X53.124 Y123.899 E12.01125
G1 X52.426 Y123.89 E12.04375
G1 X51.713 Y123.841 E12.07703
G1 X51.009 Y123.713 E12.11035
G1 X50.324 Y123.507 E12.14366
G1 X49.667 Y123.225 E12.17695
G1 X49.045 Y122.872 E12.21025
G1 X48.466 Y122.452 E12.24356
G1 X47.937 Y121.97 E12.27688
G1 X47.466 Y121.432 E12.31018
G1 X47.058 Y120.845 E12.34347
G1 X46.718 Y120.215 E12.3768
G1 X46.45 Y119.552 E12.4101
G1 X46.258 Y118.863 E12.4434
G1 X46.144 Y118.157 E12.4767
G1 X46.102 Y117.331 E12.51522
G1 X46.1 Y117.158 E12.52327
G1 X46.101 Y93.087 E13.64412
G1 X46.11 Y92.422 E13.67509
G1 X46.159 Y91.709 E13.70837
G1 X46.288 Y91.005 E13.74169
G1 X46.495 Y90.321 E13.77497
G1 X46.777 Y89.663 E13.8083
G1 X47.13 Y89.041 E13.84161
G1 X47.55 Y88.463 E13.87487
G1 X48.033 Y87.935 E13.9082
G1 X48.571 Y87.464 E13.94149
G1 X49.159 Y87.056 E13.97482
M204 S3000
M205 X10 Y10
G0 F3000 X49.69 Y87.394
M204 S1800
M205 X8 Y8
G1 F2400 X50.307 Y87.1 E14.00664
G1 X50.953 Y86.88 E14.03842
G1 X51.621 Y86.737 E14.07023
G1 X52.345 Y86.671 E14.10408
G1 X52.83 Y86.66 E14.12667
G1 X156.793 Y86.66 E18.96762
G1 X157.575 Y86.671 E19.00404
G1 X158.256 Y86.72 E19.03583
G1 X158.927 Y86.849 E19.06765
G1 X159.578 Y87.056 E19.09946
G1 X160.201 Y87.337 E19.13128
G1 X160.787 Y87.689 E19.16311
G1 X161.327 Y88.107 E19.19491
G1 X161.815 Y88.585 E19.22672
G1 X162.244 Y89.117 E19.25854
G1 X162.608 Y89.695 E19.29035
G1 X162.902 Y90.312 E19.32217
G1 X163.121 Y90.959 E19.35398
G1 X163.264 Y91.627 E19.38579
G1 X163.329 Y92.346 E19.4194
G1 X163.34 Y92.83 E19.44195
G1 X163.34 Y116.836 E20.55977
G1 X163.331 Y117.563 E20.59362
G1 X163.282 Y118.245 E20.62546
G1 X163.154 Y118.916 E20.65727
G1 X162.949 Y119.568 E20.68909
G1 X162.669 Y120.191 E20.7209
G1 X162.319 Y120.777 E20.75268
G1 X161.902 Y121.319 E20.78452
G1 X161.425 Y121.808 E20.81633
G1 X160.894 Y122.237 E20.84812
G1 X160.316 Y122.602 E20.87995
G1 X159.7 Y122.897 E20.91175
G1 X159.053 Y123.118 E20.94359
G1 X158.385 Y123.262 E20.97541
G1 X157.655 Y123.329 E21.00954
G1 X157.17 Y123.34 E21.03213
G1 X53.132 Y123.34 E25.87658
G1 X52.434 Y123.331 E25.90908
G1 X51.752 Y123.282 E25.94092
G1 X51.081 Y123.154 E25.97273
G1 X50.43 Y122.948 E26.00452
G1 X49.806 Y122.668 E26.03637
G1 X49.22 Y122.317 E26.06818
G1 X48.679 Y121.9 E26.09999
G1 X48.19 Y121.422 E26.13183
G1 X47.761 Y120.891 E26.16361
G1 X47.396 Y120.313 E26.19544
G1 X47.102 Y119.697 E26.22723
G1 X46.881 Y119.05 E26.25906
G1 X46.737 Y118.382 E26.29088
G1 X46.671 Y117.649 E26.32515
G1 X46.66 Y117.158 E26.34802
G1 X46.661 Y93.095 E27.4685
G1 X46.67 Y92.43 E27.49946
G1 X46.719 Y91.749 E27.53126
G1 X46.847 Y91.077 E27.56311
G1 X47.053 Y90.426 E27.5949
G1 X47.334 Y89.803 E27.62673
G1 X47.685 Y89.217 E27.65853
G1 X48.103 Y88.676 E27.69037
G1 X48.58 Y88.188 E27.72214
G1 X49.112 Y87.759 E27.75397
G1 X49.69 Y87.394 E27.7858
M204 S3000
M205 X10 Y10
G0 F3000 X49.649 Y88.071
M204 S1800
M205 X8 Y8
G1 F2400 X50.216 Y87.753 E27.81607
G1 X50.817 Y87.507 E27.84631
G1 X51.444 Y87.337 E27.87656
G1 X52.361 Y87.231 E27.91954
G1 X52.83 Y87.22 E27.94139
G1 X156.793 Y87.22 E32.78234
G1 X157.567 Y87.231 E32.81838
G1 X158.214 Y87.28 E32.8486
G1 X158.851 Y87.408 E32.87885
G1 X159.467 Y87.614 E32.9091
G1 X160.054 Y87.894 E32.93938
G1 X160.601 Y88.243 E32.96959
G1 X161.102 Y88.657 E32.99986
G1 X161.547 Y89.13 E33.0301
G1 X161.932 Y89.654 E33.06037
G1 X162.249 Y90.221 E33.09062
G1 X162.494 Y90.822 E33.12084
G1 X162.663 Y91.449 E33.15108
G1 X162.769 Y92.362 E33.19388
G1 X162.78 Y92.83 E33.21568
G1 X162.78 Y116.829 E34.33317
G1 X162.771 Y117.556 E34.36703
G1 X162.723 Y118.204 E34.39728
G1 X162.595 Y118.841 E34.42754
G1 X162.391 Y119.458 E34.4578
G1 X162.112 Y120.045 E34.48806
G1 X161.764 Y120.593 E34.51829
G1 X161.351 Y121.094 E34.54852
G1 X160.879 Y121.541 E34.57879
G1 X160.356 Y121.926 E34.60903
G1 X159.79 Y122.244 E34.63926
G1 X159.188 Y122.491 E34.66956
G1 X158.562 Y122.661 E34.69977
G1 X157.639 Y122.769 E34.74304
G1 X157.17 Y122.78 E34.76488
G1 X53.139 Y122.78 E39.609
G1 X52.441 Y122.771 E39.64151
G1 X51.793 Y122.722 E39.67177
G1 X51.156 Y122.595 E39.70201
G1 X50.54 Y122.39 E39.73224
G1 X49.953 Y122.111 E39.7625
G1 X49.405 Y121.762 E39.79276
G1 X48.904 Y121.349 E39.82299
G1 X48.457 Y120.877 E39.85326
G1 X48.072 Y120.354 E39.8835
G1 X47.754 Y119.787 E39.91377
G1 X47.508 Y119.186 E39.94401
G1 X47.338 Y118.559 E39.97426
G1 X47.231 Y117.634 E40.01762
G1 X47.22 Y117.158 E40.03979
G1 X47.22 Y93.103 E41.15989
G1 X47.229 Y92.438 E41.19086
G1 X47.278 Y91.79 E41.22112
G1 X47.406 Y91.153 E41.25137
G1 X47.611 Y90.536 E41.28165
G1 X47.891 Y89.95 E41.31189
G1 X48.24 Y89.402 E41.34214
G1 X48.654 Y88.901 E41.3724
G1 X49.126 Y88.455 E41.40264
G1 X49.649 Y88.071 E41.43285
M204 S3000
M205 X10 Y10
G1 F2400 E35.43285
;MESH:PCBBox_mk1.stl
G0 F3000 X53.354 Y91.835
G0 X53.354 Y93.354
G0 X156.1 Y116.1
M204 S1800
M205 X8 Y8
;TYPE:WALL-INNER
G1 F2400 E41.43285
G1 F1500 X53.9 Y116.1 E46.19171
G1 X53.9 Y93.9 E47.22544
G1 X156.1 Y93.9 E51.9843
G1 X156.1 Y116.1 E53.01802
M204 S3000
M205 X10 Y10
G0 F3000 X156.66 Y116.66
M204 S1800
M205 X8 Y8
G1 F1500 X53.34 Y116.66 E57.82904
G1 X53.34 Y93.34 E58.91491
G1 X156.66 Y93.34 E63.72593
G1 X156.66 Y116.66 E64.8118
M204 S3000
M205 X10 Y10
G0 F3000 X157.22 Y117.22
M204 S1800
M205 X8 Y8
;TYPE:WALL-OUTER
G1 F1500 X52.78 Y117.22 E69.67497
G1 X52.78 Y92.78 E70.813
G1 X157.22 Y92.78 E75.67616
G1 X157.22 Y117.22 E76.81419
M204 S3000
M205 X10 Y10
G0 F3000 X157.02 Y117.22
G0 X156.59 Y116.59
G0 X155.55 Y115.55
M204 S1800
M205 X8 Y8
;TYPE:SKIN
G1 F1500 X54.45 Y115.55 E81.52183
G1 X54.45 Y94.45 E82.50433
G1 X155.55 Y94.45 E87.21197
G1 X155.55 Y115.55 E88.19448
M204 S3000
M205 X10 Y10
G0 F3000 X155.289 Y95.1
M204 S1800
M205 X8 Y8
G1 F1500 X154.898 Y94.709 E88.22022
M204 S3000
M205 X10 Y10
G0 F3000 X154.106 Y94.709
M204 S1800
M205 X8 Y8
G1 F1500 X155.289 Y95.892 E88.29813
M204 S3000
M205 X10 Y10
G0 F3000 X155.289 Y96.684
M204 S1800
M205 X8 Y8
G1 F1500 X153.314 Y94.709 E88.42818
M204 S3000
M205 X10 Y10
G0 F3000 X152.522 Y94.709
M204 S1800
M205 X8 Y8
G1 F1500 X155.289 Y97.476 E88.6104
M204 S3000
M205 X10 Y10
G0 F3000 X155.289 Y98.268
M204 S1800
M205 X8 Y8
G1 F1500 X151.73 Y94.709 E88.84476
M204 S3000
M205 X10 Y10
G0 F3000 X150.939 Y94.709
M204 S1800
M205 X8 Y8
G1 F1500 X155.289 Y99.06 E89.13125
M204 S3000
M205 X10 Y10
G0 F3000 X155.289 Y99.851
M204 S1800
M205 X8 Y8
G1 F1500 X150.147 Y94.709 E89.46986
M204 S3000
M205 X10 Y10
G0 F3000 X149.355 Y94.709
M204 S1800
M205 X8 Y8
G1 F1500 X155.289 Y100.643 E89.86062
M204 S3000
M205 X10 Y10
G0 F3000 X155.289 Y101.435
M204 S1800
M205 X8 Y8
G1 F1500 X148.563 Y94.709 E90.30354
M204 S3000
M205 X10 Y10
G0 F3000 X147.771 Y94.709
M204 S1800
M205 X8 Y8
G1 F1500 X155.289 Y102.227 E90.79861
M204 S3000
M205 X10 Y10
G0 F3000 X155.289 Y103.019
M204 S1800
M205 X8 Y8
G1 F1500 X146.979 Y94.709 E91.34584
M204 S3000
M205 X10 Y10
G0 F3000 X146.187 Y94.709
M204 S1800
M205 X8 Y8
G1 F1500 X155.289 Y103.811 E91.94522
M204 S3000
M205 X10 Y10
G0 F3000 X155.289 Y104.603
M204 S1800
M205 X8 Y8
G1 F1500 X145.395 Y94.709 E92.59676
M204 S3000
M205 X10 Y10
G0 F3000 X144.603 Y94.709
M204 S1800
M205 X8 Y8
G1 F1500 X155.289 Y105.395 E93.30045
M204 S3000
M205 X10 Y10
G0 F3000 X155.289 Y106.187
M204 S1800
M205 X8 Y8
G1 F1500 X143.811 Y94.709 E94.0563
M204 S3000
M205 X10 Y10
G0 F3000 X143.019 Y94.709
M204 S1800
M205 X8 Y8
G1 F1500 X155.289 Y106.979 E94.8643
M204 S3000
M205 X10 Y10
G0 F3000 X155.289 Y107.771
M204 S1800
M205 X8 Y8
G1 F1500 X142.227 Y94.709 E95.72445
M204 S3000
M205 X10 Y10
G0 F3000 X141.435 Y94.709
M204 S1800
M205 X8 Y8
G1 F1500 X155.289 Y108.563 E96.63676
M204 S3000
M205 X10 Y10
G0 F3000 X155.289 Y109.355
M204 S1800
M205 X8 Y8
G1 F1500 X140.643 Y94.709 E97.60123
M204 S3000
M205 X10 Y10
G0 F3000 X139.851 Y94.709
M204 S1800
M205 X8 Y8
G1 F1500 X155.289 Y110.147 E98.61785
M204 S3000
M205 X10 Y10
G0 F3000 X155.289 Y110.939
M204 S1800
M205 X8 Y8
G1 F1500 X139.059 Y94.709 E99.68662
M204 S3000
M205 X10 Y10
G0 F3000 X138.267 Y94.709
M204 S1800
M205 X8 Y8
G1 F1500 X155.289 Y111.731 E100.80755
M204 S3000
M205 X10 Y10
G0 F3000 X155.289 Y112.523
M204 S1800
M205 X8 Y8
G1 F1500 X137.475 Y94.709 E101.98063
M204 S3000
M205 X10 Y10
G0 F3000 X136.683 Y94.709
M204 S1800
M205 X8 Y8
G1 F1500 X155.289 Y113.315 E103.20587
M204 S3000
M205 X10 Y10
G0 F3000 X155.289 Y114.107
M204 S1800
M205 X8 Y8
G1 F1500 X135.891 Y94.709 E104.48326
M204 S3000
M205 X10 Y10
G0 F3000 X135.099 Y94.709
M204 S1800
M205 X8 Y8
G1 F1500 X155.289 Y114.899 E105.8128
M204 S3000
M205 X10 Y10
G0 F3000 X154.887 Y115.289
M204 S1800
M205 X8 Y8
G1 F1500 X134.307 Y94.709 E107.16803
M204 S3000
M205 X10 Y10
G0 F3000 X133.515 Y94.709
M204 S1800
M205 X8 Y8
G1 F1500 X154.095 Y115.289 E108.52326
M204 S3000
M205 X10 Y10
G0 F3000 X153.303 Y115.289
M204 S1800
M205 X8 Y8
G1 F1500 X132.723 Y94.709 E109.87849
M204 S3000
M205 X10 Y10
G0 F3000 X131.931 Y94.709
M204 S1800
M205 X8 Y8
G1 F1500 X152.511 Y115.289 E111.23372
M204 S3000
M205 X10 Y10
G0 F3000 X151.719 Y115.289
M204 S1800
M205 X8 Y8
G1 F1500 X131.14 Y94.709 E112.58891
M204 S3000
M205 X10 Y10
G0 F3000 X130.348 Y94.709
M204 S1800
M205 X8 Y8
G1 F1500 X150.927 Y115.289 E113.94411
M204 S3000
M205 X10 Y10
G0 F3000 X150.135 Y115.289
M204 S1800
M205 X8 Y8
G1 F1500 X129.556 Y94.709 E115.2993
M204 S3000
M205 X10 Y10
G0 F3000 X128.764 Y94.709
M204 S1800
M205 X8 Y8
G1 F1500 X149.343 Y115.289 E116.6545
M204 S3000
M205 X10 Y10
G0 F3000 X148.551 Y115.289
M204 S1800
M205 X8 Y8
G1 F1500 X127.972 Y94.709 E118.00969
M204 S3000
M205 X10 Y10
G0 F3000 X127.18 Y94.709
M204 S1800
M205 X8 Y8
G1 F1500 X147.759 Y115.289 E119.36489
M204 S3000
M205 X10 Y10
G0 F3000 X146.967 Y115.289
M204 S1800
M205 X8 Y8
G1 F1500 X126.388 Y94.709 E120.72008
M204 S3000
M205 X10 Y10
G0 F3000 X125.596 Y94.709
M204 S1800
M205 X8 Y8
G1 F1500 X146.175 Y115.289 E122.07528
M204 S3000
M205 X10 Y10
G0 F3000 X145.383 Y115.289
M204 S1800
M205 X8 Y8
G1 F1500 X124.804 Y94.709 E123.43047
M204 S3000
M205 X10 Y10
G0 F3000 X124.012 Y94.709
M204 S1800
M205 X8 Y8
G1 F1500 X144.592 Y115.289 E124.7857
M204 S3000
M205 X10 Y10
G0 F3000 X143.8 Y115.289
M204 S1800
M205 X8 Y8
G1 F1500 X123.22 Y94.709 E126.14093
M204 S3000
M205 X10 Y10
G0 F3000 X122.428 Y94.709
M204 S1800
M205 X8 Y8
G1 F1500 X143.008 Y115.289 E127.49616
M204 S3000
M205 X10 Y10
G0 F3000 X142.216 Y115.289
M204 S1800
M205 X8 Y8
G1 F1500 X121.636 Y94.709 E128.85139
M204 S3000
M205 X10 Y10
G0 F3000 X120.844 Y94.709
M204 S1800
M205 X8 Y8
G1 F1500 X141.424 Y115.289 E130.20661
M204 S3000
M205 X10 Y10
G0 F3000 X140.632 Y115.289
M204 S1800
M205 X8 Y8
G1 F1500 X120.052 Y94.709 E131.56184
M204 S3000
M205 X10 Y10
G0 F3000 X119.26 Y94.709
M204 S1800
M205 X8 Y8
G1 F1500 X139.84 Y115.289 E132.91707
M204 S3000
M205 X10 Y10
G0 F3000 X139.048 Y115.289
M204 S1800
M205 X8 Y8
G1 F1500 X118.468 Y94.709 E134.2723
M204 S3000
M205 X10 Y10
G0 F3000 X117.676 Y94.709
M204 S1800
M205 X8 Y8
G1 F1500 X138.256 Y115.289 E135.62753
M204 S3000
M205 X10 Y10
G0 F3000 X137.464 Y115.289
M204 S1800
M205 X8 Y8
G1 F1500 X116.884 Y94.709 E136.98275
M204 S3000
M205 X10 Y10
G0 F3000 X116.092 Y94.709
M204 S1800
M205 X8 Y8
G1 F1500 X136.672 Y115.289 E138.33798
M204 S3000
M205 X10 Y10
G0 F3000 X135.88 Y115.289
M204 S1800
M205 X8 Y8
G1 F1500 X115.3 Y94.709 E139.69321
M204 S3000
M205 X10 Y10
G0 F3000 X114.508 Y94.709
M204 S1800
M205 X8 Y8
G1 F1500 X135.088 Y115.289 E141.04844
M204 S3000
M205 X10 Y10
G0 F3000 X134.296 Y115.289
M204 S1800
M205 X8 Y8
G1 F1500 X113.716 Y94.709 E142.40367
M204 S3000
M205 X10 Y10
G0 F3000 X112.924 Y94.709
M204 S1800
M205 X8 Y8
G1 F1500 X133.504 Y115.289 E143.7589
M204 S3000
M205 X10 Y10
G0 F3000 X132.712 Y115.289
M204 S1800
M205 X8 Y8
G1 F1500 X112.132 Y94.709 E145.11412
M204 S3000
M205 X10 Y10
G0 F3000 X111.341 Y94.709
M204 S1800
M205 X8 Y8
G1 F1500 X131.92 Y115.289 E146.46932
M204 S3000
M205 X10 Y10
G0 F3000 X131.128 Y115.289
M204 S1800
M205 X8 Y8
G1 F1500 X110.549 Y94.709 E147.82451
M204 S3000
M205 X10 Y10
G0 F3000 X109.757 Y94.709
M204 S1800
M205 X8 Y8
G1 F1500 X130.336 Y115.289 E149.17971
M204 S3000
M205 X10 Y10
G0 F3000 X129.544 Y115.289
M204 S1800
M205 X8 Y8
G1 F1500 X108.965 Y94.709 E150.5349
M204 S3000
M205 X10 Y10
G0 F3000 X108.173 Y94.709
M204 S1800
M205 X8 Y8
G1 F1500 X128.752 Y115.289 E151.8901
M204 S3000
M205 X10 Y10
G0 F3000 X127.96 Y115.289
M204 S1800
M205 X8 Y8
G1 F1500 X107.381 Y94.709 E153.2453
M204 S3000
M205 X10 Y10
G0 F3000 X106.589 Y94.709
M204 S1800
M205 X8 Y8
G1 F1500 X127.168 Y115.289 E154.60049
M204 S3000
M205 X10 Y10
G0 F3000 X126.376 Y115.289
M204 S1800
M205 X8 Y8
G1 F1500 X105.797 Y94.709 E155.95569
M204 S3000
M205 X10 Y10
G0 F3000 X105.005 Y94.709
M204 S1800
M205 X8 Y8
G1 F1500 X125.584 Y115.289 E157.31088
M204 S3000
M205 X10 Y10
G0 F3000 X124.793 Y115.289
M204 S1800
M205 X8 Y8
G1 F1500 X104.213 Y94.709 E158.66611
M204 S3000
M205 X10 Y10
G0 F3000 X103.421 Y94.709
M204 S1800
M205 X8 Y8
G1 F1500 X124.001 Y115.289 E160.02134
M204 S3000
M205 X10 Y10
G0 F3000 X123.209 Y115.289
M204 S1800
M205 X8 Y8
G1 F1500 X102.629 Y94.709 E161.37657
M204 S3000
M205 X10 Y10
G0 F3000 X101.837 Y94.709
M204 S1800
M205 X8 Y8
G1 F1500 X122.417 Y115.289 E162.73179
M204 S3000
M205 X10 Y10
G0 F3000 X121.625 Y115.289
M204 S1800
M205 X8 Y8
G1 F1500 X101.045 Y94.709 E164.08702
M204 S3000
M205 X10 Y10
G0 F3000 X100.253 Y94.709
M204 S1800
M205 X8 Y8
G1 F1500 X120.833 Y115.289 E165.44225
M204 S3000
M205 X10 Y10
G0 F3000 X120.041 Y115.289
M204 S1800
M205 X8 Y8
G1 F1500 X99.461 Y94.709 E166.79748
M204 S3000
M205 X10 Y10
G0 F3000 X98.669 Y94.709
M204 S1800
M205 X8 Y8
