;FLAVOR:Marlin
;TIME:4539
;Filament used: 3.58043m
;Layer height: 0.2
;MINX:48.6
;MINY:71.77
;MINZ:0.2
;MAXX:161.4
;MAXY:138.231
;MAXZ:50
;Generated with Cura_SteamEngine 4.8.0
M140 S60
M105
M190 S60
M104 S200
M105
M109 S200
M82 ;absolute extrusion mode
G21 ;metric values
G90 ;absolute positioning
M82 ;set extruder to absolute mode
M107 ;start with the fan off
G28 X0 Y0 ;move X/Y to min endstops
G28 Z0 ;move Z to min endstops
G1 Z15.0 F100 ;move the platform down 15mm
G92 E0 ;zero the extruded length
G1 F200 E3 ;extrude 3mm of feed stock
G92 E0 ;zero the extruded length again
G1 F100
G0 Y20 F100
M117 Printing...
G5
G92 E0
G92 E0
G1 F2400 E-6
;LAYER_COUNT:250
;LAYER:0
M106 S255
M204 S3000
M205 X10 Y10
G1 F600 Z0.275
G0 F3000 X72.769 Y74.907 Z0.275
M204 S1800
M205 X8 Y8
;TYPE:SKIRT
G1 F600 Z0.2
G1 F2400 E0
G1 X73.249 Y74.447 E0.03096
G1 X73.822 Y73.954 E0.06615
G1 X74.491 Y73.463 E0.1048
G1 X74.982 Y73.15 E0.13191
G1 X75.68 Y72.766 E0.16901
G1 X75.935 Y72.642 E0.18221
G1 X76.458 Y72.417 E0.20872
G1 X76.705 Y72.323 E0.22103
G1 X77.444 Y72.091 E0.25709
G1 X77.82 Y71.998 E0.27513
G1 X78.734 Y71.841 E0.31831
G1 X79.235 Y71.792 E0.34175
G1 X80.181 Y71.77 E0.38581
G1 X80.842 Y71.825 E0.4167
G1 X81.562 Y71.942 E0.45066
G1 X82.56 Y72.164 E0.49827
G1 X84.509 Y72.64 E0.59169
G1 X87.075 Y73.189 E0.71388
G1 X89.657 Y73.666 E0.83614
G1 X92.309 Y74.079 E0.96112
G1 X94.917 Y74.409 E1.08353
G1 X97.526 Y74.664 E1.20559
G1 X100.189 Y74.849 E1.32989
G1 X102.872 Y74.961 E1.45493
G1 X105.474 Y74.994 E1.5761
G1 X108.123 Y74.953 E1.69946
G1 X110.789 Y74.836 E1.82372
G1 X113.4 Y74.648 E1.94562
G1 X116.071 Y74.379 E2.07062
G1 X118.678 Y74.043 E2.19302
G1 X121.265 Y73.633 E2.31498
G1 X123.911 Y73.137 E2.44034
G1 X126.488 Y72.58 E2.5631
G1 X128.211 Y72.164 E2.64564
G1 X128.86 Y72.002 E2.67679
G1 X129.787 Y71.841 E2.7206
G1 X130.288 Y71.792 E2.74404
G1 X131.234 Y71.77 E2.7881
G1 X131.895 Y71.825 E2.81899
G1 X132.624 Y71.944 E2.85338
G1 X133.108 Y72.052 E2.87647
G1 X134.025 Y72.33 E2.92109
G1 X134.732 Y72.62 E2.95667
G1 X134.979 Y72.736 E2.96938
G1 X135.5 Y73.011 E2.99681
G1 X135.786 Y73.179 E3.01226
G1 X136.229 Y73.464 E3.03678
G1 X136.776 Y73.864 E3.06834
G1 X137.398 Y74.383 E3.10606
G1 X137.891 Y74.855 E3.13784
G1 X138.259 Y75.24 E3.16264
G1 X138.651 Y75.677 E3.18998
G1 X138.976 Y76.077 E3.21397
G1 X139.104 Y76.249 E3.22396
G1 X140.503 Y78.199 E3.33571
G1 X140.546 Y78.252 E3.33889
G1 X140.894 Y78.747 E3.36706
G1 X142.487 Y80.878 E3.49095
G1 X144.127 Y82.948 E3.61392
G1 X145.823 Y84.968 E3.73674
G1 X147.594 Y86.959 E3.86082
G1 X149.407 Y88.887 E3.98405
G1 X151.27 Y90.756 E4.10693
G1 X153.2 Y92.589 E4.23087
G1 X155.154 Y94.34 E4.35305
G1 X157.194 Y96.067 E4.47751
G1 X158.999 Y97.518 E4.58534
G1 X159.531 Y97.997 E4.61868
G1 X160.006 Y98.532 E4.65199
G1 X160.418 Y99.116 E4.68527
G1 X160.762 Y99.743 E4.71857
G1 X161.035 Y100.404 E4.75187
G1 X161.232 Y101.092 E4.7852
G1 X161.351 Y101.797 E4.81849
G1 X161.387 Y102.309 E4.84239
G1 X161.4 Y102.83 E4.86666
G1 X161.399 Y106.863 E5.05445
G1 X161.389 Y107.583 E5.08798
G1 X161.34 Y108.296 E5.12126
G1 X161.21 Y109 E5.15459
G1 X161.003 Y109.685 E5.18791
G1 X160.721 Y110.342 E5.22121
G1 X160.368 Y110.964 E5.25451
G1 X159.947 Y111.542 E5.2878
G1 X159.464 Y112.07 E5.32113
G1 X159.015 Y112.47 E5.34913
G1 X158.001 Y113.289 E5.40982
G1 X157.893 Y113.374 E5.41622
G1 X155.863 Y115.057 E5.53901
G1 X153.856 Y116.823 E5.66349
G1 X151.932 Y118.612 E5.78582
G1 X150.044 Y120.469 E5.90913
G1 X148.222 Y122.368 E6.03168
G1 X146.428 Y124.347 E6.15606
G1 X144.696 Y126.368 E6.27999
G1 X143.035 Y128.421 E6.40296
G1 X141.438 Y130.514 E6.52555
G1 X140.152 Y132.313 E6.62852
G1 X140.078 Y132.405 E6.63402
G1 X139.529 Y133.177 E6.67813
G1 X139.394 Y133.359 E6.68868
G1 X138.788 Y134.15 E6.73508
G1 X138.393 Y134.622 E6.76374
G1 X137.95 Y135.09 E6.79374
G1 X137.47 Y135.55 E6.8247
G1 X136.875 Y136.061 E6.86122
G1 X136.249 Y136.521 E6.89739
G1 X135.765 Y136.83 E6.92413
G1 X135.407 Y137.037 E6.94339
G1 X134.933 Y137.286 E6.96832
G1 X134.245 Y137.588 E7.00331
G1 X134 Y137.681 E7.01551
G1 X133.295 Y137.903 E7.04993
G1 X132.761 Y138.034 E7.07553
G1 X132.705 Y138.046 E7.0782
G1 X131.98 Y138.158 E7.11235
G1 X131.473 Y138.207 E7.13607
G1 X130.591 Y138.231 E7.17716
G1 X129.878 Y138.176 E7.21046
G1 X129.155 Y138.058 E7.24457
G1 X128.157 Y137.836 E7.29217
G1 X126.208 Y137.36 E7.3856
G1 X123.636 Y136.81 E7.50807
G1 X121.06 Y136.334 E7.63005
G1 X118.408 Y135.921 E7.75502
G1 X115.8 Y135.591 E7.87743
G1 X113.191 Y135.336 E7.9995
G1 X110.528 Y135.151 E8.12379
G1 X107.845 Y135.039 E8.24884
G1 X105.243 Y135.006 E8.37001
G1 X102.594 Y135.047 E8.49337
G1 X99.928 Y135.164 E8.61763
G1 X97.317 Y135.352 E8.73952
G1 X94.646 Y135.621 E8.86452
G1 X92.039 Y135.957 E8.98692
G1 X89.452 Y136.367 E9.10889
G1 X86.806 Y136.863 E9.23424
G1 X84.249 Y137.416 E9.35606
G1 X82.444 Y137.852 E9.44252
G1 X81.919 Y137.984 E9.46773
G1 X81.671 Y138.042 E9.47959
G1 X80.927 Y138.158 E9.51465
G1 X80.42 Y138.207 E9.53837
G1 X79.538 Y138.231 E9.57946
G1 X78.825 Y138.176 E9.61275
G1 X78.093 Y138.056 E9.64729
G1 X77.609 Y137.948 E9.67039
G1 X76.692 Y137.67 E9.715
G1 X75.985 Y137.38 E9.75059
G1 X75.738 Y137.264 E9.76329
G1 X75.208 Y136.984 E9.7912
G1 X74.506 Y136.549 E9.82966
G1 X73.91 Y136.113 E9.86405
G1 X73.318 Y135.618 E9.89998
G1 X72.83 Y135.15 E9.93146
G1 X72.462 Y134.766 E9.95623
G1 X72.057 Y134.313 E9.98452
G1 X71.707 Y133.88 E10.01045
G1 X71.575 Y133.702 E10.02077
G1 X70.999 Y132.899 E10.06678
G1 X69.402 Y130.741 E10.19179
G1 X67.779 Y128.67 E10.31431
G1 X66.07 Y126.612 E10.43887
G1 X64.318 Y124.622 E10.56233
G1 X62.53 Y122.701 E10.68453
G1 X60.667 Y120.809 E10.80817
G1 X58.754 Y118.974 E10.9316
G1 X56.796 Y117.2 E11.05463
G1 X54.78 Y115.476 E11.17815
G1 X52.72 Y113.809 E11.30155
G1 X51.745 Y113.067 E11.3586
G1 X51.064 Y112.534 E11.39887
G1 X50.527 Y112.062 E11.43216
G1 X50.045 Y111.534 E11.46545
G1 X49.625 Y110.954 E11.49879
G1 X49.273 Y110.332 E11.53207
G1 X48.992 Y109.674 E11.56539
G1 X48.786 Y108.989 E11.59869
G1 X48.658 Y108.285 E11.63201
G1 X48.611 Y107.672 E11.66064
G1 X48.6 Y107.17 E11.68402
G1 X48.601 Y103.116 E11.87279
G1 X48.611 Y102.414 E11.90548
G1 X48.661 Y101.7 E11.93881
G1 X48.79 Y100.997 E11.97209
G1 X48.997 Y100.312 E12.00541
G1 X49.28 Y99.655 E12.03872
G1 X49.633 Y99.033 E12.07203
G1 X50.054 Y98.455 E12.10532
G1 X50.537 Y97.927 E12.13864
G1 X51.134 Y97.412 E12.17536
G1 X51.613 Y97.048 E12.20337
G1 X53.726 Y95.389 E12.32846
G1 X55.767 Y93.693 E12.45203
G1 X57.755 Y91.941 E12.57542
G1 X59.678 Y90.15 E12.69778
G1 X61.565 Y88.289 E12.82119
G1 X63.401 Y86.373 E12.94476
G1 X65.177 Y84.411 E13.06799
G1 X66.895 Y82.401 E13.19111
G1 X68.585 Y80.31 E13.3163
G1 X70.151 Y78.252 E13.43672
G1 X71.378 Y76.563 E13.53393
G1 X71.869 Y75.922 E13.57152
G1 X72.225 Y75.49 E13.59759
G1 X72.769 Y74.907 E13.63472
M204 S3000
M205 X10 Y10
G0 F3000 X73.172 Y75.296
M204 S1800
M205 X8 Y8
G1 F2400 X73.631 Y74.856 E13.66433
G1 X74.168 Y74.394 E13.69731
G1 X74.813 Y73.921 E13.73456
G1 X75.261 Y73.636 E13.75928
G1 X75.925 Y73.27 E13.79459
G1 X76.18 Y73.146 E13.80779
G1 X76.657 Y72.94 E13.83198
G1 X76.904 Y72.846 E13.84429
G1 X77.579 Y72.635 E13.87722
G1 X77.955 Y72.542 E13.89526
G1 X78.789 Y72.399 E13.93466
G1 X79.29 Y72.35 E13.9581
G1 X80.153 Y72.329 E13.99829
G1 X80.784 Y72.382 E14.02778
G1 X81.441 Y72.488 E14.05877
G1 X82.428 Y72.708 E14.10585
G1 X84.37 Y73.182 E14.19894
G1 X86.966 Y73.738 E14.32256
G1 X89.573 Y74.219 E14.446
G1 X92.222 Y74.632 E14.57084
G1 X94.865 Y74.966 E14.69489
G1 X97.499 Y75.224 E14.81812
G1 X100.165 Y75.409 E14.94256
G1 X102.807 Y75.519 E15.06569
G1 X105.512 Y75.553 E15.19166
G1 X108.155 Y75.512 E15.31474
G1 X110.786 Y75.398 E15.43737
G1 X113.459 Y75.204 E15.56216
G1 X116.129 Y74.936 E15.68711
G1 X118.762 Y74.596 E15.81073
G1 X121.386 Y74.181 E15.93444
G1 X123.996 Y73.692 E16.05808
G1 X126.606 Y73.127 E16.18243
G1 X128.367 Y72.702 E16.26678
G1 X128.996 Y72.545 E16.29697
G1 X129.842 Y72.399 E16.33695
G1 X130.343 Y72.35 E16.36039
G1 X131.206 Y72.329 E16.40058
G1 X131.837 Y72.382 E16.43007
G1 X132.502 Y72.49 E16.46144
G1 X132.986 Y72.598 E16.48453
G1 X133.823 Y72.852 E16.52526
G1 X134.494 Y73.127 E16.55903
G1 X134.741 Y73.243 E16.57173
G1 X135.216 Y73.493 E16.59673
G1 X135.906 Y73.922 E16.63456
G1 X136.439 Y74.311 E16.66529
G1 X137.019 Y74.795 E16.70046
G1 X137.487 Y75.242 E16.7306
G1 X137.855 Y75.627 E16.7554
G1 X138.23 Y76.046 E16.78158
G1 X138.649 Y76.575 E16.813
G1 X140.001 Y78.459 E16.92098
G1 X140.088 Y78.574 E16.9277
G1 X140.46 Y79.102 E16.95777
G1 X142.03 Y81.203 E17.0799
G1 X143.689 Y83.297 E17.2043
G1 X145.405 Y85.341 E17.32857
G1 X147.163 Y87.318 E17.45176
G1 X149.015 Y89.287 E17.57763
G1 X150.884 Y91.163 E17.70094
G1 X152.818 Y92.998 E17.82508
G1 X154.777 Y94.754 E17.94758
G1 X156.859 Y96.517 E18.07461
G1 X158.648 Y97.955 E18.18149
G1 X159.155 Y98.413 E18.21331
G1 X159.605 Y98.928 E18.24515
G1 X159.991 Y99.491 E18.27694
G1 X160.309 Y100.096 E18.30876
G1 X160.554 Y100.734 E18.34059
G1 X160.723 Y101.396 E18.3724
G1 X160.827 Y102.326 E18.41597
G1 X160.84 Y102.83 E18.43945
G1 X160.839 Y106.855 E18.62687
G1 X160.829 Y107.575 E18.6604
G1 X160.78 Y108.257 E18.69224
G1 X160.651 Y108.928 E18.72406
G1 X160.445 Y109.579 E18.75585
G1 X160.164 Y110.202 E18.78767
G1 X159.813 Y110.788 E18.81948
G1 X159.395 Y111.328 E18.85128
G1 X158.662 Y112.035 E18.8987
G1 X157.655 Y112.848 E18.95896
G1 X157.566 Y112.918 E18.96424
G1 X155.478 Y114.65 E19.09056
G1 X153.481 Y116.406 E19.21438
G1 X151.555 Y118.198 E19.33688
G1 X149.643 Y120.078 E19.46174
G1 X147.8 Y122 E19.58573
G1 X146 Y123.984 E19.71047
G1 X144.279 Y125.992 E19.83362
G1 X142.602 Y128.066 E19.95781
G1 X141.005 Y130.159 E20.0804
G1 X139.697 Y131.988 E20.1851
G1 X139.62 Y132.083 E20.1908
G1 X139.073 Y132.852 E20.23474
G1 X138.95 Y133.019 E20.2444
G1 X138.344 Y133.81 E20.2908
G1 X137.973 Y134.251 E20.31763
G1 X137.547 Y134.701 E20.34649
G1 X137.087 Y135.141 E20.37613
G1 X136.531 Y135.62 E20.4103
G1 X135.926 Y136.063 E20.44522
G1 X135.484 Y136.346 E20.46965
G1 X134.694 Y136.779 E20.5116
G1 X134.047 Y137.065 E20.54454
G1 X133.802 Y137.158 E20.55674
G1 X133.158 Y137.36 E20.58817
G1 X132.644 Y137.486 E20.61281
G1 X132.588 Y137.498 E20.61548
G1 X131.926 Y137.601 E20.64668
G1 X131.419 Y137.65 E20.6704
G1 X130.614 Y137.672 E20.70789
G1 X129.935 Y137.619 E20.73961
G1 X129.276 Y137.512 E20.7707
G1 X128.289 Y137.292 E20.81778
G1 X126.347 Y136.818 E20.91086
G1 X123.751 Y136.262 E21.03449
G1 X121.144 Y135.781 E21.15793
G1 X118.495 Y135.368 E21.28277
G1 X115.852 Y135.034 E21.40681
G1 X113.218 Y134.776 E21.53005
G1 X110.552 Y134.591 E21.65449
G1 X107.91 Y134.481 E21.77762
G1 X105.205 Y134.447 E21.90359
G1 X102.562 Y134.488 E22.02667
G1 X99.931 Y134.602 E22.14929
G1 X97.258 Y134.796 E22.27409
G1 X94.588 Y135.064 E22.39904
G1 X91.955 Y135.404 E22.52266
G1 X89.331 Y135.819 E22.64636
G1 X86.721 Y136.308 E22.77001
G1 X84.125 Y136.87 E22.89369
G1 X82.312 Y137.308 E22.98054
G1 X81.783 Y137.441 E23.00594
G1 X81.552 Y137.495 E23.01699
G1 X80.873 Y137.601 E23.04899
G1 X80.366 Y137.65 E23.0727
G1 X79.561 Y137.672 E23.1102
G1 X78.882 Y137.619 E23.14192
G1 X78.215 Y137.51 E23.17339
G1 X77.731 Y137.402 E23.19648
G1 X76.894 Y137.148 E23.23721
G1 X76.223 Y136.873 E23.27097
G1 X75.976 Y136.757 E23.28368
G1 X75.492 Y136.501 E23.30918
G1 X74.826 Y136.089 E23.34564
G1 X74.247 Y135.666 E23.37903
G1 X73.699 Y135.206 E23.41235
G1 X73.235 Y134.763 E23.44222
G1 X72.867 Y134.379 E23.46698
G1 X72.478 Y133.944 E23.49416
G1 X72.15 Y133.538 E23.51846
G1 X72.029 Y133.375 E23.52791
G1 X71.429 Y132.539 E23.57583
G1 X69.846 Y130.399 E23.69978
G1 X68.207 Y128.308 E23.82349
G1 X66.508 Y126.263 E23.94729
G1 X64.718 Y124.229 E24.07345
G1 X62.943 Y122.322 E24.19476
G1 X61.058 Y120.408 E24.31985
G1 X59.14 Y118.568 E24.44361
G1 X57.157 Y116.772 E24.56819
G1 X55.138 Y115.044 E24.69194
G1 X53.054 Y113.359 E24.81673
G1 X52.091 Y112.626 E24.87308
G1 X51.41 Y112.093 E24.91335
G1 X50.897 Y111.641 E24.94519
G1 X50.441 Y111.132 E24.97701
G1 X50.047 Y110.574 E25.00882
G1 X49.721 Y109.973 E25.04065
G1 X49.468 Y109.339 E25.07244
G1 X49.291 Y108.679 E25.10426
G1 X49.191 Y108.003 E25.13608
G1 X49.162 Y107.332 E25.16735
G1 X49.16 Y107.17 E25.17489
G1 X49.161 Y103.124 E25.36329
G1 X49.171 Y102.422 E25.39598
G1 X49.22 Y101.74 E25.42782
G1 X49.349 Y101.069 E25.45964
G1 X49.556 Y100.418 E25.49145
G1 X49.837 Y99.795 E25.52327
G1 X50.189 Y99.21 E25.55506
G1 X50.606 Y98.669 E25.58687
G1 X51.084 Y98.181 E25.61868
G1 X51.473 Y97.858 E25.64222
G1 X51.988 Y97.466 E25.67236
G1 X54.072 Y95.83 E25.79573
G1 X56.116 Y94.131 E25.91949
G1 X58.148 Y92.34 E26.04562
G1 X60.075 Y90.546 E26.16821
G1 X61.95 Y88.697 E26.29083
G1 X63.807 Y86.759 E26.41581
G1 X65.605 Y84.772 E26.54059
G1 X67.327 Y82.759 E26.66394
G1 X69.006 Y80.681 E26.78834
G1 X70.639 Y78.534 E26.91395
G1 X71.823 Y76.904 E27.00776
G1 X72.314 Y76.263 E27.04535
G1 X72.653 Y75.852 E27.07016
G1 X73.172 Y75.296 E27.10558
M204 S3000
M205 X10 Y10
G0 F3000 X73.575 Y75.685
M204 S1800
M205 X8 Y8
G1 F2400 X74.014 Y75.265 E27.13387
G1 X74.514 Y74.834 E27.16461
G1 X75.135 Y74.379 E27.20045
G1 X75.848 Y73.944 E27.23935
G1 X76.425 Y73.65 E27.2695
G1 X77.103 Y73.369 E27.30367
G1 X77.713 Y73.178 E27.33344
G1 X78.089 Y73.085 E27.35147
G1 X78.843 Y72.956 E27.38709
G1 X79.344 Y72.907 E27.41053
G1 X80.124 Y72.889 E27.44686
G1 X80.726 Y72.939 E27.47499
G1 X81.32 Y73.035 E27.50301
G1 X82.186 Y73.227 E27.54431
G1 X84.222 Y73.723 E27.64189
G1 X86.851 Y74.286 E27.76708
G1 X89.495 Y74.775 E27.89229
G1 X92.135 Y75.186 E28.0167
G1 X94.779 Y75.52 E28.14079
G1 X97.475 Y75.784 E28.26693
G1 X100.139 Y75.969 E28.39128
G1 X102.776 Y76.079 E28.51417
G1 X105.513 Y76.113 E28.64163
G1 X108.152 Y76.072 E28.76453
G1 X110.85 Y75.955 E28.89027
G1 X113.52 Y75.762 E29.01492
G1 X116.148 Y75.497 E29.13792
G1 X118.857 Y75.148 E29.2651
G1 X121.468 Y74.735 E29.38819
G1 X124.107 Y74.24 E29.51322
G1 X126.736 Y73.671 E29.63847
G1 X128.471 Y73.253 E29.72157
G1 X129.131 Y73.088 E29.75325
G1 X129.896 Y72.956 E29.7894
G1 X130.397 Y72.907 E29.81284
G1 X131.177 Y72.889 E29.84917
G1 X131.779 Y72.939 E29.87729
G1 X132.38 Y73.037 E29.90565
G1 X132.864 Y73.145 E29.92874
G1 X133.621 Y73.374 E29.96557
G1 X134.255 Y73.634 E29.99747
G1 X134.932 Y73.976 E30.03279
G1 X135.584 Y74.38 E30.06851
G1 X136.102 Y74.758 E30.09837
G1 X136.639 Y75.207 E30.13096
G1 X137.082 Y75.629 E30.15945
G1 X137.45 Y76.014 E30.18425
G1 X137.809 Y76.416 E30.20935
G1 X138.194 Y76.902 E30.23822
G1 X139.864 Y79.23 E30.37163
G1 X139.985 Y79.402 E30.38142
G1 X141.603 Y81.567 E30.50727
G1 X143.251 Y83.647 E30.63084
G1 X144.971 Y85.695 E30.75537
G1 X146.768 Y87.715 E30.88127
G1 X148.606 Y89.67 E31.00621
G1 X150.497 Y91.568 E31.13097
G1 X152.42 Y93.393 E31.25442
G1 X154.438 Y95.202 E31.38061
G1 X156.459 Y96.913 E31.50392
G1 X158.298 Y98.391 E31.61378
G1 X158.778 Y98.829 E31.64403
G1 X159.201 Y99.322 E31.67428
G1 X159.56 Y99.863 E31.70451
G1 X159.85 Y100.444 E31.73475
G1 X160.067 Y101.057 E31.76503
G1 X160.207 Y101.691 E31.79526
G1 X160.267 Y102.344 E31.8258
G1 X160.28 Y102.83 E31.84844
G1 X160.279 Y106.847 E32.03548
G1 X160.269 Y107.567 E32.06901
G1 X160.221 Y108.215 E32.09927
G1 X160.092 Y108.852 E32.12953
G1 X159.887 Y109.468 E32.15976
G1 X159.608 Y110.055 E32.19003
G1 X159.258 Y110.602 E32.22027
G1 X158.844 Y111.103 E32.25053
G1 X158.31 Y111.599 E32.28447
G1 X157.31 Y112.408 E32.34436
G1 X157.182 Y112.508 E32.35192
G1 X155.129 Y114.212 E32.47616
G1 X153.107 Y115.99 E32.60153
G1 X151.14 Y117.819 E32.7266
G1 X149.276 Y119.653 E32.84837
G1 X147.377 Y121.633 E32.97611
G1 X145.59 Y123.603 E33.09996
G1 X143.849 Y125.634 E33.22453
G1 X142.165 Y127.715 E33.34918
G1 X140.533 Y129.855 E33.4745
G1 X139.241 Y131.662 E33.57793
G1 X139.168 Y131.751 E33.58329
G1 X138.616 Y132.528 E33.62767
G1 X138.505 Y132.678 E33.63636
G1 X137.899 Y133.469 E33.68276
G1 X137.553 Y133.88 E33.70778
G1 X137.144 Y134.312 E33.73548
G1 X136.705 Y134.732 E33.76377
G1 X136.186 Y135.178 E33.79563
G1 X135.603 Y135.605 E33.82928
G1 X134.846 Y136.068 E33.8706
G1 X134.226 Y136.381 E33.90294
G1 X133.603 Y136.634 E33.93425
G1 X133.021 Y136.817 E33.96266
