;FLAVOR:Marlin
;TIME:1880
;Filament used: 0.988622m
;Layer height: 0.2
;MINX:50.6
;MINY:81.627
;MINZ:0.2
;MAXX:159.4
;MAXY:128.373
;MAXZ:39.8
;Generated with Cura_SteamEngine 4.8.0
M140 S60
M105
M190 S60
M104 S200
M105
M109 S200
M82 ;absolute extrusion mode
G21 ;metric values
G90 ;absolute positioning
M82 ;set extruder to absolute mode
M107 ;start with the fan off
G28 X0 Y0 ;move X/Y to min endstops
G28 Z0 ;move Z to min endstops
G1 Z15.0 F100 ;move the platform down 15mm
G92 E0 ;zero the extruded length
G1 F200 E3 ;extrude 3mm of feed stock
G92 E0 ;zero the extruded length again
G1 F100
G0 Y20 F100
M117 Printing...
G5
G92 E0
G92 E0
G1 F2400 E-6
;LAYER_COUNT:199
;LAYER:0
M106 S255
M204 S3000
M205 X10 Y10
G1 F600 Z0.275
G0 F3000 X70.716 Y83.88 Z0.275
M204 S1800
M205 X8 Y8
;TYPE:SKIRT
G1 F600 Z0.2
G1 F2400 E0
G1 X71.263 Y83.419 E0.03331
G1 X71.966 Y82.94 E0.07292
G1 X72.268 Y82.751 E0.08951
G1 X72.898 Y82.413 E0.1228
G1 X73.577 Y82.142 E0.15684
G1 X74.059 Y81.981 E0.18051
G1 X74.749 Y81.792 E0.21382
G1 X75.348 Y81.694 E0.24208
G1 X75.563 Y81.669 E0.25216
G1 X76.389 Y81.627 E0.29067
G1 X76.758 Y81.632 E0.30786
G1 X77.688 Y81.712 E0.35132
G1 X78.391 Y81.864 E0.38481
G1 X79.561 Y82.187 E0.44133
G1 X82.163 Y82.863 E0.56651
G1 X84.743 Y83.457 E0.68979
G1 X87.36 Y83.979 E0.81405
G1 X89.94 Y84.42 E0.93593
G1 X92.571 Y84.794 E1.05967
G1 X95.181 Y85.089 E1.18198
G1 X97.825 Y85.314 E1.30554
G1 X100.463 Y85.462 E1.42857
G1 X103.138 Y85.537 E1.55317
G1 X105.781 Y85.535 E1.67624
G1 X108.394 Y85.46 E1.79797
G1 X111.058 Y85.309 E1.92221
G1 X113.689 Y85.084 E2.04517
G1 X116.339 Y84.781 E2.16937
G1 X118.966 Y84.407 E2.29293
G1 X121.527 Y83.967 E2.41392
G1 X124.155 Y83.439 E2.53874
G1 X126.709 Y82.851 E2.66078
G1 X129.313 Y82.172 E2.78608
G1 X130.049 Y81.962 E2.82172
G1 X130.485 Y81.846 E2.84273
G1 X131.186 Y81.701 E2.87606
G1 X131.91 Y81.635 E2.90992
G1 X132.732 Y81.632 E2.94819
G1 X133.445 Y81.681 E2.98147
G1 X134.32 Y81.854 E3.023
G1 X135.117 Y82.096 E3.06179
G1 X135.784 Y82.356 E3.09512
G1 X136.474 Y82.722 E3.13149
G1 X136.92 Y82.995 E3.15584
G1 X137.149 Y83.142 E3.16851
G1 X137.726 Y83.566 E3.20185
G1 X138.03 Y83.834 E3.22072
G1 X138.761 Y84.52 E3.2674
G1 X140.796 Y86.378 E3.39572
G1 X142.783 Y88.091 E3.51788
G1 X144.838 Y89.765 E3.6413
G1 X146.934 Y91.374 E3.76433
G1 X149.079 Y92.928 E3.88767
G1 X151.293 Y94.438 E4.01246
G1 X153.482 Y95.842 E4.13355
G1 X156.278 Y97.516 E4.2853
G1 X156.87 Y97.917 E4.31859
G1 X157.414 Y98.382 E4.35192
G1 X157.902 Y98.905 E4.38522
G1 X158.329 Y99.478 E4.4185
G1 X158.69 Y100.096 E4.45183
G1 X158.979 Y100.75 E4.48512
G1 X159.193 Y101.433 E4.51845
G1 X159.33 Y102.135 E4.55175
G1 X159.387 Y102.809 E4.58325
G1 X159.4 Y103.33 E4.60752
G1 X159.399 Y106.352 E4.74823
G1 X159.389 Y107.082 E4.78223
G1 X159.34 Y107.795 E4.81551
G1 X159.211 Y108.499 E4.84883
G1 X159.004 Y109.183 E4.88211
G1 X158.722 Y109.841 E4.91544
G1 X158.369 Y110.463 E4.94875
G1 X157.948 Y111.041 E4.98204
G1 X157.465 Y111.569 E5.01536
G1 X156.927 Y112.04 E5.04866
G1 X156.272 Y112.489 E5.08564
G1 X155.187 Y113.136 E5.14446
G1 X154.925 Y113.288 E5.15856
G1 X152.677 Y114.671 E5.28146
G1 X150.493 Y116.103 E5.40307
G1 X148.287 Y117.641 E5.52829
G1 X146.167 Y119.209 E5.65107
G1 X144.06 Y120.862 E5.77578
G1 X142.072 Y122.515 E5.89616
G1 X140.041 Y124.302 E6.02213
G1 X138.601 Y125.634 E6.11347
G1 X138.096 Y126.112 E6.14585
G1 X137.549 Y126.574 E6.17919
G1 X136.838 Y127.058 E6.21924
G1 X136.532 Y127.25 E6.23606
G1 X135.902 Y127.588 E6.26935
G1 X135.233 Y127.856 E6.30291
G1 X134.775 Y128.01 E6.32541
G1 X134.085 Y128.2 E6.35873
G1 X133.522 Y128.295 E6.38532
G1 X133.28 Y128.325 E6.39668
G1 X132.405 Y128.373 E6.43748
G1 X132.042 Y128.368 E6.45439
G1 X131.328 Y128.319 E6.48771
G1 X130.435 Y128.14 E6.53012
G1 X129.294 Y127.827 E6.58521
G1 X126.642 Y127.138 E6.7128
G1 X124.063 Y126.546 E6.83601
G1 X121.438 Y126.021 E6.96066
G1 X118.835 Y125.576 E7.08363
G1 X116.237 Y125.207 E7.20582
G1 X113.611 Y124.91 E7.32887
G1 X110.983 Y124.688 E7.45168
G1 X108.338 Y124.539 E7.57504
G1 X105.661 Y124.464 E7.69974
G1 X103.018 Y124.466 E7.82281
G1 X100.411 Y124.541 E7.94425
G1 X97.738 Y124.693 E8.06892
G1 X95.098 Y124.919 E8.1923
G1 X92.482 Y125.217 E8.3149
G1 X89.859 Y125.591 E8.43827
G1 X87.236 Y126.042 E8.5622
G1 X84.651 Y126.561 E8.68497
G1 X82.095 Y127.151 E8.80712
G1 X79.47 Y127.836 E8.93344
G1 X78.836 Y128.016 E8.96413
G1 X78.322 Y128.153 E8.9889
G1 X77.622 Y128.298 E9.02219
G1 X76.88 Y128.366 E9.05688
G1 X76.069 Y128.368 E9.09465
G1 X75.356 Y128.319 E9.12793
G1 X74.487 Y128.147 E9.16917
G1 X73.691 Y127.905 E9.20791
G1 X73.024 Y127.646 E9.24123
G1 X72.332 Y127.28 E9.27768
G1 X71.869 Y126.997 E9.30295
G1 X71.581 Y126.81 E9.31894
G1 X70.782 Y126.174 E9.36649
G1 X70.409 Y125.825 E9.39028
G1 X68.255 Y123.733 E9.5301
G1 X66.29 Y121.93 E9.65428
G1 X64.291 Y120.198 E9.77744
G1 X62.245 Y118.522 E9.90059
G1 X60.147 Y116.902 E10.02402
G1 X58.025 Y115.357 E10.14624
G1 X55.841 Y113.86 E10.26953
G1 X54.474 Y112.986 E10.34509
G1 X53.494 Y112.342 E10.39969
G1 X52.919 Y111.916 E10.43301
G1 X52.396 Y111.429 E10.46629
G1 X51.929 Y110.886 E10.49964
G1 X51.527 Y110.295 E10.53292
G1 X51.192 Y109.663 E10.56623
G1 X50.931 Y108.997 E10.59953
G1 X50.745 Y108.306 E10.63286
G1 X50.638 Y107.599 E10.66615
G1 X50.602 Y106.839 E10.70158
G1 X50.6 Y106.664 E10.70973
G1 X50.601 Y103.616 E10.85166
G1 X50.611 Y102.914 E10.88435
G1 X50.661 Y102.2 E10.91768
G1 X50.79 Y101.497 E10.95096
G1 X50.997 Y100.812 E10.98428
G1 X51.28 Y100.155 E11.01759
G1 X51.633 Y99.533 E11.05089
G1 X52.054 Y98.955 E11.08419
G1 X52.537 Y98.427 E11.11751
G1 X53.076 Y97.957 E11.15081
G1 X53.576 Y97.604 E11.17931
G1 X54.193 Y97.212 E11.21335
G1 X56.439 Y95.737 E11.33847
G1 X58.627 Y94.209 E11.46273
G1 X60.754 Y92.635 E11.58594
G1 X62.804 Y91.024 E11.70735
G1 X64.858 Y89.315 E11.83177
G1 X66.852 Y87.557 E11.95555
G1 X68.813 Y85.727 E12.08045
G1 X69.783 Y84.783 E12.14347
G1 X70.34 Y84.235 E12.17986
G1 X70.716 Y83.88 E12.20394
M204 S3000
M205 X10 Y10
G0 F3000 X71.101 Y84.288
M204 S1800
M205 X8 Y8
G1 F2400 X71.888 Y83.663 E12.25073
G1 X72.452 Y83.295 E12.28209
G1 X72.56 Y83.229 E12.28798
G1 X73.163 Y82.907 E12.31982
G1 X73.755 Y82.673 E12.34946
G1 X74.237 Y82.512 E12.37312
G1 X74.896 Y82.334 E12.4049
G1 X75.412 Y82.25 E12.42925
G1 X75.627 Y82.225 E12.43933
G1 X76.381 Y82.187 E12.47448
G1 X76.75 Y82.192 E12.49166
G1 X77.601 Y82.265 E12.53144
G1 X78.242 Y82.404 E12.56198
G1 X79.407 Y82.725 E12.61825
G1 X82.028 Y83.407 E12.74436
G1 X84.644 Y84.009 E12.86935
G1 X87.231 Y84.525 E12.99219
G1 X89.841 Y84.971 E13.11548
G1 X92.498 Y85.349 E13.24045
G1 X95.141 Y85.648 E13.3643
G1 X97.783 Y85.872 E13.48776
G1 X100.451 Y86.022 E13.61219
G1 X103.122 Y86.097 E13.73662
G1 X105.761 Y86.095 E13.8595
G1 X108.442 Y86.018 E13.98439
G1 X111.103 Y85.867 E14.1085
G1 X113.766 Y85.64 E14.23295
G1 X116.373 Y85.342 E14.35513
G1 X119.031 Y84.963 E14.48015
G1 X121.663 Y84.511 E14.6045
G1 X124.289 Y83.984 E14.72922
G1 X126.832 Y83.398 E14.85073
G1 X129.443 Y82.717 E14.97638
G1 X130.193 Y82.503 E15.01269
G1 X130.629 Y82.387 E15.0337
G1 X131.299 Y82.251 E15.06554
G1 X131.93 Y82.194 E15.09504
G1 X132.724 Y82.192 E15.13201
G1 X133.406 Y82.241 E15.16385
G1 X134.173 Y82.394 E15.20027
G1 X134.944 Y82.629 E15.2378
G1 X135.58 Y82.878 E15.2696
G1 X136.182 Y83.2 E15.30139
G1 X136.628 Y83.473 E15.32574
G1 X136.843 Y83.611 E15.33764
G1 X137.647 Y84.242 E15.38523
G1 X138.414 Y84.962 E15.43421
G1 X140.394 Y86.77 E15.55907
G1 X142.44 Y88.534 E15.68486
G1 X144.485 Y90.199 E15.80765
G1 X146.623 Y91.841 E15.93318
G1 X148.753 Y93.385 E16.05568
G1 X150.953 Y94.884 E16.17964
G1 X153.218 Y96.337 E16.30494
G1 X155.99 Y97.997 E16.45539
G1 X156.555 Y98.381 E16.4872
G1 X157.071 Y98.829 E16.51902
G1 X157.531 Y99.335 E16.55086
G1 X157.929 Y99.89 E16.58266
G1 X158.259 Y100.488 E16.61447
G1 X158.517 Y101.121 E16.6463
G1 X158.699 Y101.779 E16.67809
G1 X158.804 Y102.454 E16.70989
G1 X158.837 Y103.149 E16.74229
G1 X158.84 Y103.33 E16.75072
G1 X158.839 Y106.344 E16.89107
G1 X158.829 Y107.074 E16.92506
G1 X158.78 Y107.755 E16.95685
G1 X158.652 Y108.426 E16.98866
G1 X158.446 Y109.078 E17.0205
G1 X158.165 Y109.701 E17.05233
G1 X157.813 Y110.287 E17.08416
G1 X157.396 Y110.827 E17.11593
G1 X156.918 Y111.316 E17.14777
G1 X156.386 Y111.745 E17.17959
G1 X155.984 Y112.008 E17.20196
G1 X154.906 Y112.651 E17.26041
G1 X154.661 Y112.793 E17.27359
G1 X152.38 Y114.197 E17.39831
G1 X150.144 Y115.663 E17.52281
G1 X147.968 Y117.179 E17.6463
G1 X145.83 Y118.762 E17.77017
G1 X143.736 Y120.404 E17.89408
G1 X141.702 Y122.095 E18.01725
G1 X139.665 Y123.887 E18.14358
G1 X138.167 Y125.273 E18.23861
G1 X137.711 Y125.705 E18.26786
G1 X136.912 Y126.339 E18.31535
G1 X136.361 Y126.698 E18.34598
G1 X136.24 Y126.772 E18.35258
G1 X135.637 Y127.094 E18.38441
G1 X135.054 Y127.325 E18.41361
G1 X134.596 Y127.479 E18.43611
G1 X133.937 Y127.659 E18.46792
G1 X133.211 Y127.77 E18.50212
G1 X132.413 Y127.813 E18.53933
G1 X132.05 Y127.808 E18.55624
G1 X131.368 Y127.759 E18.58808
G1 X130.583 Y127.6 E18.62537
G1 X129.435 Y127.285 E18.6808
G1 X126.764 Y126.591 E18.8093
G1 X124.162 Y125.994 E18.93361
G1 X121.573 Y125.476 E19.05656
G1 X118.934 Y125.025 E19.18122
G1 X116.304 Y124.651 E19.30492
G1 X113.648 Y124.351 E19.42938
G1 X111.027 Y124.129 E19.55186
G1 X108.35 Y123.979 E19.67671
G1 X105.677 Y123.904 E19.80122
G1 X103.038 Y123.906 E19.92411
G1 X100.363 Y123.983 E20.04872
G1 X97.696 Y124.135 E20.1731
G1 X95.022 Y124.363 E20.29807
G1 X92.409 Y124.661 E20.42053
G1 X89.789 Y125.035 E20.54376
G1 X87.14 Y125.49 E20.66892
G1 X84.559 Y126.009 E20.79151
G1 X81.938 Y126.613 E20.91675
G1 X79.34 Y127.291 E21.04178
G1 X78.692 Y127.475 E21.07314
G1 X78.178 Y127.612 E21.09791
G1 X77.509 Y127.749 E21.12971
G1 X76.862 Y127.806 E21.15995
G1 X76.077 Y127.808 E21.19651
G1 X75.396 Y127.759 E21.2283
G1 X74.633 Y127.606 E21.26453
G1 X73.864 Y127.373 E21.30195
G1 X73.228 Y127.124 E21.33375
G1 X72.624 Y126.802 E21.36563
G1 X72.161 Y126.519 E21.39089
G1 X71.894 Y126.346 E21.40571
G1 X71.165 Y125.765 E21.44911
G1 X70.792 Y125.416 E21.4729
G1 X68.628 Y123.315 E21.61334
G1 X66.677 Y121.524 E21.73667
G1 X64.654 Y119.772 E21.86128
G1 X62.601 Y118.09 E21.98486
G1 X60.499 Y116.467 E22.10852
G1 X58.328 Y114.886 E22.23358
G1 X56.156 Y113.398 E22.35617
G1 X54.782 Y112.518 E22.43215
G1 X53.802 Y111.874 E22.48675
G1 X53.254 Y111.466 E22.51857
G1 X52.757 Y110.996 E22.55042
G1 X52.319 Y110.472 E22.58222
G1 X51.944 Y109.901 E22.61403
G1 X51.639 Y109.289 E22.64587
G1 X51.408 Y108.647 E22.67764
G1 X51.253 Y107.981 E22.70948
G1 X51.171 Y107.153 E22.74822
G1 X51.16 Y106.664 E22.771
G1 X51.161 Y103.624 E22.91255
G1 X51.171 Y102.922 E22.94525
G1 X51.22 Y102.24 E22.97708
G1 X51.349 Y101.569 E23.0089
G1 X51.556 Y100.918 E23.04071
G1 X51.837 Y100.295 E23.07253
G1 X52.189 Y99.71 E23.10433
G1 X52.606 Y99.169 E23.13613
G1 X53.084 Y98.681 E23.16794
G1 X53.877 Y98.077 E23.21436
G1 X54.463 Y97.704 E23.2467
G1 X56.788 Y96.177 E23.37622
G1 X58.945 Y94.671 E23.49872
G1 X61.052 Y93.111 E23.6208
G1 X63.206 Y91.419 E23.74834
G1 X65.209 Y89.753 E23.86965
G1 X67.228 Y87.972 E23.99502
G1 X69.166 Y86.165 E24.1184
G1 X70.199 Y85.161 E24.18548
G1 X70.725 Y84.643 E24.21985
G1 X71.101 Y84.288 E24.24393
M204 S3000
M205 X10 Y10
G0 F3000 X71.485 Y84.695
M204 S1800
M205 X8 Y8
G1 F2400 X72.197 Y84.13 E24.28625
G1 X72.744 Y83.773 E24.31667
G1 X72.852 Y83.707 E24.32256
G1 X73.426 Y83.403 E24.35281
G1 X73.932 Y83.204 E24.37813
G1 X74.414 Y83.043 E24.40179
G1 X75.042 Y82.875 E24.43206
G1 X75.692 Y82.781 E24.46264
G1 X76.374 Y82.746 E24.49444
G1 X76.743 Y82.751 E24.51162
G1 X77.513 Y82.819 E24.54762
G1 X78.093 Y82.944 E24.57525
G1 X79.253 Y83.264 E24.63128
G1 X81.876 Y83.946 E24.75748
G1 X84.545 Y84.56 E24.885
G1 X87.136 Y85.077 E25.00803
G1 X89.771 Y85.528 E25.13251
G1 X92.392 Y85.9 E25.25578
G1 X95.104 Y86.207 E25.38287
G1 X97.736 Y86.43 E25.50586
G1 X100.439 Y86.582 E25.63192
G1 X103.107 Y86.657 E25.75621
G1 X105.778 Y86.655 E25.88058
G1 X108.453 Y86.578 E26.00519
G1 X111.147 Y86.426 E26.13083
G1 X113.811 Y86.198 E26.25533
G1 X116.477 Y85.893 E26.38028
G1 X119.101 Y85.519 E26.5037
G1 X121.766 Y85.061 E26.62962
G1 X124.407 Y84.531 E26.75504
G1 X126.972 Y83.941 E26.8776
G1 X129.613 Y83.252 E27.00469
G1 X130.337 Y83.045 E27.03976
G1 X130.773 Y82.929 E27.06076
G1 X131.41 Y82.8 E27.09103
G1 X131.949 Y82.754 E27.11622
G1 X132.717 Y82.751 E27.15198
G1 X133.364 Y82.8 E27.18219
G1 X134.026 Y82.935 E27.21365
G1 X134.77 Y83.161 E27.24986
G1 X135.374 Y83.4 E27.2801
G1 X135.89 Y83.678 E27.3074
G1 X136.336 Y83.951 E27.33175
G1 X136.537 Y84.08 E27.34287
G1 X137.264 Y84.651 E27.38591
G1 X138.006 Y85.347 E27.43328
G1 X140.047 Y87.21 E27.56196
G1 X142.079 Y88.962 E27.68689
G1 X144.131 Y90.634 E27.81014
G1 X146.272 Y92.277 E27.93581
G1 X148.452 Y93.857 E28.06118
G1 X150.645 Y95.352 E28.18476
G1 X152.901 Y96.799 E28.30956
G1 X155.703 Y98.477 E28.46164
G1 X156.238 Y98.844 E28.49185
G1 X156.725 Y99.275 E28.52214
G1 X157.155 Y99.762 E28.55239
G1 X157.522 Y100.298 E28.58264
G1 X157.82 Y100.875 E28.61287
G1 X158.046 Y101.484 E28.64312
G1 X158.194 Y102.116 E28.67335
G1 X158.267 Y102.844 E28.70742
G1 X158.28 Y103.33 E28.73005
G1 X158.28 Y106.336 E28.87003
G1 X158.27 Y107.066 E28.90402
G1 X158.221 Y107.714 E28.93428
G1 X158.093 Y108.351 E28.96453
G1 X157.887 Y108.967 E28.99478
G1 X157.608 Y109.554 E29.02504
G1 X157.259 Y110.101 E29.05526
G1 X156.845 Y110.602 E29.08552
G1 X156.373 Y111.048 E29.11576
G1 X155.697 Y111.527 E29.15434
G1 X154.626 Y112.166 E29.21241
G1 X154.364 Y112.318 E29.22651
G1 X152.097 Y113.713 E29.35046
G1 X149.836 Y115.196 E29.47637
G1 X147.634 Y116.73 E29.60133
G1 X145.488 Y118.318 E29.72564
G1 X143.374 Y119.976 E29.85074
G1 X141.333 Y121.673 E29.97434
G1 X139.312 Y123.451 E30.09968
G1 X137.817 Y124.834 E30.19451
G1 X137.326 Y125.299 E30.226
G1 X136.603 Y125.871 E30.26893
G1 X136.069 Y126.22 E30.29863
G1 X135.948 Y126.294 E30.30523
G1 X135.374 Y126.599 E30.3355
G1 X134.876 Y126.795 E30.36042
G1 X134.418 Y126.949 E30.38292
G1 X133.79 Y127.117 E30.41319
G1 X133.143 Y127.214 E30.44366
G1 X132.42 Y127.253 E30.47737
G1 X132.057 Y127.248 E30.49428
G1 X131.41 Y127.2 E30.52449
G1 X130.732 Y127.06 E30.55672
G1 X129.576 Y126.743 E30.61254
G1 X126.895 Y126.047 E30.74151
G1 X124.287 Y125.448 E30.86612
G1 X121.674 Y124.925 E30.9902
G1 X119.002 Y124.468 E31.11643
G1 X116.411 Y124.1 E31.23829
G1 X113.688 Y123.792 E31.36589
G1 X111.071 Y123.571 E31.48818
G1 X108.361 Y123.419 E31.61457
G1 X105.693 Y123.344 E31.73885
G1 X103.021 Y123.346 E31.86327
G1 X100.317 Y123.423 E31.98923
G1 X97.684 Y123.574 E32.11204
G1 X94.98 Y123.805 E32.2384
G1 X92.34 Y124.105 E32.36212
G1 X89.684 Y124.485 E32.48706
G1 X87.038 Y124.939 E32.61207
G1 X84.433 Y125.463 E32.7358
G1 X81.799 Y126.07 E32.86166
G1 X79.221 Y126.743 E32.98573
G1 X78.548 Y126.934 E33.0183
G1 X78.034 Y127.071 E33.04307
G1 X77.397 Y127.199 E33.07333
G1 X76.844 Y127.246 E33.09917
G1 X76.085 Y127.248 E33.13451
G1 X75.437 Y127.2 E33.16477
G1 X74.78 Y127.066 E33.19599
G1 X74.037 Y126.84 E33.23215
G1 X73.433 Y126.602 E33.26238
G1 X72.916 Y126.324 E33.28971
G1 X72.453 Y126.041 E33.31498
G1 X72.207 Y125.881 E33.32865
G1 X71.548 Y125.357 E33.36785
G1 X71.175 Y125.008 E33.39164
G1 X69.037 Y122.931 E33.53043
G1 X67.026 Y121.086 E33.65751
G1 X65.018 Y119.345 E33.78127
G1 X62.94 Y117.644 E33.90631
G1 X60.83 Y116.014 E34.03046
G1 X58.656 Y114.432 E34.15566
G1 X56.464 Y112.93 E34.27939
G1 X55.089 Y112.05 E34.35541
G1 X54.109 Y111.406 E34.41001
G1 X53.589 Y111.016 E34.44028
G1 X53.121 Y110.566 E34.47051
G1 X52.712 Y110.061 E34.50077
G1 X52.368 Y109.51 E34.53101
G1 X52.094 Y108.921 E34.56126
G1 X51.894 Y108.303 E34.59151
G1 X51.772 Y107.665 E34.62176
G1 X51.731 Y107.137 E34.64642
G1 X51.72 Y106.664 E34.66845
G1 X51.721 Y103.632 E34.80963
G1 X51.731 Y102.93 E34.84232
G1 X51.78 Y102.282 E34.87258
G1 X51.908 Y101.645 E34.90283
G1 X52.114 Y101.029 E34.93308
G1 X52.393 Y100.443 E34.9633
G1 X52.743 Y99.895 E34.99358
G1 X53.157 Y99.395 E35.02381
G1 X53.63 Y98.949 E35.05408
G1 X54.177 Y98.549 E35.08563
G1 X54.803 Y98.151 E35.12017
G1 X57.098 Y96.644 E35.24802
G1 X59.264 Y95.132 E35.37102
