;FLAVOR:Marlin
;TIME:12083
;Filament used: 9.2041m
;Layer height: 0.2
;MINX:47.28
;MINY:58.6
;MINZ:0.2
;MAXX:162.72
;MAXY:151.4
;MAXZ:50
;Generated with Cura_SteamEngine 4.8.0
M140 S60
M105
M190 S60
M104 S200
M105
M109 S200
M82 ;absolute extrusion mode
; Script based on an original created by tjjfvi (https://github.com/tjjfvi)
; An up-to-date version of the tjjfvi's original script can be found
; here:  https://csi.t6.fyi/
; Note - This script will only work in Cura V4.2 and above!
; --- Global Settings
; layer_height = 0.2
; smooth_spiralized_contours = True
; magic_mesh_surface_mode = normal
; machine_extruder_count = 1
; --- Single Extruder Settings
; speed_z_hop = 10
; retraction_amount = 6
; retraction_hop = 0.075
; retraction_hop_enabled = True
; retraction_enable = True
; retraction_speed = 40
; retraction_retract_speed = 40
; retraction_prime_speed = 40
; speed_travel = 100


G21 ;metric values
G90 ;absolute positioning
M82 ;set extruder to absolute mode
M107 ;start with the fan off
G28 X0 Y0 ;move X/Y to min endstops
G28 Z0 ;move Z to min endstops
G1 Z15.0 F100 ;move the platform down 15mm
G92 E0 ;zero the extruded length
G1 F200 E3 ;extrude 3mm of feed stock
G92 E0 ;zero the extruded length again
G1 F100
G0 Y20 F100
M117 Printing...
G5
G92 E0
G92 E0
G1 F2400 E-6
;LAYER_COUNT:250
;LAYER:0
M106 S255
M204 S3000
M205 X10 Y10
G1 F600 Z0.275
G0 F3000 X51.399 Y68.268 Z0.275
M204 S1800
M205 X8 Y8
;TYPE:SKIRT
G1 F600 Z0.2
G1 F2400 E0
G1 X52.208 Y67.732 E0.04519
G1 X53.409 Y67.062 E0.10923
G1 X53.493 Y67.017 E0.11366
G1 X55.752 Y65.713 E0.23512
G1 X58.023 Y64.313 E0.35935
G1 X60.25 Y62.854 E0.48332
G1 X62.398 Y61.356 E0.60526
G1 X64.257 Y59.982 E0.7129
G1 X64.48 Y59.821 E0.7257
G1 X65.082 Y59.435 E0.759
G1 X65.724 Y59.119 E0.79232
G1 X66.397 Y58.877 E0.82562
G1 X67.092 Y58.711 E0.8589
G1 X68.031 Y58.613 E0.90286
G1 X68.554 Y58.6 E0.92722
G1 X137.883 Y58.6 E4.15547
G1 X138.677 Y58.611 E4.19244
G1 X139.391 Y58.661 E4.22577
G1 X140.094 Y58.79 E4.25905
G1 X140.973 Y59.072 E4.30204
G1 X141.795 Y59.471 E4.34458
G1 X142.919 Y60.12 E4.40502
G1 X145.252 Y61.421 E4.5294
G1 X147.621 Y62.656 E4.6538
G1 X150.02 Y63.822 E4.77801
G1 X152.419 Y64.904 E4.90055
G1 X154.834 Y65.913 E5.02242
G1 X157.388 Y66.897 E5.14987
G1 X158.532 Y67.321 E5.20668
G1 X159.188 Y67.606 E5.23998
G1 X159.808 Y67.963 E5.2733
G1 X160.384 Y68.387 E5.3066
G1 X160.91 Y68.872 E5.33992
G1 X161.378 Y69.413 E5.37323
G1 X161.782 Y70.003 E5.40652
G1 X162.119 Y70.634 E5.43983
G1 X162.383 Y71.299 E5.47315
G1 X162.57 Y71.989 E5.50644
G1 X162.68 Y72.696 E5.53975
G1 X162.717 Y73.465 E5.5756
G1 X162.72 Y73.644 E5.58394
G1 X162.719 Y78.365 E5.80377
G1 X162.708 Y79.091 E5.83758
G1 X162.657 Y79.804 E5.87086
G1 X162.563 Y80.352 E5.89675
G1 X162.534 Y80.484 E5.90305
G1 X162.004 Y83.124 E6.02843
G1 X161.562 Y85.715 E6.15082
G1 X161.187 Y88.347 E6.27461
G1 X160.89 Y90.965 E6.3973
G1 X160.665 Y93.605 E6.52068
G1 X160.514 Y96.278 E6.64534
G1 X160.44 Y98.884 E6.76674
G1 X160.44 Y101.562 E6.89144
G1 X160.514 Y104.169 E7.01288
G1 X160.665 Y106.841 E7.1375
G1 X160.892 Y109.499 E7.26171
G1 X161.034 Y110.837 E7.32437
G1 X161.077 Y111.651 E7.36232
G1 X161.08 Y111.845 E7.37136
G1 X161.079 Y116.558 E7.59081
G1 X161.069 Y117.28 E7.62444
G1 X161.02 Y117.993 E7.65771
G1 X160.89 Y118.697 E7.69105
G1 X160.684 Y119.381 E7.72431
G1 X160.402 Y120.039 E7.75765
G1 X160.048 Y120.66 E7.79093
G1 X159.706 Y121.14 E7.81838
G1 X159.195 Y121.791 E7.85691
G1 X158.43 Y122.738 E7.9136
G1 X156.826 Y124.842 E8.03679
G1 X155.275 Y127 E8.16054
G1 X153.79 Y129.197 E8.28402
G1 X152.371 Y131.429 E8.40718
G1 X151.022 Y133.689 E8.52973
G1 X149.727 Y136.005 E8.65329
G1 X148.497 Y138.359 E8.77696
G1 X147.348 Y140.718 E8.89914
G1 X146.255 Y143.135 E9.02266
G1 X145.211 Y145.623 E9.1483
G1 X144.912 Y146.404 E9.18724
G1 X144.522 Y147.375 E9.23597
G1 X144.219 Y148.023 E9.26927
G1 X143.845 Y148.633 E9.30259
G1 X143.406 Y149.197 E9.33587
G1 X142.906 Y149.709 E9.3692
G1 X142.352 Y150.162 E9.40252
G1 X141.752 Y150.551 E9.43582
G1 X141.111 Y150.869 E9.46913
G1 X140.44 Y151.115 E9.50241
G1 X139.745 Y151.284 E9.53572
G1 X138.781 Y151.387 E9.58086
G1 X138.26 Y151.4 E9.60513
G1 X68.837 Y151.399 E12.83775
G1 X68.156 Y151.389 E12.86947
G1 X67.443 Y151.339 E12.90275
G1 X66.739 Y151.209 E12.93608
G1 X66.055 Y151.002 E12.96936
G1 X65.398 Y150.719 E13.00267
G1 X64.776 Y150.365 E13.036
G1 X64.198 Y149.944 E13.06929
G1 X63.67 Y149.461 E13.10261
G1 X63.324 Y149.075 E13.12675
G1 X63.29 Y149.034 E13.12923
G1 X62.864 Y148.459 E13.16255
G1 X62.506 Y147.84 E13.19585
G1 X62.182 Y147.083 E13.23419
G1 X61.72 Y145.775 E13.29879
G1 X61.62 Y145.481 E13.31325
G1 X60.704 Y143.015 E13.43574
G1 X59.722 Y140.586 E13.55774
G1 X58.638 Y138.112 E13.68351
G1 X57.531 Y135.765 E13.80434
G1 X56.324 Y133.382 E13.92873
G1 X55.06 Y131.053 E14.05212
G1 X53.734 Y128.768 E14.17513
G1 X52.349 Y126.528 E14.29776
G1 X50.883 Y124.299 E14.42199
G1 X49.366 Y122.131 E14.5452
G1 X49.12 Y121.798 E14.56448
G1 X48.498 Y120.935 E14.61402
G1 X48.113 Y120.332 E14.64733
G1 X47.797 Y119.69 E14.68065
G1 X47.556 Y119.017 E14.71393
G1 X47.39 Y118.321 E14.74725
G1 X47.293 Y117.388 E14.79093
G1 X47.28 Y116.865 E14.81529
G1 X47.281 Y112.122 E15.03615
G1 X47.292 Y111.415 E15.06907
G1 X47.343 Y110.702 E15.10236
G1 X47.431 Y110.183 E15.12687
G1 X47.471 Y109.995 E15.13582
G1 X47.996 Y107.377 E15.26015
G1 X48.439 Y104.789 E15.38241
G1 X48.815 Y102.148 E15.50663
G1 X49.113 Y99.525 E15.62955
G1 X49.335 Y96.898 E15.75231
G1 X49.485 Y94.252 E15.87572
G1 X49.56 Y91.579 E16.00023
G1 X49.56 Y88.936 E16.1233
G1 X49.485 Y86.324 E16.24498
G1 X49.334 Y83.654 E16.3695
G1 X49.108 Y81.006 E16.49325
G1 X48.965 Y79.664 E16.55609
G1 X48.932 Y79.164 E16.57943
G1 X48.92 Y78.665 E16.60267
G1 X48.921 Y73.892 E16.82492
G1 X48.931 Y73.223 E16.85608
G1 X48.981 Y72.51 E16.88936
G1 X49.111 Y71.807 E16.92265
G1 X49.319 Y71.122 E16.95598
G1 X49.602 Y70.465 E16.98929
G1 X49.956 Y69.844 E17.02258
G1 X50.377 Y69.266 E17.05587
G1 X50.86 Y68.738 E17.08919
G1 X51.399 Y68.268 E17.12249
M204 S3000
M205 X10 Y10
G0 F3000 X51.94 Y68.564
M204 S1800
M205 X8 Y8
G1 F2400 X52.481 Y68.221 E17.15232
G1 X53.749 Y67.514 E17.21992
G1 X56.074 Y66.172 E17.34492
G1 X58.304 Y64.798 E17.46689
G1 X60.558 Y63.321 E17.59237
G1 X62.733 Y61.805 E17.71582
G1 X64.585 Y60.436 E17.82306
G1 X64.808 Y60.275 E17.83587
G1 X65.384 Y59.908 E17.86767
G1 X65.999 Y59.611 E17.89947
G1 X66.645 Y59.388 E17.9313
G1 X67.312 Y59.242 E17.96309
G1 X68.048 Y59.173 E17.99751
G1 X68.554 Y59.16 E18.02108
G1 X137.883 Y59.16 E21.24933
G1 X138.669 Y59.171 E21.28593
G1 X139.35 Y59.22 E21.31773
G1 X140.021 Y59.349 E21.34954
G1 X140.765 Y59.592 E21.38599
G1 X141.515 Y59.956 E21.42481
G1 X142.644 Y60.608 E21.48551
G1 X144.998 Y61.921 E21.61102
G1 X147.367 Y63.156 E21.73542
G1 X149.753 Y64.316 E21.85896
G1 X152.194 Y65.416 E21.98363
G1 X154.667 Y66.45 E22.10844
G1 X157.114 Y67.393 E22.23056
G1 X158.338 Y67.846 E22.29133
G1 X158.964 Y68.12 E22.32315
G1 X159.553 Y68.466 E22.35496
G1 X160.098 Y68.878 E22.38677
G1 X160.592 Y69.35 E22.41858
G1 X161.026 Y69.877 E22.45037
G1 X161.396 Y70.452 E22.48221
G1 X161.697 Y71.065 E22.51401
G1 X161.924 Y71.71 E22.54585
G1 X162.074 Y72.376 E22.57764
G1 X162.149 Y73.159 E22.61427
G1 X162.16 Y73.644 E22.63685
G1 X162.159 Y78.356 E22.85627
G1 X162.148 Y79.082 E22.89007
G1 X162.098 Y79.764 E22.92192
G1 X161.978 Y80.408 E22.95242
G1 X161.454 Y83.016 E23.07629
G1 X161.011 Y85.616 E23.1991
G1 X160.632 Y88.275 E23.32416
G1 X160.331 Y90.924 E23.44831
G1 X160.107 Y93.563 E23.57163
G1 X159.956 Y96.23 E23.69602
G1 X159.88 Y98.903 E23.82053
G1 X159.88 Y101.543 E23.94346
G1 X159.956 Y104.217 E24.06803
G1 X160.107 Y106.883 E24.19236
G1 X160.335 Y109.564 E24.31765
G1 X160.477 Y110.897 E24.38007
G1 X160.517 Y111.668 E24.41602
G1 X160.52 Y111.845 E24.42427
G1 X160.519 Y116.55 E24.64335
G1 X160.509 Y117.272 E24.67697
G1 X160.46 Y117.953 E24.70877
G1 X160.331 Y118.624 E24.74058
G1 X160.125 Y119.276 E24.77242
G1 X159.844 Y119.899 E24.80425
G1 X159.493 Y120.484 E24.83601
G1 X159.266 Y120.795 E24.85394
G1 X158.812 Y121.374 E24.8882
G1 X157.997 Y122.383 E24.9486
G1 X156.369 Y124.517 E25.07358
G1 X154.817 Y126.678 E25.19747
G1 X153.33 Y128.876 E25.32104
G1 X151.888 Y131.145 E25.44622
G1 X150.538 Y133.407 E25.56888
G1 X149.242 Y135.724 E25.6925
G1 X147.998 Y138.105 E25.81759
G1 X146.836 Y140.493 E25.94125
G1 X145.729 Y142.938 E26.06623
G1 X144.701 Y145.388 E26.18995
G1 X144.392 Y146.196 E26.23023
G1 X144.002 Y147.167 E26.27895
G1 X143.711 Y147.785 E26.31076
G1 X143.349 Y148.364 E26.34256
G1 X142.923 Y148.898 E26.37436
G1 X142.437 Y149.378 E26.40617
G1 X141.898 Y149.798 E26.43799
G1 X141.314 Y150.152 E26.46979
G1 X140.692 Y150.436 E26.50163
G1 X140.041 Y150.645 E26.53346
G1 X139.371 Y150.777 E26.56526
G1 X138.764 Y150.827 E26.59362
G1 X138.26 Y150.84 E26.6171
G1 X68.845 Y150.839 E29.84935
G1 X68.164 Y150.829 E29.88107
G1 X67.483 Y150.779 E29.91286
G1 X66.812 Y150.65 E29.94468
G1 X66.161 Y150.443 E29.97649
G1 X65.538 Y150.162 E30.00831
G1 X64.953 Y149.81 E30.0401
G1 X64.412 Y149.392 E30.07194
G1 X63.755 Y148.718 E30.11576
G1 X63.721 Y148.677 E30.11824
G1 X63.316 Y148.126 E30.15009
G1 X62.978 Y147.532 E30.18191
G1 X62.71 Y146.896 E30.21405
G1 X62.25 Y145.595 E30.2783
G1 X62.144 Y145.283 E30.29365
G1 X61.228 Y142.818 E30.41609
G1 X60.239 Y140.372 E30.53895
G1 X59.15 Y137.885 E30.66537
G1 X58.02 Y135.489 E30.78872
G1 X56.83 Y133.14 E30.91134
G1 X55.55 Y130.782 E31.03627
G1 X54.207 Y128.47 E31.16077
G1 X52.816 Y126.219 E31.28398
G1 X51.349 Y123.989 E31.40828
G1 X49.827 Y121.813 E31.53193
G1 X49.574 Y121.471 E31.55173
G1 X48.952 Y120.608 E31.60127
G1 X48.586 Y120.031 E31.63309
G1 X48.289 Y119.415 E31.66493
G1 X48.067 Y118.769 E31.69674
G1 X47.921 Y118.102 E31.72853
G1 X47.853 Y117.371 E31.76272
G1 X47.84 Y116.865 E31.78628
G1 X47.841 Y112.131 E32.00672
G1 X47.852 Y111.424 E32.03964
G1 X47.902 Y110.743 E32.07144
G1 X48.009 Y110.158 E32.09913
G1 X48.547 Y107.478 E32.22641
G1 X48.99 Y104.888 E32.34877
G1 X49.37 Y102.22 E32.47425
G1 X49.671 Y99.566 E32.59863
G1 X49.894 Y96.939 E32.72139
G1 X50.045 Y94.264 E32.84615
G1 X50.12 Y91.595 E32.97048
G1 X50.12 Y88.955 E33.09341
G1 X50.043 Y86.278 E33.21811
G1 X49.892 Y83.607 E33.34268
G1 X49.665 Y80.945 E33.46709
G1 X49.522 Y79.604 E33.52988
G1 X49.482 Y78.83 E33.56597
G1 X49.48 Y78.665 E33.57366
G1 X49.481 Y73.901 E33.79549
G1 X49.491 Y73.232 E33.82664
G1 X49.541 Y72.55 E33.85848
G1 X49.67 Y71.879 E33.8903
G1 X49.877 Y71.228 E33.92211
G1 X50.159 Y70.606 E33.95391
G1 X50.511 Y70.02 E33.98574
G1 X50.929 Y69.48 E34.01754
G1 X51.408 Y68.992 E34.04938
G1 X51.94 Y68.564 E34.08117
M204 S3000
M205 X10 Y10
G0 F3000 X51.953 Y69.261
M204 S1800
M205 X8 Y8
G1 F2400 X52.755 Y68.71 E34.12648
G1 X54.017 Y68.006 E34.19377
G1 X56.354 Y66.657 E34.31942
G1 X58.627 Y65.256 E34.44375
G1 X60.86 Y63.794 E34.56803
G1 X63.051 Y62.266 E34.69241
G1 X64.912 Y60.89 E34.80018
G1 X65.135 Y60.729 E34.81299
G1 X65.684 Y60.382 E34.84323
G1 X66.272 Y60.105 E34.8735
G1 X66.889 Y59.902 E34.90374
G1 X67.526 Y59.777 E34.93397
G1 X68.065 Y59.732 E34.95916
G1 X68.554 Y59.72 E34.98193
G1 X137.883 Y59.72 E38.21018
G1 X138.661 Y59.731 E38.24641
G1 X139.309 Y59.78 E38.27667
G1 X139.946 Y59.908 E38.30693
G1 X140.557 Y60.112 E38.33692
G1 X141.235 Y60.441 E38.37201
G1 X142.369 Y61.095 E38.43297
G1 X144.744 Y62.42 E38.5596
G1 X147.114 Y63.656 E38.68407
G1 X149.515 Y64.823 E38.80837
G1 X151.968 Y65.929 E38.93367
G1 X154.427 Y66.957 E39.05777
G1 X156.949 Y67.929 E39.18363
G1 X158.144 Y68.371 E39.24296
G1 X158.738 Y68.634 E39.27321
G1 X159.295 Y68.967 E39.30342
G1 X159.808 Y69.367 E39.33372
G1 X160.267 Y69.826 E39.36394
G1 X160.666 Y70.338 E39.39417
G1 X161 Y70.896 E39.42445
G1 X161.263 Y71.49 E39.4547
G1 X161.45 Y72.112 E39.48494
G1 X161.56 Y72.752 E39.51518
G1 X161.598 Y73.496 E39.54987
G1 X161.6 Y73.644 E39.55676
G1 X161.599 Y78.348 E39.7758
G1 X161.588 Y79.074 E39.80961
G1 X161.539 Y79.722 E39.83987
G1 X161.431 Y80.289 E39.86674
G1 X160.903 Y82.915 E39.99147
G1 X160.454 Y85.553 E40.11607
G1 X160.076 Y88.206 E40.24085
G1 X159.776 Y90.847 E40.36462
G1 X159.549 Y93.516 E40.48935
G1 X159.396 Y96.219 E40.61541
G1 X159.32 Y98.887 E40.7397
G1 X159.32 Y101.559 E40.86412
G1 X159.396 Y104.228 E40.98845
G1 X159.549 Y106.93 E41.11446
G1 X159.778 Y109.62 E41.24018
G1 X159.92 Y110.956 E41.30274
G1 X159.958 Y111.685 E41.33673
G1 X159.96 Y111.845 E41.34418
G1 X159.959 Y116.542 E41.56289
G1 X159.949 Y117.264 E41.59651
G1 X159.901 Y117.912 E41.62677
G1 X159.772 Y118.549 E41.65703
G1 X159.567 Y119.165 E41.68726
G1 X159.288 Y119.751 E41.71748
G1 X158.825 Y120.449 E41.75649
G1 X158.324 Y121.088 E41.7943
G1 X157.547 Y122.051 E41.85191
G1 X155.901 Y124.209 E41.97829
G1 X154.358 Y126.356 E42.10141
G1 X152.864 Y128.565 E42.22558
G1 X151.428 Y130.825 E42.35026
G1 X150.04 Y133.151 E42.47639
G1 X148.75 Y135.456 E42.59939
G1 X147.492 Y137.865 E42.72593
G1 X146.329 Y140.254 E42.84966
G1 X145.23 Y142.682 E42.97376
G1 X144.176 Y145.193 E43.10056
G1 X143.873 Y145.987 E43.14013
G1 X143.483 Y146.958 E43.18886
G1 X143.204 Y147.545 E43.21912
G1 X142.855 Y148.093 E43.24938
G1 X142.442 Y148.594 E43.27961
G1 X141.97 Y149.04 E43.30985
G1 X141.447 Y149.426 E43.34011
G1 X140.881 Y149.744 E43.37034
G1 X140.279 Y149.99 E43.40063
G1 X139.653 Y150.161 E43.43084
G1 X138.746 Y150.267 E43.47336
G1 X138.26 Y150.28 E43.496
G1 X68.853 Y150.279 E46.72788
G1 X68.172 Y150.269 E46.7596
G1 X67.525 Y150.22 E46.78981
G1 X66.888 Y150.091 E46.82007
G1 X66.272 Y149.885 E46.85032
G1 X65.686 Y149.605 E46.88056
G1 X65.138 Y149.256 E46.91081
G1 X64.638 Y148.841 E46.94107
G1 X64.186 Y148.36 E46.9718
G1 X64.152 Y148.319 E46.97428
G1 X63.769 Y147.795 E47.00451
G1 X63.453 Y147.227 E47.03477
G1 X63.238 Y146.709 E47.06089
G1 X62.781 Y145.415 E47.12479
G1 X62.676 Y145.107 E47.13994
G1 X61.753 Y142.621 E47.26342
G1 X60.751 Y140.145 E47.3878
G1 X59.656 Y137.643 E47.51497
G1 X58.542 Y135.281 E47.63657
G1 X57.306 Y132.843 E47.76385
G1 X56.031 Y130.494 E47.88831
G1 X54.692 Y128.188 E48.01247
G1 X53.29 Y125.92 E48.13663
G1 X51.816 Y123.679 E48.26153
G1 X50.288 Y121.495 E48.38564
G1 X50.029 Y121.143 E48.40599
G1 X49.407 Y120.28 E48.45553
G1 X49.06 Y119.731 E48.48577
G1 X48.783 Y119.143 E48.51603
G1 X48.581 Y118.526 E48.54626
G1 X48.456 Y117.888 E48.57654
G1 X48.412 Y117.354 E48.60149
G1 X48.4 Y116.865 E48.62426
G1 X48.401 Y112.14 E48.84428
G1 X48.412 Y111.433 E48.8772
G1 X48.462 Y110.785 E48.90747
G1 X48.554 Y110.289 E48.93096
G1 X49.099 Y107.573 E49.05995
G1 X49.546 Y104.958 E49.18348
G1 X49.926 Y102.289 E49.30901
G1 X50.227 Y99.642 E49.43306
G1 X50.452 Y96.986 E49.55718
G1 X50.606 Y94.275 E49.68362
G1 X50.68 Y91.611 E49.80771
G1 X50.68 Y88.939 E49.93213
G1 X50.603 Y86.265 E50.0567
G1 X50.45 Y83.565 E50.18262
G1 X50.222 Y80.885 E50.30786
G1 X50.079 Y79.545 E50.37061
G1 X50.042 Y78.814 E50.4047
G1 X50.04 Y78.665 E50.41164
G1 X50.041 Y73.909 E50.63309
G1 X50.051 Y73.24 E50.66425
G1 X50.1 Y72.592 E50.69451
G1 X50.229 Y71.956 E50.72473
G1 X50.435 Y71.34 E50.75497
G1 X50.715 Y70.753 E50.78526
G1 X51.065 Y70.206 E50.81549
G1 X51.48 Y69.706 E50.84575
G1 X51.953 Y69.261 E50.87599
M204 S3000
M205 X10 Y10
G1 F2400 E44.87599
;MESH:Halterung_v4.stl
G0 F3000 X67.559 Y69.261
G0 X69.084 Y69.261
G0 X137.19 Y74.63
M204 S1800
M205 X8 Y8
;TYPE:WALL-INNER
G1 F2400 E50.87599
G1 F1500 X138.205 Y74.63 E50.92325
G1 X138.205 Y74.714 E50.92716
G1 X154.92 Y74.714 E51.70548
G1 X154.92 Y77.594 E51.83959
G1 X138.205 Y77.594 E52.61791
G1 X138.205 Y77.732 E52.62434
G1 X137.19 Y77.732 E52.6716
G1 X137.19 Y112.915 E54.30987
G1 X153.28 Y112.915 E55.05908
G1 X153.28 Y115.795 E55.19319
G1 X137.19 Y115.795 E55.94241
G1 X137.19 Y143.6 E57.23712
G1 X69.624 Y143.6 E60.38328
G1 X69.624 Y115.795 E61.678
G1 X55.08 Y115.795 E62.35523
G1 X55.08 Y112.915 E62.48933
G1 X69.624 Y112.915 E63.16656
G1 X69.624 Y77.594 E64.81126
G1 X56.72 Y77.594 E65.41212
G1 X56.72 Y74.714 E65.54622
G1 X69.624 Y74.714 E66.14709
G1 X69.624 Y66.4 E66.53422
G1 X137.19 Y66.4 E69.68038
G1 X137.19 Y74.63 E70.0636
M204 S3000
M205 X10 Y10
G0 F3000 X137.75 Y74.07
M204 S1800
M205 X8 Y8
G1 F1500 X138.765 Y74.07 E70.11087
