;FLAVOR:Marlin
;TIME:8666
;Filament used: 6.9405m
;Layer height: 0.2
;MINX:48.1
;MINY:70.6
;MINZ:0.2
;MAXX:161.9
;MAXY:139.4
;MAXZ:50.2
;Generated with Cura_SteamEngine 4.8.0
M140 S60
M105
M190 S60
M104 S200
M105
M109 S200
M82 ;absolute extrusion mode
G21 ;metric values
G90 ;absolute positioning
M82 ;set extruder to absolute mode
M107 ;start with the fan off
G28 X0 Y0 ;move X/Y to min endstops
G28 Z0 ;move Z to min endstops
G1 Z15.0 F100 ;move the platform down 15mm
G92 E0 ;zero the extruded length
G1 F200 E3 ;extrude 3mm of feed stock
G92 E0 ;zero the extruded length again
G1 F100
G0 Y20 F100
M117 Printing...
G5
G92 E0
G92 E0
G1 F2400 E-6
;LAYER_COUNT:251
;LAYER:0
M106 S255
M204 S3000
M205 X10 Y10
G1 F600 Z0.275
G0 F3000 X66.18 Y72.388 Z0.275
M204 S1800
M205 X8 Y8
;TYPE:SKIRT
G1 F600 Z0.2
G1 F2400 E0
G1 X66.724 Y71.923 E0.03332
G1 X67.316 Y71.522 E0.06662
G1 X67.949 Y71.189 E0.09992
G1 X68.615 Y70.929 E0.13321
G1 X69.062 Y70.8 E0.15488
G1 X69.764 Y70.666 E0.18816
G1 X70.433 Y70.612 E0.21941
G1 X70.932 Y70.6 E0.24265
G1 X138.078 Y70.6 E3.36925
G1 X138.872 Y70.611 E3.40623
G1 X139.586 Y70.661 E3.43955
G1 X140.289 Y70.79 E3.47284
G1 X140.974 Y70.997 E3.50616
G1 X141.631 Y71.28 E3.53947
G1 X142.252 Y71.633 E3.57273
G1 X142.831 Y72.054 E3.60606
G1 X143.582 Y72.778 E3.65464
G1 X145.461 Y74.91 E3.78696
G1 X147.292 Y76.871 E3.91189
G1 X149.115 Y78.715 E4.03263
G1 X151.06 Y80.575 E4.15795
G1 X153.014 Y82.341 E4.28059
G1 X155.022 Y84.054 E4.40349
G1 X157.102 Y85.729 E4.52784
G1 X159.143 Y87.282 E4.64726
G1 X159.321 Y87.415 E4.65761
G1 X159.869 Y87.875 E4.69093
G1 X160.362 Y88.392 E4.72419
G1 X160.795 Y88.962 E4.75752
G1 X161.161 Y89.576 E4.79081
G1 X161.457 Y90.228 E4.82415
G1 X161.678 Y90.908 E4.85744
G1 X161.822 Y91.609 E4.89077
G1 X161.887 Y92.345 E4.92517
G1 X161.9 Y92.866 E4.94944
G1 X161.899 Y97.577 E5.1688
G1 X161.889 Y98.301 E5.20252
G1 X161.873 Y98.729 E5.22246
G1 X161.736 Y101.159 E5.33579
G1 X161.661 Y103.818 E5.45966
G1 X161.661 Y106.468 E5.58305
G1 X161.737 Y109.113 E5.70626
G1 X161.809 Y110.561 E5.77377
G1 X161.879 Y111.777 E5.83049
G1 X161.897 Y112.304 E5.85504
G1 X161.9 Y112.49 E5.8637
G1 X161.899 Y116.996 E6.07352
G1 X161.889 Y117.732 E6.1078
G1 X161.84 Y118.445 E6.14107
G1 X161.711 Y119.149 E6.1744
G1 X161.504 Y119.834 E6.20772
G1 X161.222 Y120.491 E6.24101
G1 X160.869 Y121.113 E6.27432
G1 X160.448 Y121.692 E6.30765
G1 X159.966 Y122.22 E6.34094
G1 X159.37 Y122.735 E6.37762
G1 X158.854 Y123.127 E6.40779
G1 X157.578 Y124.073 E6.48176
G1 X155.515 Y125.693 E6.6039
G1 X153.461 Y127.402 E6.72832
G1 X151.45 Y129.175 E6.85315
G1 X149.545 Y130.951 E6.97443
G1 X147.644 Y132.827 E7.09879
G1 X145.825 Y134.728 E7.22131
G1 X144.059 Y136.68 E7.34388
G1 X143.588 Y137.216 E7.3771
G1 X143.086 Y137.726 E7.41042
G1 X142.531 Y138.177 E7.44372
G1 X141.929 Y138.563 E7.47702
G1 X141.288 Y138.879 E7.5103
G1 X140.615 Y139.122 E7.54362
G1 X139.919 Y139.289 E7.57695
G1 X138.957 Y139.389 E7.62198
G1 X138.455 Y139.4 E7.64536
G1 X71.218 Y139.399 E10.7762
G1 X70.514 Y139.389 E10.80898
G1 X69.801 Y139.339 E10.84227
G1 X69.097 Y139.21 E10.87559
G1 X68.413 Y139.003 E10.90887
G1 X67.755 Y138.721 E10.9422
G1 X67.134 Y138.367 E10.97549
G1 X66.555 Y137.946 E11.00882
G1 X66.028 Y137.463 E11.04211
G1 X65.741 Y137.149 E11.06192
G1 X65.13 Y136.434 E11.10571
G1 X63.327 Y134.388 E11.2327
G1 X61.51 Y132.44 E11.35674
G1 X59.656 Y130.563 E11.47959
G1 X57.728 Y128.719 E11.60381
G1 X55.791 Y126.967 E11.72543
G1 X53.762 Y125.235 E11.84965
G1 X51.639 Y123.525 E11.97658
G1 X50.553 Y122.672 E12.04089
G1 X50.017 Y122.199 E12.07417
G1 X49.536 Y121.67 E12.10747
G1 X49.118 Y121.09 E12.14076
G1 X48.766 Y120.466 E12.17412
G1 X48.487 Y119.808 E12.2074
G1 X48.283 Y119.123 E12.24068
G1 X48.156 Y118.419 E12.27399
G1 X48.111 Y117.817 E12.3021
G1 X48.1 Y117.314 E12.32552
G1 X48.101 Y112.776 E12.53683
G1 X48.111 Y112.07 E12.56971
G1 X48.127 Y111.646 E12.58947
G1 X48.265 Y109.2 E12.70354
G1 X48.339 Y106.54 E12.82745
G1 X48.339 Y103.896 E12.95057
G1 X48.263 Y101.261 E13.07332
G1 X48.191 Y99.814 E13.14078
G1 X48.121 Y98.598 E13.19749
G1 X48.103 Y98.071 E13.22205
G1 X48.1 Y97.885 E13.23071
G1 X48.101 Y93.152 E13.4511
G1 X48.111 Y92.451 E13.48374
G1 X48.161 Y91.737 E13.51707
G1 X48.29 Y91.034 E13.55035
G1 X48.497 Y90.349 E13.58367
G1 X48.78 Y89.692 E13.61698
G1 X49.133 Y89.07 E13.65029
G1 X49.554 Y88.492 E13.68358
G1 X50.037 Y87.964 E13.7169
G1 X50.482 Y87.568 E13.74464
G1 X50.902 Y87.229 E13.76977
G1 X52.436 Y86.024 E13.86061
G1 X54.485 Y84.316 E13.98482
G1 X56.461 Y82.574 E14.10748
G1 X58.381 Y80.782 E14.22977
G1 X60.265 Y78.922 E14.35305
G1 X62.12 Y76.982 E14.47803
G1 X63.875 Y75.042 E14.59985
G1 X65.603 Y73.018 E14.72377
G1 X65.692 Y72.911 E14.73025
G1 X66.18 Y72.388 E14.76356
M204 S3000
M205 X10 Y10
G0 F3000 X66.589 Y72.772
M204 S1800
M205 X8 Y8
G1 F2400 X67.112 Y72.331 E14.79541
G1 X67.683 Y71.955 E14.82725
G1 X68.293 Y71.649 E14.85902
G1 X69.198 Y71.343 E14.90351
G1 X69.869 Y71.217 E14.9353
G1 X70.449 Y71.171 E14.96239
G1 X70.932 Y71.16 E14.98489
G1 X138.078 Y71.16 E18.11149
G1 X138.864 Y71.171 E18.14809
G1 X139.545 Y71.22 E18.17988
G1 X140.216 Y71.349 E18.2117
G1 X140.868 Y71.556 E18.24355
G1 X141.491 Y71.837 E18.27538
G1 X142.076 Y72.188 E18.30714
G1 X142.617 Y72.606 E18.33898
G1 X143.162 Y73.149 E18.3748
G1 X145.029 Y75.267 E18.50627
G1 X146.881 Y77.251 E18.63265
G1 X148.744 Y79.135 E18.75602
G1 X150.657 Y80.965 E18.8793
G1 X152.654 Y82.77 E19.00464
G1 X154.666 Y84.486 E19.12777
G1 X156.748 Y86.163 E19.25226
G1 X158.84 Y87.755 E19.37467
G1 X158.986 Y87.864 E19.38315
G1 X159.508 Y88.304 E19.41494
G1 X159.976 Y88.802 E19.44676
G1 X160.382 Y89.352 E19.4786
G1 X160.721 Y89.945 E19.5104
G1 X160.988 Y90.573 E19.54218
G1 X161.181 Y91.229 E19.57402
G1 X161.295 Y91.903 E19.60585
G1 X161.337 Y92.686 E19.64236
G1 X161.34 Y92.866 E19.65074
G1 X161.339 Y97.57 E19.86978
G1 X161.329 Y98.294 E19.9035
G1 X161.314 Y98.697 E19.92227
G1 X161.176 Y101.146 E20.03649
G1 X161.101 Y103.818 E20.16096
G1 X161.101 Y106.46 E20.28398
G1 X161.178 Y109.146 E20.40911
G1 X161.25 Y110.589 E20.47638
G1 X161.328 Y111.976 E20.54107
G1 X161.34 Y112.49 E20.56501
G1 X161.339 Y116.988 E20.77445
G1 X161.329 Y117.724 E20.80873
G1 X161.28 Y118.406 E20.84057
G1 X161.152 Y119.077 E20.87237
G1 X160.946 Y119.728 E20.90417
G1 X160.665 Y120.351 E20.93599
G1 X160.314 Y120.937 E20.9678
G1 X159.896 Y121.478 E20.99964
G1 X159.418 Y121.966 E21.03144
G1 X159.031 Y122.289 E21.05492
G1 X158.521 Y122.677 E21.08475
G1 X157.258 Y123.613 E21.15795
G1 X155.113 Y125.298 E21.28497
G1 X153.11 Y126.964 E21.40628
G1 X151.074 Y128.76 E21.5327
G1 X149.147 Y130.555 E21.65533
G1 X147.276 Y132.402 E21.77775
G1 X145.418 Y134.343 E21.90286
G1 X143.604 Y136.348 E22.02876
G1 X143.167 Y136.846 E22.05961
G1 X142.687 Y137.332 E22.09142
G1 X142.153 Y137.758 E22.12323
G1 X141.573 Y138.12 E22.15507
G1 X140.955 Y138.411 E22.18687
G1 X140.307 Y138.628 E22.21869
G1 X139.638 Y138.768 E22.25052
G1 X138.942 Y138.829 E22.28305
G1 X138.455 Y138.84 E22.30574
G1 X71.226 Y138.839 E25.4362
G1 X70.522 Y138.829 E25.46898
G1 X69.841 Y138.78 E25.50078
G1 X69.17 Y138.651 E25.53259
G1 X68.518 Y138.444 E25.56445
G1 X67.896 Y138.163 E25.59623
G1 X67.31 Y137.812 E25.62803
G1 X66.769 Y137.394 E25.65987
G1 X66.167 Y136.786 E25.69971
G1 X65.494 Y135.999 E25.74793
G1 X63.745 Y134.014 E25.87112
G1 X61.922 Y132.06 E25.99555
G1 X60.045 Y130.161 E26.11988
G1 X58.119 Y128.318 E26.24401
G1 X56.151 Y126.539 E26.36754
G1 X54.101 Y124.789 E26.49305
G1 X52.045 Y123.131 E26.61604
G1 X50.9 Y122.232 E26.68382
G1 X50.388 Y121.779 E26.71565
G1 X49.933 Y121.269 E26.74748
G1 X49.541 Y120.71 E26.77927
G1 X49.216 Y120.109 E26.81109
G1 X48.964 Y119.474 E26.8429
G1 X48.788 Y118.814 E26.8747
G1 X48.671 Y117.802 E26.92214
G1 X48.66 Y117.314 E26.94487
G1 X48.661 Y112.784 E27.15581
G1 X48.671 Y112.078 E27.18868
G1 X48.686 Y111.678 E27.20732
G1 X48.825 Y109.216 E27.32215
G1 X48.899 Y106.556 E27.44605
G1 X48.899 Y103.915 E27.56903
G1 X48.822 Y101.218 E27.69467
G1 X48.75 Y99.786 E27.76143
G1 X48.672 Y98.399 E27.82612
G1 X48.66 Y97.885 E27.85006
G1 X48.661 Y93.16 E28.07007
G1 X48.671 Y92.459 E28.10272
G1 X48.72 Y91.777 E28.13456
G1 X48.849 Y91.106 E28.16637
G1 X49.056 Y90.455 E28.19818
G1 X49.337 Y89.832 E28.23
G1 X49.689 Y89.247 E28.2618
G1 X50.106 Y88.706 E28.2936
G1 X50.835 Y88.003 E28.34076
G1 X51.248 Y87.669 E28.36549
G1 X52.803 Y86.447 E28.45758
G1 X54.833 Y84.756 E28.58061
G1 X56.837 Y82.988 E28.70505
G1 X58.797 Y81.16 E28.82985
G1 X60.65 Y79.33 E28.95111
G1 X62.509 Y77.385 E29.0764
G1 X64.303 Y75.402 E29.20091
G1 X66.122 Y73.27 E29.33141
G1 X66.589 Y72.772 E29.3632
M204 S3000
M205 X10 Y10
G0 F3000 X66.998 Y73.156
M204 S1800
M205 X8 Y8
G1 F2400 X67.499 Y72.742 E29.39346
G1 X68.046 Y72.393 E29.42368
G1 X68.633 Y72.114 E29.45394
G1 X69.333 Y71.887 E29.48821
G1 X69.972 Y71.768 E29.51847
G1 X70.783 Y71.722 E29.5563
G1 X70.932 Y71.72 E29.56323
G1 X138.078 Y71.72 E32.68983
G1 X138.856 Y71.731 E32.72606
G1 X139.504 Y71.78 E32.75632
G1 X140.141 Y71.908 E32.78658
G1 X140.757 Y72.114 E32.81682
G1 X141.343 Y72.393 E32.84704
G1 X141.891 Y72.743 E32.87732
G1 X142.391 Y73.157 E32.90755
G1 X142.742 Y73.519 E32.93103
G1 X144.645 Y75.678 E33.06504
G1 X146.452 Y77.614 E33.18835
G1 X148.354 Y79.537 E33.3143
G1 X150.291 Y81.39 E33.43912
G1 X152.274 Y83.182 E33.56357
G1 X154.292 Y84.904 E33.6871
G1 X156.416 Y86.615 E33.8141
G1 X158.472 Y88.179 E33.93439
G1 X158.65 Y88.312 E33.94473
G1 X159.146 Y88.732 E33.975
G1 X159.586 Y89.21 E34.00525
G1 X159.964 Y89.738 E34.03548
G1 X160.275 Y90.309 E34.06576
G1 X160.513 Y90.913 E34.09599
G1 X160.675 Y91.543 E34.12628
G1 X160.767 Y92.379 E34.16544
G1 X160.78 Y92.866 E34.18813
G1 X160.779 Y97.562 E34.40679
G1 X160.765 Y98.451 E34.44819
G1 X160.755 Y98.666 E34.45822
G1 X160.616 Y101.136 E34.57341
G1 X160.541 Y103.803 E34.69765
G1 X160.541 Y106.476 E34.82211
G1 X160.618 Y109.177 E34.94793
G1 X160.688 Y110.577 E35.01321
G1 X160.761 Y111.842 E35.07221
G1 X160.78 Y112.49 E35.10239
G1 X160.78 Y116.981 E35.31151
G1 X160.77 Y117.717 E35.34579
G1 X160.721 Y118.365 E35.37605
G1 X160.593 Y119.001 E35.40626
G1 X160.388 Y119.618 E35.43653
G1 X160.108 Y120.204 E35.46677
G1 X159.759 Y120.752 E35.49702
G1 X159.345 Y121.253 E35.52729
G1 X158.691 Y121.844 E35.56833
G1 X158.187 Y122.227 E35.59781
G1 X156.914 Y123.17 E35.67158
G1 X154.789 Y124.84 E35.79743
G1 X152.74 Y126.544 E35.92152
G1 X150.728 Y128.318 E36.04642
G1 X148.751 Y130.16 E36.17224
G1 X146.857 Y132.03 E36.29618
G1 X145.012 Y133.957 E36.4204
G1 X143.167 Y135.997 E36.54848
G1 X142.746 Y136.476 E36.57818
G1 X142.288 Y136.937 E36.60844
G1 X141.777 Y137.338 E36.63868
G1 X141.221 Y137.673 E36.66891
G1 X140.627 Y137.937 E36.69918
G1 X140.006 Y138.127 E36.72942
G1 X139.366 Y138.238 E36.75966
G1 X138.601 Y138.278 E36.79533
G1 X138.455 Y138.28 E36.80213
G1 X71.234 Y138.279 E39.93222
G1 X70.53 Y138.269 E39.96501
G1 X69.882 Y138.22 E39.99527
G1 X69.245 Y138.092 E40.02552
G1 X68.629 Y137.886 E40.05577
G1 X68.043 Y137.607 E40.08599
G1 X67.495 Y137.257 E40.11626
G1 X66.995 Y136.843 E40.14649
G1 X66.592 Y136.422 E40.17363
G1 X65.919 Y135.635 E40.22185
G1 X64.162 Y133.641 E40.3456
G1 X62.317 Y131.663 E40.47155
G1 X60.453 Y129.777 E40.59502
G1 X58.479 Y127.888 E40.72225
G1 X56.532 Y126.127 E40.84449
G1 X54.476 Y124.372 E40.97036
G1 X52.382 Y122.683 E41.09563
G1 X52.261 Y122.59 E41.10274
G1 X51.246 Y121.792 E41.16286
G1 X50.761 Y121.36 E41.1931
G1 X50.332 Y120.871 E41.22339
G1 X49.967 Y120.334 E41.25363
G1 X49.671 Y119.756 E41.28386
G1 X49.448 Y119.146 E41.31411
G1 X49.301 Y118.513 E41.34437
G1 X49.231 Y117.786 E41.37837
G1 X49.22 Y117.314 E41.40036
G1 X49.221 Y112.792 E41.61092
G1 X49.235 Y111.921 E41.65149
G1 X49.245 Y111.709 E41.66137
G1 X49.385 Y109.232 E41.77689
G1 X49.459 Y106.557 E41.9015
G1 X49.459 Y103.899 E42.02527
G1 X49.381 Y101.174 E42.15221
G1 X49.31 Y99.758 E42.21822
G1 X49.239 Y98.533 E42.27536
G1 X49.22 Y97.885 E42.30555
G1 X49.221 Y93.168 E42.52519
G1 X49.231 Y92.467 E42.55783
G1 X49.28 Y91.819 E42.58809
G1 X49.408 Y91.182 E42.61835
G1 X49.614 Y90.566 E42.64859
G1 X49.893 Y89.98 E42.67881
G1 X50.243 Y89.432 E42.70909
G1 X50.657 Y88.932 E42.73932
G1 X51.187 Y88.439 E42.77302
G1 X51.594 Y88.11 E42.79739
G1 X53.145 Y86.891 E42.88925
G1 X55.186 Y85.191 E43.01294
G1 X57.212 Y83.404 E43.13873
G1 X59.176 Y81.572 E43.26379
G1 X61.07 Y79.701 E43.38776
G1 X62.934 Y77.752 E43.51334
G1 X64.715 Y75.783 E43.63696
G1 X66.428 Y73.776 E43.75983
G1 X66.552 Y73.628 E43.76882
G1 X66.998 Y73.156 E43.79906
M204 S3000
M205 X10 Y10
G1 F2400 E37.79906
;MESH:Halterung_v3.stl
G0 F3000 X71.456 Y76.335
G0 X71.456 Y77.854
G0 X137.755 Y113.56
M204 S1800
M205 X8 Y8
;TYPE:WALL-INNER
G1 F2400 E43.79906
G1 F1500 X154.1 Y113.56 E44.56015
G1 X154.1 Y116.25 E44.68541
G1 X137.385 Y116.25 E45.46373
G1 X137.385 Y131.6 E46.17849
G1 X72.002 Y131.6 E49.223
G1 X72.002 Y116.25 E49.93776
G1 X55.9 Y116.25 E50.68753
G1 X55.9 Y113.56 E50.81279
G1 X72.002 Y113.56 E51.56257
G1 X72.002 Y96.815 E52.34228
G1 X55.9 Y96.815 E53.09206
G1 X55.9 Y93.936 E53.22612
G1 X72.002 Y93.936 E53.9759
G1 X72.002 Y78.4 E54.69932
G1 X137.385 Y78.4 E57.74382
G1 X137.385 Y93.936 E58.46724
G1 X154.1 Y93.936 E59.24557
G1 X154.1 Y96.815 E59.37962
G1 X137.385 Y96.815 E60.15794
G1 X137.385 Y113.445 E60.93231
G1 X137.756 Y113.445 E60.94958
G1 X137.755 Y113.56
M204 S3000
M205 X10 Y10
G0 F3000 X138.32 Y113
M204 S1800
M205 X8 Y8
G1 F1500 X154.66 Y113 E61.71044
G1 X154.66 Y116.81 E61.88785
G1 X137.945 Y116.81 E62.66617
G1 X137.945 Y132.16 E63.38093
G1 X71.442 Y132.16 E66.47759
G1 X71.442 Y116.81 E67.19235
G1 X55.34 Y116.81 E67.94213
G1 X55.34 Y113 E68.11954
G1 X71.442 Y113 E68.86931
G1 X71.442 Y97.375 E69.59688
G1 X55.34 Y97.375 E70.34665
G1 X55.34 Y93.376 E70.53286
G1 X71.442 Y93.376 E71.28264
G1 X71.442 Y77.84 E72.00606
G1 X137.945 Y77.84 E75.10272
G1 X137.945 Y93.376 E75.82614
G1 X154.66 Y93.376 E76.60446
G1 X154.66 Y97.375 E76.79067
G1 X137.945 Y97.375 E77.56899
G1 X137.945 Y112.885 E78.2912
G1 X138.321 Y112.885 E78.30871
G1 X138.32 Y113
M204 S3000
M205 X10 Y10
G0 F3000 X138.885 Y112.44
M204 S1800
M205 X8 Y8
;TYPE:WALL-OUTER
G1 F1500 X155.22 Y112.44 E79.06934
G1 X155.22 Y117.37 E79.2989
G1 X138.505 Y117.37 E80.07722
G1 X138.505 Y132.72 E80.79198
G1 X70.882 Y132.72 E83.94079
G1 X70.882 Y117.37 E84.65555
G1 X54.78 Y117.37 E85.40533
G1 X54.78 Y112.44 E85.63489
G1 X70.882 Y112.44 E86.38466
G1 X70.882 Y97.935 E87.06008
G1 X54.78 Y97.935 E87.80985
G1 X54.78 Y92.816 E88.04822
G1 X70.882 Y92.816 E88.79799
G1 X70.882 Y77.28 E89.52141
G1 X138.505 Y77.28 E92.67022
G1 X138.505 Y92.816 E93.39365
G1 X155.22 Y92.816 E94.17197
G1 X155.22 Y97.935 E94.41033
G1 X138.505 Y97.935 E95.18865
G1 X138.505 Y112.325 E95.85871
G1 X138.886 Y112.325 E95.87645
G1 X138.885 Y112.44
M204 S3000
M205 X10 Y10
G0 F3000 X139.085 Y112.44
G0 X139.085 Y113.1
G0 X137.202 Y113.995
M204 S1800
M205 X8 Y8
;TYPE:SKIN
G1 F1500 X137.201 Y114.11 E95.8818
G1 X153.55 Y114.11 E96.64308
G1 X153.55 Y115.7 E96.71712
G1 X136.835 Y115.7 E97.49544
G1 X136.835 Y131.05 E98.2102
G1 X72.552 Y131.05 E101.20349
G1 X72.552 Y115.7 E101.91825
G1 X56.45 Y115.7 E102.66802
G1 X56.45 Y114.11 E102.74206
G1 X72.552 Y114.11 E103.49184
G1 X72.552 Y96.265 E104.32277
G1 X56.45 Y96.265 E105.07255
G1 X56.45 Y94.486 E105.15539
G1 X72.552 Y94.486 E105.90516
G1 X72.552 Y78.95 E106.62859
G1 X136.835 Y78.95 E109.62187
G1 X136.835 Y94.486 E110.34529
G1 X153.55 Y94.486 E111.12361
G1 X153.55 Y96.265 E111.20645
G1 X136.835 Y96.265 E111.98477
G1 X136.835 Y113.995 E112.81035
G1 X137.202 Y113.995 E112.82744
M204 S3000
M205 X10 Y10
G0 F3000 X137.917 Y97.347
G0 X153.289 Y95.476
M204 S1800
M205 X8 Y8
G1 F1500 X152.558 Y94.745 E112.87558
M204 S3000
M205 X10 Y10
G0 F3000 X151.767 Y94.745
M204 S1800
M205 X8 Y8
G1 F1500 X153.025 Y96.004 E112.95846
M204 S3000
M205 X10 Y10
G0 F3000 X152.233 Y96.004
M204 S1800
M205 X8 Y8
G1 F1500 X150.975 Y94.745 E113.04133
M204 S3000
M205 X10 Y10
G0 F3000 X150.183 Y94.745
M204 S1800
M205 X8 Y8
G1 F1500 X151.441 Y96.004 E113.1242
M204 S3000
M205 X10 Y10
G0 F3000 X150.649 Y96.004
M204 S1800
M205 X8 Y8
G1 F1500 X149.391 Y94.745 E113.20708
M204 S3000
