;FLAVOR:Marlin
;TIME:5192
;Filament used: 3.78597m
;Layer height: 0.2
;MINX:52.595
;MINY:63.598
;MINZ:0.2
;MAXX:157.398
;MAXY:146.4
;MAXZ:1.4
;Generated with Cura_SteamEngine 4.8.0
M140 S60
M105
M190 S60
M104 S200
M105
M109 S200
M82 ;absolute extrusion mode
; Script based on an original created by tjjfvi (https://github.com/tjjfvi)
; An up-to-date version of the tjjfvi's original script can be found
; here:  https://csi.t6.fyi/
; Note - This script will only work in Cura V4.2 and above!
; --- Global Settings
; layer_height = 0.2
; smooth_spiralized_contours = True
; magic_mesh_surface_mode = normal
; machine_extruder_count = 1
; --- Single Extruder Settings
; speed_z_hop = 10
; retraction_amount = 6
; retraction_hop = 0.075
; retraction_hop_enabled = True
; retraction_enable = True
; retraction_speed = 40
; retraction_retract_speed = 40
; retraction_prime_speed = 40
; speed_travel = 100


G21 ;metric values
G90 ;absolute positioning
M82 ;set extruder to absolute mode
M107 ;start with the fan off
G28 X0 Y0 ;move X/Y to min endstops
G28 Z0 ;move Z to min endstops
G1 Z15.0 F100 ;move the platform down 15mm
G92 E0 ;zero the extruded length
G1 F200 E3 ;extrude 3mm of feed stock
G92 E0 ;zero the extruded length again
G1 F100
G0 Y20 F100
M117 Printing...
G5
G92 E0
G92 E0
G1 F2400 E-6
;LAYER_COUNT:7
;LAYER:0
M106 S255
M204 S3000
M205 X10 Y10
G1 F600 Z0.275
G0 F3000 X55.551 Y65.638 Z0.275
M204 S1800
M205 X8 Y8
;TYPE:SKIRT
G1 F600 Z0.2
G1 F2400 E0
G1 X56.107 Y65.188 E0.03331
G1 X56.592 Y64.871 E0.06029
G1 X57.02 Y64.618 E0.08344
G1 X57.655 Y64.289 E0.11674
G1 X58.216 Y64.068 E0.14482
G1 X58.853 Y63.872 E0.17585
G1 X59.55 Y63.712 E0.20915
G1 X60.496 Y63.622 E0.2534
G1 X61.667 Y63.598 E0.30793
G1 X148.466 Y63.6 E4.34966
G1 X149.307 Y63.628 E4.38884
G1 X149.865 Y63.673 E4.41491
G1 X150.828 Y63.825 E4.46031
G1 X151.161 Y63.904 E4.47624
G1 X151.847 Y64.108 E4.50957
G1 X152.746 Y64.511 E4.55544
G1 X153.003 Y64.651 E4.56907
G1 X153.729 Y65.113 E4.60914
G1 X154.128 Y65.423 E4.63267
G1 X154.597 Y65.818 E4.66122
G1 X155.117 Y66.308 E4.69449
G1 X155.58 Y66.854 E4.72782
G1 X155.943 Y67.38 E4.75758
G1 X156.353 Y68.065 E4.79476
G1 X156.367 Y68.091 E4.79613
G1 X156.765 Y68.99 E4.84191
G1 X156.991 Y69.652 E4.87448
G1 X157.175 Y70.343 E4.90778
G1 X157.306 Y71.188 E4.9476
G1 X157.384 Y72.106 E4.9905
G1 X157.392 Y72.474 E5.00764
G1 X157.398 Y73.479 E5.05443
G1 X157.397 Y139.352 E8.12176
G1 X157.387 Y140.079 E8.15561
G1 X157.338 Y140.793 E8.18894
G1 X157.209 Y141.496 E8.22222
G1 X157.002 Y142.181 E8.25554
G1 X156.72 Y142.838 E8.28883
G1 X156.366 Y143.46 E8.32216
G1 X155.946 Y144.038 E8.35543
G1 X155.463 Y144.566 E8.38875
G1 X154.925 Y145.037 E8.42204
G1 X154.337 Y145.445 E8.45537
G1 X153.707 Y145.785 E8.4887
G1 X153.044 Y146.052 E8.52198
G1 X152.355 Y146.243 E8.55528
G1 X151.649 Y146.357 E8.58858
G1 X150.848 Y146.397 E8.62592
G1 X150.668 Y146.4 E8.6343
G1 X62.414 Y146.399 E12.74378
G1 X61.712 Y146.389 E12.77647
G1 X60.998 Y146.339 E12.8098
G1 X60.295 Y146.21 E12.84308
G1 X59.61 Y146.003 E12.8764
G1 X58.953 Y145.72 E12.90971
G1 X58.331 Y145.367 E12.94301
G1 X57.753 Y144.946 E12.97631
G1 X57.225 Y144.463 E13.00963
G1 X56.943 Y144.154 E13.02911
G1 X56.052 Y143.114 E13.09288
G1 X54.438 Y141.28 E13.20664
G1 X54.282 Y141.108 E13.21745
G1 X53.832 Y140.552 E13.25076
G1 X53.447 Y139.949 E13.28407
G1 X53.131 Y139.307 E13.31739
G1 X52.889 Y138.634 E13.35069
G1 X52.724 Y137.938 E13.384
G1 X52.624 Y136.939 E13.43075
G1 X52.603 Y135.915 E13.47844
G1 X52.602 Y73.208 E16.39834
G1 X52.595 Y73.072 E16.40468
G1 X52.612 Y71.834 E16.46234
G1 X52.661 Y71.121 E16.49561
G1 X52.806 Y70.352 E16.53205
G1 X52.975 Y69.684 E16.56414
G1 X53.189 Y69.002 E16.59742
G1 X53.621 Y68.082 E16.64475
G1 X53.92 Y67.558 E16.67284
G1 X54.309 Y66.958 E16.70614
G1 X54.762 Y66.404 E16.73946
G1 X55.272 Y65.895 E16.77301
G1 X55.551 Y65.638 E16.79067
M204 S3000
M205 X10 Y10
G0 F3000 X55.927 Y66.053
M204 S1800
M205 X8 Y8
G1 F2400 X56.46 Y65.624 E16.82253
G1 X57.305 Y65.1 E16.86883
G1 X57.913 Y64.787 E16.90067
G1 X58.396 Y64.598 E16.92483
G1 X59.008 Y64.41 E16.95464
G1 X59.674 Y64.259 E16.98644
G1 X60.507 Y64.182 E17.02539
G1 X61.798 Y64.157 E17.08551
G1 X148.455 Y64.16 E21.12063
G1 X149.262 Y64.186 E21.15822
G1 X149.82 Y64.231 E21.18429
G1 X150.699 Y64.37 E21.22573
G1 X151.032 Y64.449 E21.24167
G1 X151.686 Y64.645 E21.27346
G1 X152.478 Y65.003 E21.31393
G1 X152.735 Y65.143 E21.32756
G1 X153.398 Y65.564 E21.36413
G1 X153.767 Y65.851 E21.38589
G1 X154.236 Y66.246 E21.41445
G1 X154.732 Y66.716 E21.44626
G1 X155.344 Y67.491 E21.49225
G1 X155.723 Y68.09 E21.52525
G1 X155.874 Y68.356 E21.5395
G1 X156.237 Y69.176 E21.58125
G1 X156.459 Y69.825 E21.61319
G1 X156.689 Y70.819 E21.6607
G1 X156.781 Y71.513 E21.6933
G1 X156.824 Y72.119 E21.72159
G1 X156.832 Y72.477 E21.73826
G1 X156.838 Y73.482 E21.78506
G1 X156.837 Y139.344 E24.85187
G1 X156.827 Y140.071 E24.88572
G1 X156.778 Y140.753 E24.91756
G1 X156.65 Y141.424 E24.94937
G1 X156.443 Y142.075 E24.98118
G1 X156.163 Y142.698 E25.01298
G1 X155.811 Y143.284 E25.04482
G1 X155.394 Y143.825 E25.07662
G1 X154.916 Y144.313 E25.10843
G1 X154.384 Y144.742 E25.14025
G1 X153.806 Y145.106 E25.17206
G1 X153.189 Y145.4 E25.20388
G1 X152.542 Y145.62 E25.2357
G1 X151.874 Y145.763 E25.26751
G1 X151.152 Y145.829 E25.30127
G1 X150.668 Y145.84 E25.32382
G1 X62.422 Y145.839 E29.43292
G1 X61.72 Y145.829 E29.46561
G1 X61.038 Y145.78 E29.49745
G1 X60.367 Y145.651 E29.52927
G1 X59.716 Y145.444 E29.56108
G1 X59.093 Y145.163 E29.5929
G1 X58.508 Y144.811 E29.62469
G1 X57.967 Y144.394 E29.6565
G1 X57.368 Y143.79 E29.69611
G1 X56.477 Y142.75 E29.75988
G1 X54.822 Y140.869 E29.87654
G1 X54.697 Y140.731 E29.88521
G1 X54.269 Y140.199 E29.917
G1 X53.905 Y139.621 E29.94881
G1 X53.612 Y139.004 E29.98061
G1 X53.392 Y138.357 E30.01244
G1 X53.25 Y137.689 E30.04424
G1 X53.184 Y136.928 E30.0798
G1 X53.162 Y135.784 E30.13308
G1 X53.161 Y73.446 E33.0358
G1 X53.155 Y73.08 E33.05285
G1 X53.172 Y71.842 E33.1105
G1 X53.221 Y71.16 E33.14234
G1 X53.349 Y70.49 E33.1741
G1 X53.518 Y69.822 E33.20618
G1 X53.724 Y69.17 E33.23802
G1 X54.108 Y68.36 E33.27976
G1 X54.407 Y67.836 E33.30786
G1 X54.779 Y67.263 E33.33967
G1 X55.419 Y66.532 E33.38491
G1 X55.799 Y66.169 E33.40938
G1 X55.927 Y66.053 E33.41742
M204 S3000
M205 X10 Y10
G0 F3000 X56.303 Y66.468
M204 S1800
M205 X8 Y8
G1 F2400 X56.811 Y66.062 E33.4477
G1 X57.59 Y65.582 E33.49031
G1 X58.169 Y65.286 E33.52059
G1 X58.673 Y65.095 E33.54569
G1 X59.163 Y64.948 E33.56951
G1 X59.797 Y64.807 E33.59975
G1 X60.519 Y64.742 E33.63351
G1 X61.798 Y64.717 E33.69307
G1 X148.445 Y64.72 E37.72772
G1 X149.217 Y64.744 E37.76368
G1 X149.775 Y64.789 E37.78975
G1 X150.57 Y64.915 E37.82723
G1 X150.903 Y64.994 E37.84317
G1 X151.524 Y65.182 E37.87338
G1 X152.21 Y65.494 E37.90847
G1 X152.467 Y65.634 E37.9221
G1 X153.066 Y66.015 E37.95516
G1 X153.406 Y66.279 E37.9752
G1 X153.875 Y66.674 E38.00375
G1 X154.345 Y67.123 E38.03402
G1 X154.877 Y67.8 E38.07411
G1 X155.243 Y68.379 E38.10601
G1 X155.381 Y68.622 E38.11902
G1 X155.709 Y69.363 E38.15675
G1 X155.926 Y69.999 E38.18804
G1 X156.134 Y70.897 E38.23097
G1 X156.224 Y71.568 E38.26249
G1 X156.265 Y72.132 E38.28882
G1 X156.272 Y72.48 E38.30503
G1 X156.278 Y73.485 E38.35183
G1 X156.278 Y139.337 E41.41817
G1 X156.268 Y140.064 E41.45203
G1 X156.219 Y140.711 E41.48224
G1 X156.091 Y141.348 E41.51249
G1 X155.885 Y141.965 E41.54278
G1 X155.606 Y142.551 E41.57301
G1 X155.257 Y143.099 E41.60326
G1 X154.843 Y143.599 E41.63349
G1 X154.37 Y144.045 E41.66376
G1 X153.847 Y144.43 E41.694
G1 X153.28 Y144.748 E41.72427
G1 X152.679 Y144.993 E41.75449
G1 X152.052 Y145.163 E41.78474
G1 X151.136 Y145.269 E41.82768
G1 X150.668 Y145.28 E41.84947
G1 X62.43 Y145.279 E45.95821
G1 X61.728 Y145.269 E45.9909
G1 X61.08 Y145.22 E46.02116
G1 X60.443 Y145.092 E46.05141
G1 X59.827 Y144.886 E46.08166
G1 X59.241 Y144.607 E46.11188
G1 X58.693 Y144.257 E46.14215
G1 X58.193 Y143.843 E46.17238
G1 X57.793 Y143.425 E46.19932
G1 X56.902 Y142.385 E46.26309
G1 X55.268 Y140.527 E46.3783
G1 X55.112 Y140.355 E46.38912
G1 X54.706 Y139.848 E46.41936
G1 X54.365 Y139.295 E46.44961
G1 X54.095 Y138.704 E46.47987
G1 X53.9 Y138.085 E46.51009
G1 X53.782 Y137.446 E46.54035
G1 X53.744 Y136.916 E46.56509
G1 X53.722 Y135.784 E46.61781
G1 X53.722 Y73.285 E49.52802
G1 X53.714 Y73.088 E49.5372
G1 X53.731 Y71.85 E49.59486
G1 X53.78 Y71.202 E49.62512
G1 X53.892 Y70.627 E49.65239
G1 X54.061 Y69.959 E49.68448
G1 X54.259 Y69.34 E49.71474
G1 X54.594 Y68.637 E49.751
G1 X54.893 Y68.113 E49.77909
G1 X55.249 Y67.57 E49.80933
G1 X55.809 Y66.934 E49.84879
G1 X56.175 Y66.584 E49.87237
G1 X56.303 Y66.468 E49.88041
M204 S3000
M205 X10 Y10
G1 F2400 E43.88041
;MESH:raspbase_v3.stl
G0 F3000 X59.347 Y69.925
G0 X60.39 Y71.037
G0 X70.585 Y79.189
G0 X72.104 Y81.114
M204 S1800
M205 X8 Y8
;TYPE:WALL-INNER
G1 F2400 E49.88041
G1 F1500 X71.938 Y80.163 E49.92536
G1 X71.51 Y79.367 E49.96745
G1 X70.893 Y78.761 E50.00772
G1 X70.087 Y78.35 E50.04985
G1 X69.184 Y78.206 E50.09242
G1 X68.28 Y78.35 E50.13505
G1 X67.467 Y78.766 E50.17757
G1 X66.823 Y79.41 E50.21998
G1 X66.407 Y80.225 E50.26259
G1 X66.267 Y81.125 E50.305
G1 X66.409 Y82.027 E50.34752
G1 X66.826 Y82.842 E50.39015
G1 X67.469 Y83.485 E50.43249
G1 X68.283 Y83.901 E50.47506
G1 X69.184 Y84.041 E50.51751
G1 X70.085 Y83.899 E50.55999
G1 X70.902 Y83.482 E50.6027
G1 X71.544 Y82.838 E50.64504
G1 X71.958 Y82.028 E50.6874
G1 X72.104 Y81.114 E50.7305
M204 S3000
M205 X10 Y10
G0 F3000 X72.104 Y130.042
M204 S1800
M205 X8 Y8
G1 F1500 X71.938 Y129.088 E50.77559
G1 X71.505 Y128.288 E50.81795
G1 X70.891 Y127.689 E50.85789
G1 X70.087 Y127.278 E50.89993
G1 X69.184 Y127.134 E50.94251
G1 X68.28 Y127.278 E50.98514
G1 X67.47 Y127.692 E51.0275
G1 X66.823 Y128.335 E51.06997
G1 X66.407 Y129.155 E51.11279
G1 X66.267 Y130.053 E51.1551
G1 X66.409 Y130.954 E51.19758
G1 X66.826 Y131.77 E51.24025
G1 X67.469 Y132.413 E51.28259
G1 X68.283 Y132.829 E51.32516
G1 X69.184 Y132.969 E51.36761
G1 X70.085 Y132.827 E51.41009
G1 X70.902 Y132.41 E51.4528
G1 X71.544 Y131.766 E51.49514
G1 X71.958 Y130.956 E51.5375
G1 X72.104 Y130.042 E51.5806
M204 S3000
M205 X10 Y10
G0 F3000 X125.504 Y127.882
M204 S1800
M205 X8 Y8
G1 F1500 X124.926 Y128.598 E51.62345
G1 X124.604 Y129.448 E51.66577
G1 X124.554 Y130.358 E51.70821
G1 X124.791 Y131.24 E51.75073
G1 X125.289 Y132.007 E51.79332
G1 X126.002 Y132.582 E51.83597
G1 X126.852 Y132.904 E51.87829
G1 X127.762 Y132.954 E51.92073
G1 X128.644 Y132.717 E51.96326
G1 X129.41 Y132.219 E52.0058
G1 X129.983 Y131.51 E52.04825
G1 X130.308 Y130.659 E52.09066
G1 X130.358 Y129.747 E52.13319
G1 X130.121 Y128.867 E52.17563
G1 X129.628 Y128.103 E52.21797
G1 X128.914 Y127.525 E52.26075
G1 X128.063 Y127.2 E52.30316
G1 X127.151 Y127.15 E52.34569
G1 X126.271 Y127.387 E52.38813
G1 X125.504 Y127.882 E52.43064
M204 S3000
M205 X10 Y10
G0 F3000 X124.926 Y79.667
M204 S1800
M205 X8 Y8
G1 F1500 X124.602 Y80.52 E52.47312
G1 X124.554 Y81.43 E52.51556
G1 X124.791 Y82.312 E52.55808
G1 X125.289 Y83.077 E52.60059
G1 X125.999 Y83.652 E52.64313
G1 X126.85 Y83.979 E52.68558
G1 X127.762 Y84.026 E52.7281
G1 X128.644 Y83.79 E52.77062
G1 X129.411 Y83.29 E52.81325
G1 X129.983 Y82.582 E52.85563
G1 X130.308 Y81.731 E52.89805
G1 X130.358 Y80.82 E52.94054
G1 X130.121 Y79.939 E52.98302
G1 X129.628 Y79.176 E53.02532
G1 X128.916 Y78.598 E53.06802
G1 X128.063 Y78.27 E53.11057
G1 X127.151 Y78.223 E53.1531
G1 X126.271 Y78.459 E53.19552
G1 X125.504 Y78.955 E53.23805
G1 X124.926 Y79.667 E53.28076
M204 S3000
M205 X10 Y10
G0 F3000 X126.188 Y79.08
G0 X147.926 Y71.818
M204 S1800
M205 X8 Y8
G1 F1500 X148.813 Y71.417 E53.32608
G1 X149.16 Y71.449 E53.34231
G1 X149.417 Y71.681 E53.35843
G1 X149.582 Y72.26 E53.38646
G1 X149.552 Y72.513 E53.39833
G1 X149.224 Y73.487 E53.44618
G1 X149.598 Y73.805 E53.46904
G1 X149.598 Y138.6 E56.48617
G1 X62.602 Y138.6 E60.53707
G1 X62.24 Y138.187 E60.56264
G1 X61.907 Y137.844 E60.5849
G1 X61.583 Y137.436 E60.60916
G1 X60.402 Y136.101 E60.69216
G1 X60.402 Y73.685 E63.59851
G1 X60.642 Y73.409 E63.61554
G1 X60.402 Y72.407 E63.66352
G1 X60.402 Y72.059 E63.67972
G1 X60.484 Y71.761 E63.69411
G1 X60.691 Y71.495 E63.70981
G1 X60.907 Y71.4 E63.72079
G1 X61.071 Y71.4 E63.72843
G1 X62.141 Y71.73 E63.78057
G1 X62.432 Y71.4 E63.80106
G1 X147.547 Y71.4 E67.76437
G1 X147.926 Y71.818 E67.79064
M204 S3000
M205 X10 Y10
G0 F3000 X148.067 Y71.14
M204 S1800
M205 X8 Y8
G1 F1500 X148.671 Y70.867 E67.82151
G1 X148.945 Y70.845 E67.83431
G1 X149.385 Y70.919 E67.85508
G1 X149.756 Y71.193 E67.87656
G1 X149.922 Y71.424 E67.8898
G1 X150.091 Y71.95 E67.91553
G1 X150.149 Y72.237 E67.92916
G1 X150.101 Y72.639 E67.94802
G1 X149.876 Y73.306 E67.98079
G1 X150.158 Y73.546 E67.99804
G1 X150.158 Y139.16 E71.0533
G1 X62.337 Y139.16 E75.14261
G1 X62.181 Y138.969 E75.1541
G1 X61.828 Y138.567 E75.17901
G1 X61.485 Y138.213 E75.20196
G1 X61.154 Y137.796 E75.22675
G1 X60.786 Y137.382 E75.25254
G1 X60.009 Y136.502 E75.30721
G1 X59.842 Y136.317 E75.31881
G1 X59.842 Y73.475 E78.245
G1 X60.03 Y73.259 E78.25833
G1 X59.842 Y72.474 E78.29592
G1 X59.842 Y71.984 E78.31873
G1 X59.963 Y71.543 E78.34003
G1 X60.138 Y71.246 E78.35608
G1 X60.379 Y71.021 E78.37143
G1 X60.788 Y70.84 E78.39226
G1 X61.155 Y70.84 E78.40935
G1 X61.96 Y71.088 E78.44857
G1 X62.179 Y70.84 E78.46398
G1 X147.795 Y70.84 E82.45062
G1 X148.067 Y71.14 E82.46947
M204 S3000
M205 X10 Y10
G0 F3000 X148.047 Y71.237
G0 X126.485 Y78.941
G0 X125.332 Y79.901
G0 X125.418 Y79.95
M204 S1800
M205 X8 Y8
G1 F1500 X125.157 Y80.637 E82.50369
G1 X125.118 Y81.371 E82.53792
G1 X125.309 Y82.081 E82.57216
G1 X125.71 Y82.698 E82.60642
G1 X126.282 Y83.161 E82.64069
G1 X126.968 Y83.424 E82.6749
G1 X127.703 Y83.462 E82.70917
G1 X128.413 Y83.272 E82.74339
G1 X129.031 Y82.869 E82.77775
G1 X129.492 Y82.299 E82.81188
G1 X129.754 Y81.613 E82.84607
G1 X129.794 Y80.879 E82.8803
G1 X129.603 Y80.169 E82.91454
G1 X129.206 Y79.555 E82.94859
G1 X128.632 Y79.089 E82.98301
G1 X127.945 Y78.825 E83.01728
G1 X127.21 Y78.787 E83.05155
G1 X126.501 Y78.977 E83.08573
G1 X125.883 Y79.377 E83.12001
G1 X125.418 Y79.95 E83.15437
M204 S3000
M205 X10 Y10
G0 F3000 X125.332 Y79.901
G0 X125.108 Y80.84
G0 X125.817 Y128.23
G0 X125.883 Y128.304
M204 S1800
M205 X8 Y8
G1 F1500 X125.418 Y128.88 E83.18884
G1 X125.158 Y129.565 E83.22296
G1 X125.118 Y130.299 E83.25719
G1 X125.309 Y131.009 E83.29142
G1 X125.71 Y131.627 E83.32573
G1 X126.284 Y132.09 E83.36007
G1 X126.969 Y132.35 E83.39418
G1 X127.703 Y132.39 E83.42841
G1 X128.413 Y132.199 E83.46265
G1 X129.03 Y131.798 E83.49691
G1 X129.492 Y131.227 E83.53111
G1 X129.754 Y130.541 E83.56531
G1 X129.794 Y129.806 E83.59958
G1 X129.603 Y129.097 E83.63377
G1 X129.206 Y128.482 E83.66786
G1 X128.631 Y128.016 E83.70232
G1 X127.945 Y127.754 E83.73652
G1 X127.21 Y127.714 E83.77079
G1 X126.501 Y127.905 E83.80498
G1 X125.883 Y128.304 E83.83924
M204 S3000
M205 X10 Y10
G0 F3000 X125.817 Y128.23
G0 X71.636 Y130.046
G0 X71.536 Y130.046
M204 S1800
M205 X8 Y8
G1 F1500 X71.402 Y129.274 E83.87572
G1 X71.053 Y128.629 E83.90987
G1 X70.561 Y128.149 E83.94188
G1 X69.911 Y127.817 E83.97586
G1 X69.184 Y127.701 E84.01014
G1 X68.456 Y127.817 E84.04447
G1 X67.803 Y128.151 E84.07862
G1 X67.282 Y128.669 E84.11283
G1 X66.947 Y129.329 E84.1473
G1 X66.834 Y130.053 E84.18142
G1 X66.948 Y130.779 E84.21564
G1 X67.284 Y131.436 E84.25
G1 X67.802 Y131.954 E84.28411
G1 X68.458 Y132.289 E84.31841
G1 X69.184 Y132.402 E84.35262
G1 X69.91 Y132.288 E84.38684
G1 X70.568 Y131.952 E84.42124
G1 X71.085 Y131.433 E84.45535
G1 X71.419 Y130.78 E84.48951
G1 X71.536 Y130.046 E84.52412
M204 S3000
M205 X10 Y10
G0 F3000 X71.636 Y130.046
G0 X71.636 Y81.118
G0 X71.536 Y81.118
M204 S1800
M205 X8 Y8
G1 F1500 X71.402 Y80.348 E84.56051
G1 X71.057 Y79.707 E84.59441
G1 X70.562 Y79.221 E84.62671
G1 X69.911 Y78.889 E84.66074
G1 X69.184 Y78.773 E84.69502
G1 X68.456 Y78.889 E84.72934
G1 X67.801 Y79.224 E84.7636
G1 X67.282 Y79.743 E84.79778
G1 X66.947 Y80.4 E84.83212
G1 X66.834 Y81.125 E84.86628
G1 X66.948 Y81.852 E84.90055
G1 X67.284 Y82.508 E84.93487
G1 X67.802 Y83.026 E84.96898
G1 X68.458 Y83.361 E85.00328
G1 X69.184 Y83.474 E85.03749
G1 X69.91 Y83.36 E85.07171
