;FLAVOR:Marlin
;TIME:3572
;Filament used: 2.729m
;Layer height: 0.2
;MINX:52.595
;MINY:63.596
;MINZ:0.2
;MAXX:157.398
;MAXY:146.405
;MAXZ:1
;Generated with Cura_SteamEngine 4.8.0
M140 S60
M105
M190 S60
M104 S200
M105
M109 S200
M82 ;absolute extrusion mode
G21 ;metric values
G90 ;absolute positioning
M82 ;set extruder to absolute mode
M107 ;start with the fan off
G28 X0 Y0 ;move X/Y to min endstops
G28 Z0 ;move Z to min endstops
G1 Z15.0 F100 ;move the platform down 15mm
G92 E0 ;zero the extruded length
G1 F200 E3 ;extrude 3mm of feed stock
G92 E0 ;zero the extruded length again
G1 F100
G0 Y20 F100
M117 Printing...
G5
G92 E0
G92 E0
G1 F2400 E-6
;LAYER_COUNT:5
;LAYER:0
M106 S255
M204 S3000
M205 X10 Y10
G1 F600 Z0.275
G0 F3000 X55.585 Y65.608 Z0.275
M204 S1800
M205 X8 Y8
;TYPE:SKIRT
G1 F600 Z0.2
G1 F2400 E0
G1 X56.141 Y65.158 E0.03331
G1 X56.607 Y64.852 E0.05927
G1 X57.215 Y64.507 E0.09182
G1 X57.861 Y64.201 E0.1251
G1 X58.454 Y63.99 E0.15441
G1 X58.895 Y63.86 E0.17582
G1 X59.593 Y63.703 E0.20913
G1 X60.535 Y63.617 E0.25318
G1 X61.798 Y63.596 E0.312
G1 X148.461 Y63.6 E4.34739
G1 X149.036 Y63.61 E4.37417
G1 X149.751 Y63.653 E4.40752
G1 X150.45 Y63.745 E4.44035
G1 X150.679 Y63.788 E4.4512
G1 X151.218 Y63.913 E4.47696
G1 X151.408 Y63.966 E4.48615
G1 X152.085 Y64.197 E4.51946
G1 X152.778 Y64.527 E4.5552
G1 X153.021 Y64.661 E4.56812
G1 X153.771 Y65.145 E4.60968
G1 X154.168 Y65.452 E4.63305
G1 X154.457 Y65.692 E4.65054
G1 X155.174 Y66.389 E4.69711
G1 X155.342 Y66.58 E4.70895
G1 X155.783 Y67.143 E4.74225
G1 X156.146 Y67.718 E4.77391
G1 X156.578 Y68.575 E4.8186
G1 X156.775 Y69.065 E4.8432
G1 X156.924 Y69.472 E4.86338
G1 X157.132 Y70.156 E4.89667
G1 X157.235 Y70.67 E4.92108
G1 X157.345 Y71.526 E4.96126
G1 X157.383 Y72.093 E4.98772
G1 X157.39 Y72.741 E5.0179
G1 X157.398 Y73.572 E5.0566
G1 X157.398 Y136.178 E7.97179
G1 X157.388 Y137.24 E8.02125
G1 X157.386 Y137.776 E8.04621
G1 X157.363 Y138.297 E8.07049
G1 X157.261 Y139.176 E8.11169
G1 X157.065 Y140.108 E8.15604
G1 X156.846 Y140.803 E8.18997
G1 X156.583 Y141.468 E8.22327
G1 X156.181 Y142.207 E8.26244
G1 X155.835 Y142.719 E8.29122
G1 X155.491 Y143.192 E8.31845
G1 X155.037 Y143.745 E8.35177
G1 X154.502 Y144.276 E8.38687
G1 X153.96 Y144.742 E8.42015
G1 X153.172 Y145.258 E8.46401
G1 X152.471 Y145.625 E8.50085
G1 X151.815 Y145.91 E8.53416
G1 X151.076 Y146.134 E8.57012
G1 X150.406 Y146.274 E8.60199
G1 X149.697 Y146.367 E8.63528
G1 X149.31 Y146.384 E8.65332
G1 X148.165 Y146.4 E8.70664
G1 X61.798 Y146.4 E12.72825
G1 X61.619 Y146.405 E12.73659
G1 X60.604 Y146.389 E12.78386
G1 X59.891 Y146.338 E12.81714
G1 X58.947 Y146.144 E12.86202
G1 X58.492 Y146.014 E12.88405
G1 X57.816 Y145.779 E12.91738
G1 X57.171 Y145.471 E12.95066
G1 X56.583 Y145.114 E12.98269
G1 X56.258 Y144.897 E13.00089
G1 X55.69 Y144.462 E13.0342
G1 X55.078 Y143.884 E13.0734
G1 X54.593 Y143.359 E13.10668
G1 X54.224 Y142.864 E13.13543
G1 X53.892 Y142.371 E13.16311
G1 X53.526 Y141.756 E13.19643
G1 X53.139 Y140.85 E13.24231
G1 X53.037 Y140.549 E13.2571
G1 X52.863 Y139.939 E13.28664
G1 X52.803 Y139.68 E13.29902
G1 X52.654 Y138.692 E13.34555
G1 X52.62 Y138.002 E13.37772
G1 X52.602 Y136.799 E13.43374
G1 X52.602 Y73.207 E16.39485
G1 X52.595 Y73.071 E16.40119
G1 X52.612 Y71.834 E16.45879
G1 X52.661 Y71.121 E16.49207
G1 X52.811 Y70.333 E16.52942
G1 X52.982 Y69.666 E16.56149
G1 X53.199 Y68.984 E16.59481
G1 X53.609 Y68.108 E16.63985
G1 X53.875 Y67.637 E16.66504
G1 X54.129 Y67.224 E16.68761
G1 X54.552 Y66.648 E16.72089
G1 X55.039 Y66.121 E16.7543
G1 X55.585 Y65.608 E16.78919
M204 S3000
M205 X10 Y10
G0 F3000 X55.962 Y66.023
M204 S1800
M205 X8 Y8
G1 F2400 X56.494 Y65.594 E16.82101
G1 X57.023 Y65.255 E16.85027
G1 X57.484 Y64.999 E16.87482
G1 X58.101 Y64.708 E16.90659
G1 X58.626 Y64.523 E16.93251
G1 X59.048 Y64.399 E16.95299
G1 X59.715 Y64.251 E16.9848
G1 X60.545 Y64.177 E17.0236
G1 X61.798 Y64.156 E17.08196
G1 X148.452 Y64.16 E21.11693
G1 X149.027 Y64.17 E21.14371
G1 X149.709 Y64.212 E21.17552
G1 X150.347 Y64.295 E21.20548
G1 X150.576 Y64.338 E21.21633
G1 X151.067 Y64.453 E21.23981
G1 X151.257 Y64.506 E21.249
G1 X151.903 Y64.728 E21.28081
G1 X152.508 Y65.017 E21.31203
G1 X152.751 Y65.151 E21.32495
G1 X153.435 Y65.593 E21.36287
G1 X154.099 Y66.123 E21.40243
G1 X154.753 Y66.759 E21.44491
G1 X154.921 Y66.95 E21.45675
G1 X155.342 Y67.489 E21.4886
G1 X155.667 Y68.006 E21.51703
G1 X156.061 Y68.789 E21.55785
G1 X156.249 Y69.257 E21.58133
G1 X156.398 Y69.664 E21.60152
G1 X156.595 Y70.319 E21.63337
G1 X156.711 Y70.941 E21.66283
G1 X156.789 Y71.587 E21.69313
G1 X156.823 Y72.104 E21.71725
G1 X156.83 Y72.747 E21.7472
G1 X156.838 Y73.578 E21.78589
G1 X156.838 Y136.173 E24.70058
G1 X156.828 Y137.235 E24.75003
G1 X156.826 Y137.774 E24.77513
G1 X156.79 Y138.426 E24.80554
G1 X156.706 Y139.102 E24.83725
G1 X156.527 Y139.952 E24.8777
G1 X156.314 Y140.626 E24.91062
G1 X156.061 Y141.261 E24.94245
G1 X155.707 Y141.907 E24.97675
G1 X155.375 Y142.399 E25.00438
G1 X155.039 Y142.862 E25.03102
G1 X154.372 Y143.624 E25.07818
G1 X154.114 Y143.872 E25.09484
G1 X153.595 Y144.316 E25.12664
G1 X152.9 Y144.769 E25.16527
G1 X152.219 Y145.125 E25.20106
G1 X151.592 Y145.396 E25.23286
G1 X150.947 Y145.589 E25.26421
G1 X150.302 Y145.724 E25.2949
G1 X149.302 Y145.824 E25.34169
G1 X148.165 Y145.84 E25.39464
G1 X61.798 Y145.84 E29.41625
G1 X61.628 Y145.845 E29.42417
G1 X60.613 Y145.829 E29.47144
G1 X59.932 Y145.779 E29.50323
G1 X59.101 Y145.605 E29.54277
G1 X58.646 Y145.475 E29.5648
G1 X58.001 Y145.249 E29.59663
G1 X57.128 Y144.795 E29.64245
G1 X56.573 Y144.434 E29.67327
G1 X55.793 Y143.798 E29.72014
G1 X55.467 Y143.482 E29.74128
G1 X55.005 Y142.979 E29.77308
G1 X54.688 Y142.551 E29.79788
G1 X54.356 Y142.058 E29.82556
G1 X54.008 Y141.47 E29.85737
G1 X53.669 Y140.67 E29.89783
G1 X53.567 Y140.369 E29.91263
G1 X53.409 Y139.813 E29.93954
G1 X53.349 Y139.554 E29.95192
G1 X53.213 Y138.652 E29.9944
G1 X53.18 Y137.994 E30.02508
G1 X53.162 Y136.799 E30.08073
G1 X53.161 Y73.445 E33.03076
G1 X53.155 Y73.079 E33.0478
G1 X53.172 Y71.842 E33.10541
G1 X53.221 Y71.16 E33.13724
G1 X53.354 Y70.472 E33.16987
G1 X53.525 Y69.805 E33.20194
G1 X53.733 Y69.154 E33.23376
G1 X54.097 Y68.383 E33.27346
G1 X54.363 Y67.912 E33.29865
G1 X54.598 Y67.53 E33.31953
G1 X55.004 Y66.98 E33.35136
G1 X55.428 Y66.523 E33.38039
G1 X55.962 Y66.023 E33.41446
M204 S3000
M205 X10 Y10
G0 F3000 X56.338 Y66.438
M204 S1800
M205 X8 Y8
G1 F2400 X56.845 Y66.031 E33.44473
G1 X57.31 Y65.736 E33.47037
G1 X57.752 Y65.491 E33.4939
G1 X58.34 Y65.215 E33.52415
G1 X58.984 Y64.999 E33.55578
G1 X59.202 Y64.937 E33.56633
G1 X59.836 Y64.798 E33.59655
G1 X60.554 Y64.737 E33.63011
G1 X61.798 Y64.716 E33.68804
G1 X148.442 Y64.72 E37.72255
G1 X149.017 Y64.73 E37.74933
G1 X149.667 Y64.77 E37.77965
G1 X150.243 Y64.846 E37.80671
G1 X150.917 Y64.992 E37.83882
G1 X151.107 Y65.045 E37.848
G1 X151.72 Y65.258 E37.87822
G1 X152.238 Y65.507 E37.90498
G1 X152.481 Y65.641 E37.9179
G1 X153.099 Y66.041 E37.95218
G1 X153.741 Y66.554 E37.99045
G1 X154.333 Y67.129 E38.02888
G1 X154.501 Y67.32 E38.04072
G1 X155.06 Y68.084 E38.0848
G1 X155.187 Y68.295 E38.09627
G1 X155.543 Y69.003 E38.13317
G1 X155.872 Y69.857 E38.17579
G1 X156.058 Y70.479 E38.20602
G1 X156.158 Y71.029 E38.23205
G1 X156.232 Y71.649 E38.26112
G1 X156.268 Y72.354 E38.29399
G1 X156.278 Y73.583 E38.35122
G1 X156.278 Y136.168 E41.26544
G1 X156.268 Y137.23 E41.31489
G1 X156.266 Y137.772 E41.34013
G1 X156.232 Y138.378 E41.36839
G1 X156.151 Y139.027 E41.39885
G1 X155.989 Y139.796 E41.43544
G1 X155.783 Y140.45 E41.46737
G1 X155.54 Y141.052 E41.4976
G1 X155.234 Y141.608 E41.52715
G1 X154.915 Y142.079 E41.55364
G1 X154.587 Y142.531 E41.57964
G1 X153.984 Y143.221 E41.62231
G1 X153.726 Y143.469 E41.63898
G1 X153.231 Y143.889 E41.66921
G1 X152.629 Y144.279 E41.70261
G1 X151.967 Y144.625 E41.73739
G1 X151.37 Y144.88 E41.76762
G1 X150.817 Y145.044 E41.79447
G1 X150.198 Y145.173 E41.82392
G1 X149.294 Y145.264 E41.86622
G1 X148.165 Y145.28 E41.9188
G1 X61.8 Y145.28 E45.94032
G1 X61.637 Y145.285 E45.94791
G1 X60.622 Y145.269 E45.99518
G1 X59.974 Y145.219 E46.02544
G1 X59.254 Y145.067 E46.05971
G1 X58.799 Y144.937 E46.08174
G1 X58.187 Y144.72 E46.11198
G1 X57.427 Y144.322 E46.15192
G1 X56.888 Y143.971 E46.18187
G1 X56.183 Y143.396 E46.22424
G1 X55.857 Y143.08 E46.24538
G1 X55.419 Y142.6 E46.27564
G1 X55.152 Y142.238 E46.29658
G1 X54.82 Y141.745 E46.32426
G1 X54.491 Y141.185 E46.3545
G1 X54.199 Y140.491 E46.38956
G1 X54.097 Y140.19 E46.40436
G1 X53.954 Y139.687 E46.42871
G1 X53.894 Y139.428 E46.44109
G1 X53.771 Y138.612 E46.47951
G1 X53.74 Y137.985 E46.50874
G1 X53.722 Y136.799 E46.56398
G1 X53.722 Y73.283 E49.52155
G1 X53.714 Y73.086 E49.53073
G1 X53.731 Y71.849 E49.58833
G1 X53.78 Y71.202 E49.61855
G1 X53.896 Y70.611 E49.64659
G1 X54.067 Y69.944 E49.67865
G1 X54.267 Y69.326 E49.7089
G1 X54.585 Y68.659 E49.74331
G1 X54.851 Y68.188 E49.76849
G1 X55.067 Y67.836 E49.78773
G1 X55.455 Y67.314 E49.81801
G1 X55.818 Y66.925 E49.84279
G1 X56.338 Y66.438 E49.87596
M204 S3000
M205 X10 Y10
G1 F2400 E43.87596
;MESH:raspbase_v1.stl
G0 F3000 X58.407 Y72.919
G0 X59.86 Y73.483
G0 X62.471 Y138.182
M204 S1800
M205 X8 Y8
;TYPE:WALL-INNER
G1 F2400 E49.87596
G1 F1500 X60.846 Y138.587 E49.95394
G1 X60.579 Y138.372 E49.9699
G1 X60.427 Y138.081 E49.98519
G1 X60.405 Y137.552 E50.00984
G1 X60.671 Y136.581 E50.05672
G1 X60.402 Y136.191 E50.07879
G1 X60.402 Y73.688 E52.98919
G1 X60.642 Y73.416 E53.00608
G1 X60.402 Y72.406 E53.05442
G1 X60.402 Y72.059 E53.07057
G1 X60.481 Y71.77 E53.08453
G1 X60.694 Y71.496 E53.10069
G1 X60.91 Y71.4 E53.11169
G1 X61.071 Y71.4 E53.11919
G1 X62.141 Y71.73 E53.17133
G1 X62.432 Y71.4 E53.19182
G1 X147.562 Y71.4 E57.15583
G1 X147.942 Y71.806 E57.18172
G1 X148.789 Y71.427 E57.22493
G1 X149.131 Y71.428 E57.24085
G1 X149.356 Y71.594 E57.25387
G1 X149.556 Y72.01 E57.27537
G1 X149.584 Y72.237 E57.28602
G1 X149.55 Y72.529 E57.2997
G1 X149.251 Y73.513 E57.34759
G1 X149.598 Y73.807 E57.36877
G1 X149.598 Y136.272 E60.2774
G1 X149.256 Y136.662 E60.30155
G1 X149.555 Y137.502 E60.34307
G1 X149.586 Y137.753 E60.35485
G1 X149.513 Y138.154 E60.37383
G1 X149.317 Y138.434 E60.38974
G1 X149.055 Y138.6 E60.40419
G1 X148.887 Y138.599 E60.41201
G1 X147.797 Y138.297 E60.46468
G1 X147.531 Y138.6 E60.48345
G1 X62.719 Y138.6 E64.43265
G1 X62.471 Y138.182 E64.45528
M204 S3000
M205 X10 Y10
G0 F3000 X62.202 Y138.826
M204 S1800
M205 X8 Y8
G1 F1500 X60.991 Y139.128 E64.5134
G1 X60.989 Y139.16 E64.51489
G1 X60.801 Y139.159 E64.52365
G1 X60.6 Y139.098 E64.53097
G1 X60.348 Y138.933 E64.54499
G1 X60.139 Y138.723 E64.55879
G1 X59.951 Y138.429 E64.57504
G1 X59.87 Y138.177 E64.58737
G1 X59.842 Y137.491 E64.61934
G1 X60.062 Y136.685 E64.65824
G1 X59.842 Y136.367 E64.67624
G1 X59.842 Y73.476 E67.60471
G1 X60.03 Y73.263 E67.61794
G1 X59.842 Y72.472 E67.6558
G1 X59.842 Y71.984 E67.67852
G1 X59.962 Y71.547 E67.69963
G1 X60.137 Y71.252 E67.7156
G1 X60.381 Y71.022 E67.73121
G1 X60.791 Y70.84 E67.7521
G1 X61.155 Y70.84 E67.76905
G1 X61.96 Y71.088 E67.80827
G1 X62.179 Y70.84 E67.82368
G1 X147.805 Y70.84 E71.81078
G1 X148.078 Y71.132 E71.8294
G1 X148.67 Y70.867 E71.8596
G1 X149.227 Y70.868 E71.88553
G1 X149.364 Y70.904 E71.89213
G1 X149.76 Y71.196 E71.91504
G1 X149.934 Y71.438 E71.92892
G1 X150.103 Y71.871 E71.95056
G1 X150.148 Y72.237 E71.96773
G1 X150.1 Y72.646 E71.98691
G1 X149.894 Y73.324 E72.0199
G1 X150.158 Y73.548 E72.03603
G1 X150.158 Y136.483 E74.96654
G1 X149.894 Y136.784 E74.98519
G1 X150.103 Y137.371 E75.0142
G1 X150.151 Y137.753 E75.03213
G1 X150.101 Y138.153 E75.0509
G1 X150.02 Y138.406 E75.06327
G1 X149.719 Y138.837 E75.08775
G1 X149.317 Y139.117 E75.11056
G1 X149.109 Y139.16 E75.12045
G1 X148.808 Y139.159 E75.13446
G1 X147.986 Y138.931 E75.17419
G1 X147.785 Y139.16 E75.18837
G1 X62.4 Y139.16 E79.16426
G1 X62.202 Y138.826 E79.18234
M204 S3000
M205 X10 Y10
G0 F3000 X61.933 Y139.47
M204 S1800
M205 X8 Y8
;TYPE:WALL-OUTER
G1 F1500 X61.528 Y139.571 E79.20177
G1 X61.525 Y139.627 E79.20438
G1 X61.238 Y139.72 E79.21843
G1 X60.718 Y139.719 E79.24265
G1 X60.361 Y139.611 E79.26001
G1 X59.991 Y139.368 E79.28063
G1 X59.7 Y139.075 E79.29985
G1 X59.44 Y138.67 E79.32226
G1 X59.315 Y138.282 E79.34125
G1 X59.282 Y137.755 E79.36583
G1 X59.282 Y137.417 E79.38157
G1 X59.453 Y136.789 E79.41188
G1 X59.282 Y136.542 E79.42587
G1 X59.282 Y73.264 E82.37236
G1 X59.418 Y73.11 E82.38192
G1 X59.282 Y72.539 E82.40925
G1 X59.282 Y71.909 E82.43859
G1 X59.442 Y71.326 E82.46674
G1 X59.696 Y70.897 E82.48996
G1 X60.045 Y70.569 E82.51226
G1 X60.386 Y70.376 E82.5305
G1 X60.708 Y70.28 E82.54615
G1 X61.239 Y70.28 E82.57087
G1 X61.779 Y70.446 E82.59718
G1 X61.925 Y70.28 E82.60747
G1 X148.047 Y70.28 E86.61767
G1 X148.214 Y70.458 E86.62904
G1 X148.53 Y70.317 E86.64515
G1 X148.971 Y70.281 E86.66576
G1 X149.32 Y70.314 E86.68208
G1 X149.611 Y70.391 E86.6961
G1 X150.16 Y70.795 E86.72783
G1 X150.241 Y70.866 E86.73285
G1 X150.278 Y70.978 E86.73834
G1 X150.422 Y71.148 E86.74872
G1 X150.65 Y71.733 E86.77795
G1 X150.712 Y72.233 E86.80141
G1 X150.65 Y72.765 E86.82635
G1 X150.537 Y73.135 E86.84437
G1 X150.718 Y73.288 E86.8554
G1 X150.718 Y136.694 E89.80785
G1 X150.532 Y136.906 E89.82098
G1 X150.651 Y137.24 E89.83749
G1 X150.715 Y137.752 E89.86152
G1 X150.651 Y138.274 E89.88601
G1 X150.528 Y138.656 E89.9047
G1 X150.133 Y139.222 E89.93684
G1 X149.804 Y139.495 E89.95674
G1 X149.507 Y139.649 E89.97232
G1 X149.164 Y139.72 E89.98863
G1 X148.729 Y139.719 E90.00889
G1 X148.175 Y139.565 E90.03566
G1 X148.039 Y139.72 E90.04526
G1 X62.081 Y139.72 E94.04783
G1 X61.933 Y139.47 E94.06135
M204 S3000
M205 X10 Y10
G0 F3000 X61.739 Y139.518
G0 X61.58 Y138.878
G0 X60.996 Y137.982
M204 S1800
M205 X8 Y8
;TYPE:SKIN
G1 F1500 X60.959 Y137.612 E94.07867
G1 X61.269 Y136.479 E94.13337
G1 X60.952 Y136.02 E94.15934
G1 X60.952 Y73.896 E97.05209
G1 X61.243 Y73.566 E97.07258
G1 X60.952 Y72.341 E97.13121
G1 X60.981 Y72.023 E97.14608
G1 X61.028 Y71.963 E97.14963
G1 X62.318 Y72.36 E97.21248
G1 X62.681 Y71.95 E97.23797
G1 X147.324 Y71.95 E101.17931
G1 X147.808 Y72.468 E101.21232
G1 X148.905 Y71.977 E101.26828
G1 X149.02 Y72.164 E101.2785
G1 X149.01 Y72.417 E101.29029
G1 X148.62 Y73.699 E101.35269
G1 X149.048 Y74.062 E101.37882
G1 X149.048 Y136.065 E104.26594
G1 X148.63 Y136.542 E104.29547
G1 X149.016 Y137.628 E104.34914
G1 X148.994 Y137.937 E104.36357
G1 X148.917 Y138.036 E104.36941
G1 X147.611 Y137.675 E104.4325
G1 X147.282 Y138.05 E104.45573
G1 X63.032 Y138.05 E108.37876
G1 X62.734 Y137.55 E108.40587
G1 X60.996 Y137.982 E108.48926
M204 S3000
M205 X10 Y10
G0 F3000 X61.304 Y137.332
M204 S1800
M205 X8 Y8
G1 F1500 X61.547 Y137.576 E108.50529
M204 S3000
M205 X10 Y10
G0 F3000 X62.182 Y137.418
M204 S1800
M205 X8 Y8
G1 F1500 X61.474 Y136.71 E108.55192
M204 S3000
M205 X10 Y10
G0 F3000 X61.212 Y135.656
M204 S1800
M205 X8 Y8
G1 F1500 X62.816 Y137.26 E108.65754
M204 S3000
M205 X10 Y10
G0 F3000 X62.936 Y137.38
M204 S1800
M205 X8 Y8
G1 F1500 X63.345 Y137.789 E108.68448
M204 S3000
M205 X10 Y10
G0 F3000 X64.137 Y137.789
M204 S1800
M205 X8 Y8
G1 F1500 X61.212 Y134.864 E108.87709
M204 S3000
M205 X10 Y10
G0 F3000 X61.212 Y134.072
M204 S1800
M205 X8 Y8
G1 F1500 X64.929 Y137.789 E109.12186
M204 S3000
M205 X10 Y10
G0 F3000 X65.721 Y137.789
M204 S1800
M205 X8 Y8
G1 F1500 X61.212 Y133.28 E109.41879
M204 S3000
M205 X10 Y10
G0 F3000 X61.212 Y132.488
M204 S1800
M205 X8 Y8
G1 F1500 X66.513 Y137.789 E109.76787
M204 S3000
M205 X10 Y10
G0 F3000 X67.305 Y137.789
M204 S1800
M205 X8 Y8
G1 F1500 X61.212 Y131.696 E110.1691
M204 S3000
M205 X10 Y10
G0 F3000 X61.212 Y130.904
M204 S1800
M205 X8 Y8
G1 F1500 X68.097 Y137.789 E110.62249
M204 S3000
M205 X10 Y10
G0 F3000 X68.889 Y137.789
M204 S1800
M205 X8 Y8
G1 F1500 X61.212 Y130.112 E111.12803
M204 S3000
M205 X10 Y10
G0 F3000 X61.212 Y129.32
M204 S1800
M205 X8 Y8
G1 F1500 X69.681 Y137.789 E111.68573
M204 S3000
M205 X10 Y10
G0 F3000 X70.473 Y137.789
M204 S1800
M205 X8 Y8
G1 F1500 X61.212 Y128.528 E112.29559
M204 S3000
M205 X10 Y10
G0 F3000 X61.212 Y127.736
M204 S1800
M205 X8 Y8
G1 F1500 X71.265 Y137.789 E112.95759
M204 S3000
M205 X10 Y10
G0 F3000 X72.057 Y137.789
M204 S1800
M205 X8 Y8
