;FLAVOR:Marlin
;TIME:5150
;Filament used: 3.80081m
;Layer height: 0.2
;MINX:52.595
;MINY:63.598
;MINZ:0.2
;MAXX:157.398
;MAXY:146.4
;MAXZ:1.4
;Generated with Cura_SteamEngine 4.8.0
M140 S60
M105
M190 S60
M104 S200
M105
M109 S200
M82 ;absolute extrusion mode
G21 ;metric values
G90 ;absolute positioning
M82 ;set extruder to absolute mode
M107 ;start with the fan off
G28 X0 Y0 ;move X/Y to min endstops
G28 Z0 ;move Z to min endstops
G1 Z15.0 F100 ;move the platform down 15mm
G92 E0 ;zero the extruded length
G1 F200 E3 ;extrude 3mm of feed stock
G92 E0 ;zero the extruded length again
G1 F100
G0 Y20 F100
M117 Printing...
G5
G92 E0
G92 E0
G1 F2400 E-6
;LAYER_COUNT:7
;LAYER:0
M106 S255
M204 S3000
M205 X10 Y10
G1 F600 Z0.275
G0 F3000 X55.551 Y65.638 Z0.275
M204 S1800
M205 X8 Y8
;TYPE:SKIRT
G1 F600 Z0.2
G1 F2400 E0
G1 X56.107 Y65.188 E0.03331
G1 X56.592 Y64.871 E0.06029
G1 X57.02 Y64.618 E0.08344
G1 X57.655 Y64.289 E0.11674
G1 X58.216 Y64.068 E0.14482
G1 X58.853 Y63.872 E0.17585
G1 X59.55 Y63.712 E0.20915
G1 X60.496 Y63.622 E0.2534
G1 X61.667 Y63.598 E0.30793
G1 X148.466 Y63.6 E4.34966
G1 X149.307 Y63.628 E4.38884
G1 X149.865 Y63.673 E4.41491
G1 X150.828 Y63.825 E4.46031
G1 X151.161 Y63.904 E4.47624
G1 X151.847 Y64.108 E4.50957
G1 X152.746 Y64.511 E4.55544
G1 X153.003 Y64.651 E4.56907
G1 X153.729 Y65.113 E4.60914
G1 X154.128 Y65.423 E4.63267
G1 X154.597 Y65.818 E4.66122
G1 X155.117 Y66.308 E4.69449
G1 X155.58 Y66.854 E4.72782
G1 X155.943 Y67.38 E4.75758
G1 X156.353 Y68.065 E4.79476
G1 X156.367 Y68.091 E4.79613
G1 X156.765 Y68.99 E4.84191
G1 X156.991 Y69.652 E4.87448
G1 X157.175 Y70.343 E4.90778
G1 X157.306 Y71.188 E4.9476
G1 X157.384 Y72.106 E4.9905
G1 X157.392 Y72.474 E5.00764
G1 X157.398 Y73.479 E5.05443
G1 X157.397 Y139.352 E8.12176
G1 X157.387 Y140.079 E8.15561
G1 X157.338 Y140.793 E8.18894
G1 X157.209 Y141.496 E8.22222
G1 X157.002 Y142.181 E8.25554
G1 X156.72 Y142.838 E8.28883
G1 X156.366 Y143.46 E8.32216
G1 X155.946 Y144.038 E8.35543
G1 X155.463 Y144.566 E8.38875
G1 X154.925 Y145.037 E8.42204
G1 X154.337 Y145.445 E8.45537
G1 X153.707 Y145.785 E8.4887
G1 X153.044 Y146.052 E8.52198
G1 X152.355 Y146.243 E8.55528
G1 X151.649 Y146.357 E8.58858
G1 X150.848 Y146.397 E8.62592
G1 X150.668 Y146.4 E8.6343
G1 X62.414 Y146.399 E12.74378
G1 X61.712 Y146.389 E12.77647
G1 X60.998 Y146.339 E12.8098
G1 X60.295 Y146.21 E12.84308
G1 X59.61 Y146.003 E12.8764
G1 X58.953 Y145.72 E12.90971
G1 X58.331 Y145.367 E12.94301
G1 X57.753 Y144.946 E12.97631
G1 X57.225 Y144.463 E13.00963
G1 X56.943 Y144.154 E13.02911
G1 X56.052 Y143.114 E13.09288
G1 X54.438 Y141.28 E13.20664
G1 X54.282 Y141.108 E13.21745
G1 X53.832 Y140.552 E13.25076
G1 X53.447 Y139.949 E13.28407
G1 X53.131 Y139.307 E13.31739
G1 X52.889 Y138.634 E13.35069
G1 X52.724 Y137.938 E13.384
G1 X52.624 Y136.939 E13.43075
G1 X52.603 Y135.915 E13.47844
G1 X52.602 Y73.208 E16.39834
G1 X52.595 Y73.072 E16.40468
G1 X52.612 Y71.834 E16.46234
G1 X52.661 Y71.121 E16.49561
G1 X52.806 Y70.352 E16.53205
G1 X52.975 Y69.684 E16.56414
G1 X53.189 Y69.002 E16.59742
G1 X53.621 Y68.082 E16.64475
G1 X53.92 Y67.558 E16.67284
G1 X54.309 Y66.958 E16.70614
G1 X54.762 Y66.404 E16.73946
G1 X55.272 Y65.895 E16.77301
G1 X55.551 Y65.638 E16.79067
M204 S3000
M205 X10 Y10
G0 F3000 X55.927 Y66.053
M204 S1800
M205 X8 Y8
G1 F2400 X56.46 Y65.624 E16.82253
G1 X57.305 Y65.1 E16.86883
G1 X57.913 Y64.787 E16.90067
G1 X58.396 Y64.598 E16.92483
G1 X59.008 Y64.41 E16.95464
G1 X59.674 Y64.259 E16.98644
G1 X60.507 Y64.182 E17.02539
G1 X61.798 Y64.157 E17.08551
G1 X148.455 Y64.16 E21.12063
G1 X149.262 Y64.186 E21.15822
G1 X149.82 Y64.231 E21.18429
G1 X150.699 Y64.37 E21.22573
G1 X151.032 Y64.449 E21.24167
G1 X151.686 Y64.645 E21.27346
G1 X152.478 Y65.003 E21.31393
G1 X152.735 Y65.143 E21.32756
G1 X153.398 Y65.564 E21.36413
G1 X153.767 Y65.851 E21.38589
G1 X154.236 Y66.246 E21.41445
G1 X154.732 Y66.716 E21.44626
G1 X155.344 Y67.491 E21.49225
G1 X155.723 Y68.09 E21.52525
G1 X155.874 Y68.356 E21.5395
G1 X156.237 Y69.176 E21.58125
G1 X156.459 Y69.825 E21.61319
G1 X156.689 Y70.819 E21.6607
G1 X156.781 Y71.513 E21.6933
G1 X156.824 Y72.119 E21.72159
G1 X156.832 Y72.477 E21.73826
G1 X156.838 Y73.482 E21.78506
G1 X156.837 Y139.344 E24.85187
G1 X156.827 Y140.071 E24.88572
G1 X156.778 Y140.753 E24.91756
G1 X156.65 Y141.424 E24.94937
G1 X156.443 Y142.075 E24.98118
G1 X156.163 Y142.698 E25.01298
G1 X155.811 Y143.284 E25.04482
G1 X155.394 Y143.825 E25.07662
G1 X154.916 Y144.313 E25.10843
G1 X154.384 Y144.742 E25.14025
G1 X153.806 Y145.106 E25.17206
G1 X153.189 Y145.4 E25.20388
G1 X152.542 Y145.62 E25.2357
G1 X151.874 Y145.763 E25.26751
G1 X151.152 Y145.829 E25.30127
G1 X150.668 Y145.84 E25.32382
G1 X62.422 Y145.839 E29.43292
G1 X61.72 Y145.829 E29.46561
G1 X61.038 Y145.78 E29.49745
G1 X60.367 Y145.651 E29.52927
G1 X59.716 Y145.444 E29.56108
G1 X59.093 Y145.163 E29.5929
G1 X58.508 Y144.811 E29.62469
G1 X57.967 Y144.394 E29.6565
G1 X57.368 Y143.79 E29.69611
G1 X56.477 Y142.75 E29.75988
G1 X54.822 Y140.869 E29.87654
G1 X54.697 Y140.731 E29.88521
G1 X54.269 Y140.199 E29.917
G1 X53.905 Y139.621 E29.94881
G1 X53.612 Y139.004 E29.98061
G1 X53.392 Y138.357 E30.01244
G1 X53.25 Y137.689 E30.04424
G1 X53.184 Y136.928 E30.0798
G1 X53.162 Y135.784 E30.13308
G1 X53.161 Y73.446 E33.0358
G1 X53.155 Y73.08 E33.05285
G1 X53.172 Y71.842 E33.1105
G1 X53.221 Y71.16 E33.14234
G1 X53.349 Y70.49 E33.1741
G1 X53.518 Y69.822 E33.20618
G1 X53.724 Y69.17 E33.23802
G1 X54.108 Y68.36 E33.27976
G1 X54.407 Y67.836 E33.30786
G1 X54.779 Y67.263 E33.33967
G1 X55.419 Y66.532 E33.38491
G1 X55.799 Y66.169 E33.40938
G1 X55.927 Y66.053 E33.41742
M204 S3000
M205 X10 Y10
G0 F3000 X56.303 Y66.468
M204 S1800
M205 X8 Y8
G1 F2400 X56.811 Y66.062 E33.4477
G1 X57.59 Y65.582 E33.49031
G1 X58.169 Y65.286 E33.52059
G1 X58.673 Y65.095 E33.54569
G1 X59.163 Y64.948 E33.56951
G1 X59.797 Y64.807 E33.59975
G1 X60.519 Y64.742 E33.63351
G1 X61.798 Y64.717 E33.69307
G1 X148.445 Y64.72 E37.72772
G1 X149.217 Y64.744 E37.76368
G1 X149.775 Y64.789 E37.78975
G1 X150.57 Y64.915 E37.82723
G1 X150.903 Y64.994 E37.84317
G1 X151.524 Y65.182 E37.87338
G1 X152.21 Y65.494 E37.90847
G1 X152.467 Y65.634 E37.9221
G1 X153.066 Y66.015 E37.95516
G1 X153.406 Y66.279 E37.9752
G1 X153.875 Y66.674 E38.00375
G1 X154.345 Y67.123 E38.03402
G1 X154.877 Y67.8 E38.07411
G1 X155.243 Y68.379 E38.10601
G1 X155.381 Y68.622 E38.11902
G1 X155.709 Y69.363 E38.15675
G1 X155.926 Y69.999 E38.18804
G1 X156.134 Y70.897 E38.23097
G1 X156.224 Y71.568 E38.26249
G1 X156.265 Y72.132 E38.28882
G1 X156.272 Y72.48 E38.30503
G1 X156.278 Y73.485 E38.35183
G1 X156.278 Y139.337 E41.41817
G1 X156.268 Y140.064 E41.45203
G1 X156.219 Y140.711 E41.48224
G1 X156.091 Y141.348 E41.51249
G1 X155.885 Y141.965 E41.54278
G1 X155.606 Y142.551 E41.57301
G1 X155.257 Y143.099 E41.60326
G1 X154.843 Y143.599 E41.63349
G1 X154.37 Y144.045 E41.66376
G1 X153.847 Y144.43 E41.694
G1 X153.28 Y144.748 E41.72427
G1 X152.679 Y144.993 E41.75449
G1 X152.052 Y145.163 E41.78474
G1 X151.136 Y145.269 E41.82768
G1 X150.668 Y145.28 E41.84947
G1 X62.43 Y145.279 E45.95821
G1 X61.728 Y145.269 E45.9909
G1 X61.08 Y145.22 E46.02116
G1 X60.443 Y145.092 E46.05141
G1 X59.827 Y144.886 E46.08166
G1 X59.241 Y144.607 E46.11188
G1 X58.693 Y144.257 E46.14215
G1 X58.193 Y143.843 E46.17238
G1 X57.793 Y143.425 E46.19932
G1 X56.902 Y142.385 E46.26309
G1 X55.268 Y140.527 E46.3783
G1 X55.112 Y140.355 E46.38912
G1 X54.706 Y139.848 E46.41936
G1 X54.365 Y139.295 E46.44961
G1 X54.095 Y138.704 E46.47987
G1 X53.9 Y138.085 E46.51009
G1 X53.782 Y137.446 E46.54035
G1 X53.744 Y136.916 E46.56509
G1 X53.722 Y135.784 E46.61781
G1 X53.722 Y73.285 E49.52802
G1 X53.714 Y73.088 E49.5372
G1 X53.731 Y71.85 E49.59486
G1 X53.78 Y71.202 E49.62512
G1 X53.892 Y70.627 E49.65239
G1 X54.061 Y69.959 E49.68448
G1 X54.259 Y69.34 E49.71474
G1 X54.594 Y68.637 E49.751
G1 X54.893 Y68.113 E49.77909
G1 X55.249 Y67.57 E49.80933
G1 X55.809 Y66.934 E49.84879
G1 X56.175 Y66.584 E49.87237
G1 X56.303 Y66.468 E49.88041
M204 S3000
M205 X10 Y10
G1 F2400 E43.88041
;MESH:raspbase_v2.stl
G0 F3000 X62.187 Y69.335
G0 X62.187 Y70.858
G0 X147.926 Y71.818
M204 S1800
M205 X8 Y8
;TYPE:WALL-INNER
G1 F2400 E49.88041
G1 F1500 X148.813 Y71.417 E49.92574
G1 X149.16 Y71.449 E49.94196
G1 X149.417 Y71.681 E49.95809
G1 X149.582 Y72.26 E49.98612
G1 X149.552 Y72.513 E49.99798
G1 X149.224 Y73.487 E50.04584
G1 X149.598 Y73.805 E50.0687
G1 X149.598 Y138.6 E53.08583
G1 X62.602 Y138.6 E57.13672
G1 X62.24 Y138.187 E57.1623
G1 X61.907 Y137.844 E57.18456
G1 X61.583 Y137.436 E57.20882
G1 X60.402 Y136.101 E57.29181
G1 X60.402 Y73.685 E60.19816
G1 X60.642 Y73.409 E60.21519
G1 X60.402 Y72.407 E60.26317
G1 X60.402 Y72.059 E60.27938
G1 X60.484 Y71.761 E60.29377
G1 X60.691 Y71.495 E60.30946
G1 X60.907 Y71.4 E60.32045
G1 X61.071 Y71.4 E60.32809
G1 X62.141 Y71.73 E60.38023
G1 X62.432 Y71.4 E60.40071
G1 X147.547 Y71.4 E64.36402
G1 X147.926 Y71.818 E64.3903
M204 S3000
M205 X10 Y10
G0 F3000 X148.067 Y71.14
M204 S1800
M205 X8 Y8
G1 F1500 X148.671 Y70.867 E64.42116
G1 X148.945 Y70.845 E64.43396
G1 X149.385 Y70.919 E64.45474
G1 X149.756 Y71.193 E64.47621
G1 X149.922 Y71.424 E64.48946
G1 X150.091 Y71.95 E64.51519
G1 X150.149 Y72.237 E64.52882
G1 X150.101 Y72.639 E64.54767
G1 X149.876 Y73.306 E64.58045
G1 X150.158 Y73.546 E64.59769
G1 X150.158 Y139.16 E67.65295
G1 X62.337 Y139.16 E71.74227
G1 X62.181 Y138.969 E71.75375
G1 X61.828 Y138.567 E71.77866
G1 X61.485 Y138.213 E71.80161
G1 X61.154 Y137.796 E71.82641
G1 X60.786 Y137.382 E71.8522
G1 X60.009 Y136.502 E71.90686
G1 X59.842 Y136.317 E71.91847
G1 X59.842 Y73.475 E74.84465
G1 X60.03 Y73.259 E74.85799
G1 X59.842 Y72.474 E74.89557
G1 X59.842 Y71.984 E74.91839
G1 X59.963 Y71.543 E74.93968
G1 X60.138 Y71.246 E74.95574
G1 X60.379 Y71.021 E74.97109
G1 X60.788 Y70.84 E74.99191
G1 X61.155 Y70.84 E75.009
G1 X61.96 Y71.088 E75.04823
G1 X62.179 Y70.84 E75.06363
G1 X147.795 Y70.84 E79.05027
G1 X148.067 Y71.14 E79.06913
M204 S3000
M205 X10 Y10
G0 F3000 X148.208 Y70.462
M204 S1800
M205 X8 Y8
;TYPE:WALL-OUTER
G1 F1500 X148.529 Y70.317 E79.08553
G1 X148.969 Y70.281 E79.10609
G1 X149.61 Y70.389 E79.13635
G1 X150.152 Y70.79 E79.16775
G1 X150.24 Y70.866 E79.17316
G1 X150.274 Y70.974 E79.17844
G1 X150.42 Y71.145 E79.1889
G1 X150.502 Y71.4 E79.20138
G1 X150.541 Y71.401 E79.20319
G1 X150.65 Y71.724 E79.21907
G1 X150.713 Y72.237 E79.24313
G1 X150.65 Y72.765 E79.26789
G1 X150.528 Y73.126 E79.28564
G1 X150.718 Y73.288 E79.29727
G1 X150.718 Y139.72 E82.39062
G1 X62.072 Y139.72 E86.51835
G1 X61.754 Y139.331 E86.54174
G1 X61.416 Y138.947 E86.56556
G1 X61.063 Y138.582 E86.58921
G1 X60.731 Y138.164 E86.61406
G1 X60.384 Y137.801 E86.63745
G1 X60.332 Y137.714 E86.64217
G1 X59.95 Y137.282 E86.66902
G1 X59.591 Y136.875 E86.69429
G1 X59.282 Y136.533 E86.71575
G1 X59.282 Y73.265 E89.66177
G1 X59.418 Y73.109 E89.67141
G1 X59.282 Y72.541 E89.69861
G1 X59.282 Y71.909 E89.72804
G1 X59.443 Y71.322 E89.75638
G1 X59.698 Y70.891 E89.7797
G1 X60.045 Y70.566 E89.80183
G1 X60.375 Y70.38 E89.81947
G1 X60.705 Y70.28 E89.83553
G1 X61.239 Y70.28 E89.8604
G1 X61.779 Y70.446 E89.8867
G1 X61.925 Y70.28 E89.897
G1 X148.043 Y70.28 E93.90701
G1 X148.208 Y70.462 E93.91845
M204 S3000
M205 X10 Y10
G0 F3000 X148.39 Y70.38
G0 X148.661 Y70.981
G0 X148.906 Y71.978
M204 S1800
M205 X8 Y8
;TYPE:SKIN
G1 F1500 X149.023 Y72.306 E93.93466
G1 X149.012 Y72.392 E93.9387
G1 X148.584 Y73.664 E94.00119
G1 X149.048 Y74.059 E94.02957
G1 X149.048 Y138.05 E97.00926
G1 X62.852 Y138.05 E101.0229
G1 X62.321 Y137.482 E101.05911
G1 X62.005 Y137.083 E101.08281
G1 X60.952 Y135.892 E101.15684
G1 X60.952 Y73.891 E104.04386
G1 X61.243 Y73.556 E104.06452
G1 X60.952 Y72.341 E104.1227
G1 X60.984 Y72.013 E104.13805
G1 X61.025 Y71.962 E104.14109
G1 X62.318 Y72.36 E104.20409
G1 X62.681 Y71.95 E104.22959
G1 X147.304 Y71.95 E108.16999
G1 X147.788 Y72.484 E108.20355
G1 X148.906 Y71.978 E108.26069
M204 S3000
M205 X10 Y10
G0 F3000 X148.482 Y72.454
M204 S1800
M205 X8 Y8
G1 F1500 X148.657 Y72.629 E108.27221
M204 S3000
M205 X10 Y10
G0 F3000 X148.457 Y73.221
M204 S1800
M205 X8 Y8
G1 F1500 X147.938 Y72.701 E108.30642
M204 S3000
M205 X10 Y10
G0 F3000 X146.653 Y72.209
M204 S1800
M205 X8 Y8
G1 F1500 X148.787 Y74.343 E108.44695
M204 S3000
M205 X10 Y10
G0 F3000 X148.787 Y75.135
M204 S1800
M205 X8 Y8
G1 F1500 X145.861 Y72.209 E108.63963
M204 S3000
M205 X10 Y10
G0 F3000 X145.07 Y72.209
M204 S1800
M205 X8 Y8
G1 F1500 X148.787 Y75.927 E108.88444
M204 S3000
M205 X10 Y10
G0 F3000 X148.787 Y76.718
M204 S1800
M205 X8 Y8
G1 F1500 X144.278 Y72.209 E109.18136
M204 S3000
M205 X10 Y10
G0 F3000 X143.486 Y72.209
M204 S1800
M205 X8 Y8
G1 F1500 X148.787 Y77.51 E109.53044
M204 S3000
M205 X10 Y10
G0 F3000 X148.787 Y78.302
M204 S1800
M205 X8 Y8
G1 F1500 X142.694 Y72.209 E109.93168
M204 S3000
M205 X10 Y10
G0 F3000 X141.902 Y72.209
M204 S1800
M205 X8 Y8
G1 F1500 X148.787 Y79.094 E110.38507
M204 S3000
M205 X10 Y10
G0 F3000 X148.787 Y79.886
M204 S1800
M205 X8 Y8
G1 F1500 X141.11 Y72.209 E110.89061
M204 S3000
M205 X10 Y10
G0 F3000 X140.318 Y72.209
M204 S1800
M205 X8 Y8
G1 F1500 X148.787 Y80.678 E111.44831
M204 S3000
M205 X10 Y10
G0 F3000 X148.787 Y81.47
M204 S1800
M205 X8 Y8
G1 F1500 X139.526 Y72.209 E112.05816
M204 S3000
M205 X10 Y10
G0 F3000 X138.734 Y72.209
M204 S1800
M205 X8 Y8
G1 F1500 X148.787 Y82.262 E112.72017
M204 S3000
M205 X10 Y10
G0 F3000 X148.787 Y83.054
M204 S1800
M205 X8 Y8
G1 F1500 X137.942 Y72.209 E113.43433
M204 S3000
M205 X10 Y10
G0 F3000 X137.15 Y72.209
M204 S1800
M205 X8 Y8
G1 F1500 X148.787 Y83.846 E114.20065
M204 S3000
M205 X10 Y10
G0 F3000 X148.787 Y84.638
M204 S1800
M205 X8 Y8
G1 F1500 X136.358 Y72.209 E115.01912
M204 S3000
M205 X10 Y10
G0 F3000 X135.566 Y72.209
M204 S1800
M205 X8 Y8
G1 F1500 X148.787 Y85.43 E115.88974
M204 S3000
M205 X10 Y10
G0 F3000 X148.787 Y86.222
M204 S1800
M205 X8 Y8
G1 F1500 X134.774 Y72.209 E116.81252
M204 S3000
M205 X10 Y10
G0 F3000 X133.982 Y72.209
M204 S1800
M205 X8 Y8
G1 F1500 X148.787 Y87.014 E117.78746
M204 S3000
M205 X10 Y10
G0 F3000 X148.787 Y87.806
M204 S1800
M205 X8 Y8
G1 F1500 X133.19 Y72.209 E118.81455
M204 S3000
M205 X10 Y10
G0 F3000 X132.398 Y72.209
M204 S1800
M205 X8 Y8
G1 F1500 X148.787 Y88.598 E119.89379
M204 S3000
M205 X10 Y10
G0 F3000 X148.787 Y89.39
M204 S1800
M205 X8 Y8
G1 F1500 X131.606 Y72.209 E121.02519
M204 S3000
M205 X10 Y10
G0 F3000 X130.814 Y72.209
M204 S1800
M205 X8 Y8
G1 F1500 X148.787 Y90.182 E122.20874
M204 S3000
M205 X10 Y10
G0 F3000 X148.787 Y90.974
M204 S1800
M205 X8 Y8
G1 F1500 X130.022 Y72.209 E123.44445
M204 S3000
M205 X10 Y10
G0 F3000 X129.23 Y72.209
M204 S1800
M205 X8 Y8
G1 F1500 X148.787 Y91.766 E124.73231
M204 S3000
M205 X10 Y10
G0 F3000 X148.787 Y92.558
M204 S1800
M205 X8 Y8
G1 F1500 X128.438 Y72.209 E126.07233
M204 S3000
M205 X10 Y10
G0 F3000 X127.646 Y72.209
M204 S1800
M205 X8 Y8
G1 F1500 X148.787 Y93.35 E127.4645
M204 S3000
M205 X10 Y10
G0 F3000 X148.787 Y94.142
M204 S1800
M205 X8 Y8
G1 F1500 X126.854 Y72.209 E128.90882
M204 S3000
M205 X10 Y10
G0 F3000 X126.062 Y72.209
M204 S1800
M205 X8 Y8
G1 F1500 X148.787 Y94.934 E130.4053
M204 S3000
M205 X10 Y10
G0 F3000 X148.787 Y95.725
M204 S1800
M205 X8 Y8
G1 F1500 X125.271 Y72.209 E131.95387
M204 S3000
M205 X10 Y10
G0 F3000 X124.479 Y72.209
M204 S1800
M205 X8 Y8
G1 F1500 X148.787 Y96.517 E133.55459
M204 S3000
M205 X10 Y10
G0 F3000 X148.787 Y97.309
M204 S1800
M205 X8 Y8
G1 F1500 X123.687 Y72.209 E135.20747
M204 S3000
M205 X10 Y10
G0 F3000 X122.895 Y72.209
M204 S1800
M205 X8 Y8
G1 F1500 X148.787 Y98.101 E136.9125
M204 S3000
M205 X10 Y10
G0 F3000 X148.787 Y98.893
M204 S1800
M205 X8 Y8
G1 F1500 X122.103 Y72.209 E138.66969
M204 S3000
M205 X10 Y10
G0 F3000 X121.311 Y72.209
M204 S1800
M205 X8 Y8
G1 F1500 X148.787 Y99.685 E140.47903
M204 S3000
M205 X10 Y10
G0 F3000 X148.787 Y100.477
M204 S1800
M205 X8 Y8
G1 F1500 X120.519 Y72.209 E142.34053
M204 S3000
M205 X10 Y10
G0 F3000 X119.727 Y72.209
M204 S1800
M205 X8 Y8
G1 F1500 X148.787 Y101.269 E144.25418
M204 S3000
M205 X10 Y10
G0 F3000 X148.787 Y102.061
M204 S1800
M205 X8 Y8
G1 F1500 X118.935 Y72.209 E146.21998
M204 S3000
M205 X10 Y10
G0 F3000 X118.143 Y72.209
M204 S1800
M205 X8 Y8
