;FLAVOR:Marlin
;TIME:9307
;Filament used: 8.80791m
;Layer height: 0.2
;MINX:35.743
;MINY:21.82
;MINZ:0.2
;MAXX:196.635
;MAXY:141.783
;MAXZ:28.4
;Generated with Cura_SteamEngine 4.8.0
M140 S60
M105
M190 S60
M104 S200
M105
M109 S200
M82 ;absolute extrusion mode
G21 ;metric values
G90 ;absolute positioning
M82 ;set extruder to absolute mode
M107 ;start with the fan off
G28 X0 Y0 ;move X/Y to min endstops
G28 Z0 ;move Z to min endstops
G1 Z15.0 F100 ;move the platform down 15mm
G92 E0 ;zero the extruded length
G1 F200 E3 ;extrude 3mm of feed stock
G92 E0 ;zero the extruded length again
G1 F100
G0 Y20 F100
M117 Printing...
G5
G92 E0
G92 E0
G1 F2400 E-6
;LAYER_COUNT:142
;LAYER:0
M106 S255
M204 S3000
M205 X10 Y10
G1 F600 Z0.275
G0 F3000 X38.875 Y25.365 Z0.275
M204 S1800
M205 X8 Y8
;TYPE:SKIRT
G1 F600 Z0.2
G1 F2400 E0
G1 X39.296 Y24.786 E0.03333
G1 X39.778 Y24.258 E0.06662
G1 X40.317 Y23.788 E0.09992
G1 X40.905 Y23.38 E0.13325
G1 X41.534 Y23.04 E0.16654
G1 X42.198 Y22.773 E0.19987
G1 X42.887 Y22.582 E0.23316
G1 X43.7 Y22.458 E0.27145
G1 X45.281 Y22.322 E0.34534
G1 X47.861 Y22.061 E0.46609
G1 X48.434 Y21.988 E0.49299
G1 X49.453 Y21.871 E0.54075
G1 X50.003 Y21.832 E0.56643
G1 X50.502 Y21.82 E0.58967
G1 X69.565 Y21.82 E1.47732
G1 X70.373 Y21.832 E1.51495
G1 X71.087 Y21.883 E1.54828
G1 X71.79 Y22.013 E1.58157
G1 X72.501 Y22.231 E1.6162
G1 X72.963 Y22.402 E1.63914
G1 X75.448 Y23.279 E1.76184
G1 X77.999 Y24.1 E1.88663
G1 X80.53 Y24.835 E2.00935
G1 X83.1 Y25.503 E2.133
G1 X85.703 Y26.102 E2.25737
G1 X88.279 Y26.619 E2.37971
G1 X90.868 Y27.062 E2.50202
G1 X93.508 Y27.438 E2.62619
G1 X96.131 Y27.736 E2.74911
G1 X98.758 Y27.958 E2.87187
G1 X101.439 Y28.11 E2.99691
G1 X104.044 Y28.184 E3.11826
G1 X106.724 Y28.184 E3.24305
G1 X110.066 Y28.091 E3.39873
G1 X110.239 Y28.089 E3.40679
G1 X129.394 Y28.09 E4.29873
G1 X130.091 Y28.1 E4.33118
G1 X130.84 Y28.152 E4.36614
G1 X131.317 Y28.213 E4.38854
G1 X133.949 Y28.512 E4.51188
G1 X136.58 Y28.735 E4.63483
G1 X139.217 Y28.883 E4.75781
G1 X141.895 Y28.958 E4.88256
G1 X144.538 Y28.958 E5.00563
G1 X147.143 Y28.883 E5.12698
G1 X149.823 Y28.731 E5.25197
G1 X152.451 Y28.507 E5.37479
G1 X155.092 Y28.206 E5.49856
G1 X156.495 Y28.015 E5.56449
G1 X157.394 Y27.888 E5.60677
G1 X157.739 Y27.849 E5.62294
G1 X159.308 Y27.714 E5.69627
G1 X161.888 Y27.453 E5.81701
G1 X162.461 Y27.38 E5.84391
G1 X163.48 Y27.263 E5.89167
G1 X164.03 Y27.224 E5.91735
G1 X164.529 Y27.212 E5.94059
G1 X183.683 Y27.213 E6.83248
G1 X184.386 Y27.223 E6.86522
G1 X185.1 Y27.273 E6.89855
G1 X185.803 Y27.402 E6.93183
G1 X186.488 Y27.609 E6.96515
G1 X187.145 Y27.892 E6.99846
G1 X187.632 Y28.161 E7.02436
G1 X187.854 Y28.298 E7.03651
G1 X189.879 Y29.585 E7.14824
G1 X192.137 Y30.933 E7.27069
G1 X193.419 Y31.671 E7.33957
G1 X194.018 Y32.062 E7.37288
G1 X194.57 Y32.518 E7.40622
G1 X195.067 Y33.032 E7.43951
G1 X195.504 Y33.598 E7.47281
G1 X195.875 Y34.21 E7.50613
G1 X196.175 Y34.859 E7.53942
G1 X196.401 Y35.537 E7.5727
G1 X196.55 Y36.237 E7.60603
G1 X196.624 Y37.04 E7.64358
G1 X196.635 Y37.541 E7.66691
G1 X196.634 Y39.363 E7.75175
G1 X196.624 Y40.093 E7.78575
G1 X196.575 Y40.806 E7.81902
G1 X196.446 Y41.51 E7.85235
G1 X196.239 Y42.194 E7.88563
G1 X195.957 Y42.852 E7.91896
G1 X195.604 Y43.474 E7.95226
G1 X195.183 Y44.052 E7.98556
G1 X194.7 Y44.58 E8.01888
G1 X194.162 Y45.051 E8.05218
G1 X193.527 Y45.487 E8.08804
G1 X193.26 Y45.647 E8.10254
G1 X191.248 Y46.809 E8.21073
G1 X189.014 Y48.185 E8.3329
G1 X186.82 Y49.623 E8.45505
G1 X184.608 Y51.165 E8.58061
G1 X182.501 Y52.725 E8.70268
G1 X180.387 Y54.383 E8.82778
G1 X178.395 Y56.04 E8.94843
G1 X176.382 Y57.812 E9.07331
G1 X174.459 Y59.603 E9.19568
G1 X172.566 Y61.469 E9.31945
G1 X170.737 Y63.38 E9.44262
G1 X168.949 Y65.353 E9.5666
G1 X167.24 Y67.353 E9.6891
G1 X165.574 Y69.416 E9.81257
G1 X163.962 Y71.532 E9.93644
G1 X162.441 Y73.651 E10.0579
G1 X160.946 Y75.862 E10.18218
G1 X159.523 Y78.102 E10.30575
G1 X158.168 Y80.374 E10.42893
G1 X156.872 Y82.695 E10.55271
G1 X155.656 Y85.022 E10.67497
G1 X154.487 Y87.423 E10.79931
G1 X153.404 Y89.818 E10.92171
G1 X152.382 Y92.259 E11.04493
G1 X151.411 Y94.772 E11.17038
G1 X150.551 Y97.213 E11.29089
G1 X149.733 Y99.756 E11.41528
G1 X148.993 Y102.295 E11.53842
G1 X148.331 Y104.837 E11.66074
G1 X147.729 Y107.441 E11.78519
G1 X147.203 Y110.057 E11.90944
G1 X146.766 Y112.611 E12.03009
G1 X146.387 Y115.266 E12.15497
G1 X146.089 Y117.882 E12.27757
G1 X145.863 Y120.522 E12.40095
G1 X145.711 Y123.195 E12.52562
G1 X145.673 Y124.497 E12.58627
G1 X145.639 Y125.293 E12.62337
G1 X145.569 Y126.005 E12.65668
G1 X145.419 Y126.704 E12.68997
G1 X145.193 Y127.383 E12.72329
G1 X144.892 Y128.032 E12.75661
G1 X144.521 Y128.643 E12.78989
G1 X144.083 Y129.209 E12.82322
G1 X143.586 Y129.723 E12.85651
G1 X142.837 Y130.317 E12.90102
G1 X142.47 Y130.565 E12.92165
G1 X140.764 Y131.686 E13.0167
G1 X138.556 Y133.227 E13.14208
G1 X136.465 Y134.777 E13.26328
G1 X134.354 Y136.436 E13.3883
G1 X132.349 Y138.105 E13.50977
G1 X130.395 Y139.827 E13.63105
G1 X130.066 Y140.124 E13.65169
G1 X129.509 Y140.572 E13.68497
G1 X128.905 Y140.956 E13.7183
G1 X128.263 Y141.271 E13.7516
G1 X127.589 Y141.511 E13.78491
G1 X126.893 Y141.675 E13.81821
G1 X125.973 Y141.77 E13.86127
G1 X125.451 Y141.783 E13.88559
G1 X124.388 Y141.782 E13.93509
G1 X123.681 Y141.771 E13.96801
G1 X122.968 Y141.72 E14.0013
G1 X122.265 Y141.59 E14.03459
G1 X121.736 Y141.437 E14.06023
G1 X120.514 Y141.025 E14.12028
G1 X120.156 Y140.899 E14.13795
G1 X117.61 Y140.083 E14.26244
G1 X115.08 Y139.35 E14.38509
G1 X112.522 Y138.687 E14.50814
G1 X109.917 Y138.087 E14.63262
G1 X107.341 Y137.574 E14.75492
G1 X104.736 Y137.131 E14.87796
G1 X102.12 Y136.761 E15.00099
G1 X99.459 Y136.461 E15.12568
G1 X96.846 Y136.24 E15.24778
G1 X94.219 Y136.094 E15.3703
G1 X91.536 Y136.02 E15.49528
G1 X88.899 Y136.022 E15.61807
G1 X86.252 Y136.1 E15.74138
G1 X83.648 Y136.249 E15.86283
G1 X80.978 Y136.478 E15.98761
G1 X78.32 Y136.782 E16.11218
G1 X75.707 Y137.156 E16.2351
G1 X74.065 Y137.429 E16.3126
G1 X73.196 Y137.513 E16.35326
G1 X72.697 Y137.525 E16.3765
G1 X45.156 Y137.524 E17.65892
G1 X44.458 Y137.515 E17.69143
G1 X43.745 Y137.466 E17.72471
G1 X43.041 Y137.338 E17.75803
G1 X42.356 Y137.132 E17.79133
G1 X41.699 Y136.85 E17.82462
G1 X41.077 Y136.497 E17.85793
G1 X40.498 Y136.077 E17.89123
G1 X39.969 Y135.595 E17.92456
G1 X39.498 Y135.057 E17.95785
G1 X39.09 Y134.47 E17.99114
G1 X38.75 Y133.84 E18.02448
G1 X38.482 Y133.177 E18.05777
G1 X38.29 Y132.488 E18.09108
G1 X38.176 Y131.782 E18.12438
G1 X38.134 Y130.956 E18.16289
G1 X38.132 Y130.783 E18.17095
G1 X38.132 Y108.751 E19.19685
G1 X38.094 Y106.109 E19.31988
G1 X37.982 Y103.469 E19.44292
G1 X37.795 Y100.823 E19.56644
G1 X37.531 Y98.167 E19.69072
G1 X37.197 Y95.556 E19.81329
G1 X36.787 Y92.944 E19.93641
G1 X36.304 Y90.343 E20.05959
G1 X36.064 Y89.23 E20.11261
G1 X35.878 Y88.306 E20.1565
G1 X35.776 Y87.598 E20.18981
G1 X35.746 Y86.903 E20.2222
G1 X35.743 Y86.723 E20.23058
G1 X35.744 Y84.702 E20.32469
G1 X35.751 Y84.236 E20.34639
G1 X35.751 Y81.5 E20.47379
G1 X35.743 Y80.782 E20.50722
G1 X35.743 Y78.636 E20.60715
G1 X35.753 Y77.964 E20.63845
G1 X35.83 Y77.062 E20.6806
G1 X35.867 Y76.824 E20.69181
G1 X36.249 Y74.135 E20.81828
G1 X36.546 Y71.516 E20.94102
G1 X36.767 Y68.898 E21.06335
G1 X36.915 Y66.269 E21.18597
G1 X37 Y62.225 E21.37431
G1 X37.001 Y61.507 E21.40775
G1 X37.008 Y61.041 E21.42945
G1 X37.008 Y58.273 E21.55834
G1 X37 Y57.585 E21.59038
G1 X37 Y55.448 E21.68988
G1 X37.009 Y54.793 E21.72039
G1 X37.06 Y54.07 E21.75414
G1 X37.157 Y53.312 E21.78972
G1 X37.459 Y50.644 E21.91475
G1 X37.682 Y48.007 E22.03797
G1 X37.832 Y45.361 E22.16138
G1 X37.907 Y42.689 E22.28585
G1 X37.907 Y40.014 E22.41041
G1 X37.876 Y38.592 E22.47664
G1 X37.848 Y37.659 E22.5201
G1 X37.845 Y37.47 E22.5289
G1 X37.846 Y35.467 E22.62217
G1 X37.853 Y35.001 E22.64387
G1 X37.853 Y32.233 E22.77276
G1 X37.845 Y31.545 E22.8048
G1 X37.845 Y29.395 E22.90491
G1 X37.854 Y28.745 E22.93518
G1 X37.903 Y28.032 E22.96846
G1 X38.033 Y27.328 E23.0018
G1 X38.239 Y26.644 E23.03506
G1 X38.521 Y25.986 E23.06839
G1 X38.875 Y25.365 E23.10168
M204 S3000
M205 X10 Y10
G0 F3000 X39.43 Y25.541
M204 S1800
M205 X8 Y8
G1 F2400 X39.848 Y25 E23.13351
G1 X40.326 Y24.512 E23.16532
G1 X40.857 Y24.083 E23.19711
G1 X41.436 Y23.719 E23.22895
G1 X42.052 Y23.425 E23.26074
G1 X42.699 Y23.205 E23.29256
G1 X43.367 Y23.062 E23.32437
G1 X43.748 Y23.016 E23.34224
G1 X45.305 Y22.882 E23.41501
G1 X47.952 Y22.614 E23.53889
G1 X48.498 Y22.544 E23.56452
G1 X49.517 Y22.427 E23.61229
G1 X50.018 Y22.391 E23.63567
G1 X50.502 Y22.38 E23.65822
G1 X69.656 Y22.381 E24.55011
G1 X70.365 Y22.392 E24.58313
G1 X71.046 Y22.442 E24.61492
G1 X71.717 Y22.572 E24.64675
G1 X72.306 Y22.756 E24.67548
G1 X72.758 Y22.924 E24.69793
G1 X75.268 Y23.809 E24.82186
G1 X77.849 Y24.639 E24.94811
G1 X80.377 Y25.374 E25.07069
G1 X82.969 Y26.048 E25.1954
G1 X85.578 Y26.648 E25.32006
G1 X88.178 Y27.17 E25.44354
G1 X90.769 Y27.613 E25.56594
G1 X93.436 Y27.993 E25.69138
G1 X96.09 Y28.294 E25.81576
G1 X98.716 Y28.517 E25.93847
G1 X101.391 Y28.668 E26.06323
G1 X104.063 Y28.744 E26.1877
G1 X106.704 Y28.744 E26.31068
G1 X110.081 Y28.651 E26.46798
G1 X110.239 Y28.649 E26.47534
G1 X129.386 Y28.65 E27.36691
G1 X130.083 Y28.66 E27.39936
G1 X130.769 Y28.708 E27.43139
G1 X131.182 Y28.761 E27.45077
G1 X133.911 Y29.07 E27.57866
G1 X136.536 Y29.293 E27.70133
G1 X139.205 Y29.443 E27.82581
G1 X141.879 Y29.518 E27.95037
G1 X144.519 Y29.518 E28.0733
G1 X147.191 Y29.441 E28.19777
G1 X149.865 Y29.289 E28.32248
G1 X152.492 Y29.065 E28.44525
G1 X155.19 Y28.758 E28.57169
G1 X156.589 Y28.568 E28.63743
G1 X157.472 Y28.443 E28.67896
G1 X157.787 Y28.407 E28.69372
G1 X159.332 Y28.274 E28.76593
G1 X161.979 Y28.006 E28.88982
G1 X162.525 Y27.936 E28.91545
G1 X163.544 Y27.819 E28.96321
G1 X164.045 Y27.783 E28.9866
G1 X164.529 Y27.772 E29.00914
G1 X183.675 Y27.773 E29.90066
G1 X184.378 Y27.783 E29.9334
G1 X185.059 Y27.832 E29.96519
G1 X185.73 Y27.961 E29.997
G1 X186.382 Y28.168 E30.02886
G1 X187.005 Y28.449 E30.06068
G1 X187.466 Y28.716 E30.08549
G1 X187.554 Y28.77 E30.0903
G1 X189.611 Y30.078 E30.2038
G1 X191.858 Y31.419 E30.32565
G1 X193.14 Y32.157 E30.39453
G1 X193.711 Y32.532 E30.42634
G1 X194.234 Y32.971 E30.45813
G1 X194.703 Y33.468 E30.48995
G1 X195.11 Y34.016 E30.52174
G1 X195.451 Y34.609 E30.55359
G1 X195.72 Y35.237 E30.5854
G1 X195.913 Y35.892 E30.6172
G1 X196.029 Y36.565 E30.649
G1 X196.073 Y37.378 E30.68691
G1 X196.075 Y37.541 E30.6945
G1 X196.074 Y39.355 E30.77897
G1 X196.064 Y40.085 E30.81296
G1 X196.015 Y40.766 E30.84476
G1 X195.887 Y41.437 E30.87656
G1 X195.681 Y42.089 E30.9084
G1 X195.4 Y42.712 E30.94023
G1 X195.048 Y43.298 E30.97206
G1 X194.631 Y43.838 E31.00383
G1 X194.153 Y44.327 E31.03567
G1 X193.621 Y44.756 E31.06749
G1 X193.073 Y45.107 E31.09779
G1 X190.978 Y46.318 E31.21047
G1 X188.707 Y47.717 E31.33467
G1 X186.471 Y49.183 E31.45917
G1 X184.29 Y50.703 E31.58296
G1 X182.163 Y52.277 E31.70617
G1 X180.063 Y53.925 E31.83047
G1 X178.025 Y55.619 E31.95387
G1 X175.988 Y57.413 E32.08026
G1 X174.079 Y59.19 E32.20171
G1 X172.164 Y61.079 E32.32696
G1 X170.331 Y62.993 E32.45036
G1 X168.539 Y64.972 E32.57468
G1 X166.806 Y66.999 E32.69886
G1 X165.123 Y69.084 E32.82363
G1 X163.522 Y71.186 E32.94666
G1 X161.971 Y73.346 E33.07048
G1 X160.48 Y75.551 E33.19443
G1 X159.046 Y77.808 E33.31894
G1 X157.684 Y80.092 E33.44277
G1 X156.388 Y82.413 E33.56655
G1 X155.157 Y84.768 E33.69029
G1 X153.981 Y87.185 E33.81545
G1 X152.892 Y89.592 E33.93846
G1 X151.863 Y92.05 E34.06254
G1 X150.881 Y94.592 E34.18943
G1 X150.021 Y97.033 E34.30995
G1 X149.201 Y99.582 E34.43463
G1 X148.457 Y102.132 E34.55832
G1 X147.776 Y104.748 E34.68419
G1 X147.184 Y107.314 E34.80681
G1 X146.653 Y109.95 E34.93202
G1 X146.209 Y112.547 E35.0547
G1 X145.831 Y115.193 E35.17916
G1 X145.533 Y117.806 E35.30162
G1 X145.305 Y120.48 E35.42659
G1 X145.153 Y123.147 E35.55098
G1 X145.114 Y124.473 E35.61275
G1 X145.08 Y125.269 E35.64985
G1 X145.011 Y125.949 E35.68167
G1 X144.863 Y126.616 E35.71349
G1 X144.638 Y127.261 E35.74529
G1 X144.339 Y127.876 E35.77714
G1 X143.971 Y128.451 E35.80892
G1 X143.538 Y128.98 E35.84076
G1 X143.046 Y129.454 E35.87257
G1 X142.523 Y129.853 E35.9032
G1 X142.163 Y130.097 E35.92345
G1 X140.414 Y131.246 E36.02089
G1 X138.261 Y132.749 E36.14316
G1 X136.127 Y134.33 E36.26682
G1 X134.008 Y135.996 E36.39234
G1 X131.954 Y137.706 E36.51679
G1 X130.019 Y139.411 E36.63688
G1 X129.69 Y139.708 E36.65752
G1 X129.157 Y140.135 E36.68932
G1 X128.578 Y140.497 E36.72111
G1 X127.96 Y140.79 E36.75296
G1 X127.313 Y141.007 E36.78474
G1 X126.644 Y141.148 E36.81657
G1 X125.956 Y141.21 E36.84874
G1 X125.451 Y141.223 E36.87226
G1 X124.397 Y141.222 E36.92134
G1 X123.69 Y141.211 E36.95426
G1 X123.009 Y141.161 E36.98606
G1 X122.338 Y141.031 E37.01789
G1 X121.915 Y140.906 E37.03842
G1 X120.615 Y140.467 E37.10232
G1 X120.305 Y140.358 E37.11762
G1 X117.792 Y139.552 E37.2405
G1 X115.241 Y138.813 E37.36417
G1 X112.643 Y138.14 E37.48914
G1 X110.048 Y137.542 E37.61314
G1 X107.434 Y137.022 E37.73724
G1 X104.804 Y136.574 E37.86147
G1 X102.187 Y136.204 E37.98454
G1 X99.532 Y135.905 E38.10895
G1 X96.892 Y135.682 E38.23232
G1 X94.229 Y135.534 E38.35651
G1 X91.552 Y135.46 E38.48121
G1 X88.881 Y135.462 E38.60558
G1 X86.24 Y135.539 E38.72861
G1 X83.606 Y135.691 E38.85147
G1 X80.898 Y135.923 E38.97802
G1 X78.286 Y136.222 E39.10044
G1 X75.621 Y136.603 E39.2258
G1 X73.973 Y136.877 E39.30359
G1 X73.181 Y136.954 E39.34064
G1 X72.697 Y136.965 E39.36319
G1 X45.164 Y136.965 E40.64524
G1 X44.466 Y136.956 E40.67774
G1 X43.784 Y136.907 E40.70958
G1 X43.113 Y136.779 E40.74139
G1 X42.462 Y136.573 E40.77318
G1 X41.838 Y136.293 E40.80503
G1 X41.252 Y135.942 E40.83684
G1 X40.711 Y135.525 E40.86864
G1 X40.222 Y135.047 E40.90049
G1 X39.793 Y134.516 E40.93227
G1 X39.428 Y133.938 E40.9641
G1 X39.134 Y133.322 E40.99589
G1 X38.913 Y132.675 E41.02772
G1 X38.769 Y132.007 E41.05954
G1 X38.703 Y131.274 E41.09381
G1 X38.692 Y130.783 E41.11668
G1 X38.692 Y108.751 E42.14258
G1 X38.655 Y106.112 E42.26548
G1 X38.54 Y103.405 E42.39164
G1 X38.355 Y100.801 E42.5132
G1 X38.088 Y98.11 E42.63912
G1 X37.75 Y95.468 E42.76314
G1 X37.341 Y92.864 E42.88588
G1 X36.851 Y90.226 E43.01082
G1 X36.613 Y89.119 E43.06355
G1 X36.427 Y88.195 E43.10743
G1 X36.314 Y87.207 E43.15374
G1 X36.303 Y86.723 E43.17628
G1 X36.304 Y84.71 E43.27002
G1 X36.311 Y84.236 E43.29209
G1 X36.311 Y81.488 E43.42005
G1 X36.303 Y80.778 E43.45311
G1 X36.303 Y78.644 E43.55248
G1 X36.313 Y77.972 E43.58377
G1 X36.383 Y77.149 E43.62223
G1 X36.43 Y76.851 E43.63628
G1 X36.8 Y74.237 E43.75921
G1 X37.105 Y71.556 E43.88486
G1 X37.326 Y68.939 E44.00715
G1 X37.475 Y66.284 E44.13097
G1 X37.56 Y62.237 E44.31946
G1 X37.561 Y61.515 E44.35308
G1 X37.568 Y61.041 E44.37515
G1 X37.568 Y58.261 E44.5046
G1 X37.56 Y57.582 E44.53622
G1 X37.56 Y55.456 E44.63522
G1 X37.569 Y54.801 E44.66572
G1 X37.615 Y54.141 E44.69653
G1 X37.713 Y53.377 E44.73239
G1 X38.021 Y50.648 E44.86027
G1 X38.241 Y48.051 E44.98163
G1 X38.392 Y45.374 E45.10648
G1 X38.467 Y42.705 E45.23081
G1 X38.467 Y40.048 E45.35453
G1 X38.436 Y38.58 E45.4229
G1 X38.408 Y37.642 E45.4666
G1 X38.405 Y37.47 E45.47461
G1 X38.406 Y35.475 E45.56751
G1 X38.413 Y35.001 E45.58958
G1 X38.413 Y32.221 E45.71903
G1 X38.405 Y31.542 E45.75065
G1 X38.405 Y29.403 E45.85025
G1 X38.414 Y28.753 E45.88052
G1 X38.463 Y28.072 E45.91231
G1 X38.592 Y27.401 E45.94413
G1 X38.798 Y26.749 E45.97597
G1 X39.079 Y26.126 E46.00779
G1 X39.43 Y25.541 E46.03956
M204 S3000
M205 X10 Y10
G0 F3000 X39.985 Y25.726
M204 S1800
M205 X8 Y8
G1 F2400 X40.399 Y25.225 E46.06982
G1 X40.871 Y24.779 E46.10006
G1 X41.395 Y24.395 E46.13031
G1 X41.961 Y24.077 E46.16054
G1 X42.563 Y23.832 E46.1908
G1 X43.19 Y23.662 E46.22105
G1 X43.797 Y23.574 E46.24961
G1 X45.365 Y23.439 E46.3229
G1 X48.005 Y23.171 E46.44646
G1 X48.562 Y23.1 E46.4726
G1 X49.581 Y22.983 E46.52036
G1 X50.353 Y22.942 E46.55636
G1 X50.502 Y22.94 E46.5633
G1 X69.565 Y22.94 E47.45095
G1 X70.356 Y22.952 E47.48779
G1 X71.004 Y23.002 E47.51805
G1 X71.64 Y23.131 E47.54827
G1 X72.554 Y23.445 E47.59327
G1 X75.13 Y24.354 E47.72047
G1 X77.656 Y25.167 E47.84403
