;FLAVOR:Marlin
;TIME:681
;Filament used: 0.618231m
;Layer height: 0.2
;MINX:94.095
;MINY:86.234
;MINZ:0.2
;MAXX:115.906
;MAXY:123.766
;MAXZ:15
;Generated with Cura_SteamEngine 4.8.0
M140 S60
M105
M190 S60
M104 S200
M105
M109 S200
M82 ;absolute extrusion mode
; Script based on an original created by tjjfvi (https://github.com/tjjfvi)
; An up-to-date version of the tjjfvi's original script can be found
; here:  https://csi.t6.fyi/
; Note - This script will only work in Cura V4.2 and above!
; --- Global Settings
; layer_height = 0.2
; smooth_spiralized_contours = True
; magic_mesh_surface_mode = normal
; machine_extruder_count = 1
; --- Single Extruder Settings
; speed_z_hop = 10
; retraction_amount = 6
; retraction_hop = 0.075
; retraction_hop_enabled = True
; retraction_enable = True
; retraction_speed = 40
; retraction_retract_speed = 40
; retraction_prime_speed = 40
; speed_travel = 100


G21 ;metric values
G90 ;absolute positioning
M82 ;set extruder to absolute mode
M107 ;start with the fan off
G28 X0 Y0 ;move X/Y to min endstops
G28 Z0 ;move Z to min endstops
G1 Z15.0 F100 ;move the platform down 15mm
G92 E0 ;zero the extruded length
G1 F200 E3 ;extrude 3mm of feed stock
G92 E0 ;zero the extruded length again
G1 F100
G0 Y20 F100
M117 Printing...
G5
G92 E0
G92 E0
G1 F2400 E-6
;LAYER_COUNT:75
;LAYER:0
M106 S255
M204 S3000
M205 X10 Y10
G1 F600 Z0.275
G0 F3000 X96.027 Y88.069 Z0.275
M204 S1800
M205 X8 Y8
;TYPE:SKIRT
G1 F600 Z0.2
G1 F2400 E0
G1 X96.565 Y87.598 E0.0333
G1 X97.153 Y87.19 E0.06662
G1 X97.782 Y86.85 E0.09991
G1 X98.446 Y86.583 E0.13324
G1 X99.135 Y86.391 E0.16654
G1 X99.841 Y86.277 E0.19984
G1 X100.645 Y86.237 E0.23733
G1 X100.824 Y86.234 E0.24566
G1 X108.799 Y86.234 E0.61701
G1 X109.589 Y86.245 E0.6538
G1 X110.302 Y86.295 E0.68709
G1 X111.006 Y86.424 E0.72041
G1 X111.69 Y86.632 E0.7537
G1 X112.347 Y86.914 E0.78699
G1 X112.969 Y87.268 E0.82032
G1 X113.547 Y87.689 E0.85362
G1 X114.075 Y88.172 E0.88694
G1 X114.545 Y88.71 E0.9202
G1 X114.953 Y89.298 E0.95353
G1 X115.292 Y89.928 E0.98684
G1 X115.559 Y90.591 E1.02012
G1 X115.75 Y91.281 E1.05346
G1 X115.863 Y91.987 E1.08675
G1 X115.903 Y92.784 E1.12391
G1 X115.906 Y92.964 E1.13229
G1 X115.905 Y115.728 E2.19228
G1 X115.896 Y116.376 E2.22246
G1 X115.847 Y117.089 E2.25573
G1 X115.714 Y117.855 E2.29194
G1 X115.541 Y118.549 E2.32524
G1 X115.292 Y119.219 E2.35852
G1 X114.868 Y120.03 E2.40114
G1 X114.47 Y120.624 E2.43443
G1 X114.026 Y121.184 E2.46771
G1 X113.522 Y121.692 E2.50103
G1 X113.128 Y122.021 E2.52493
G1 X112.702 Y122.337 E2.54963
G1 X112.101 Y122.724 E2.58291
G1 X111.515 Y123.019 E2.61346
G1 X111.034 Y123.216 E2.63767
G1 X110.769 Y123.313 E2.65081
G1 X110.085 Y123.521 E2.6841
G1 X109.592 Y123.621 E2.70752
G1 X109.034 Y123.697 E2.73374
G1 X108.719 Y123.727 E2.74848
G1 X108.204 Y123.755 E2.77249
G1 X107.414 Y123.766 E2.80928
G1 X102.103 Y123.765 E3.05658
G1 X101.385 Y123.754 E3.09002
G1 X100.479 Y123.676 E3.13236
G1 X99.951 Y123.587 E3.1573
G1 X99.248 Y123.405 E3.19111
G1 X98.342 Y123.038 E3.23663
G1 X98.071 Y122.903 E3.25073
G1 X97.45 Y122.548 E3.28403
G1 X96.872 Y122.127 E3.31733
G1 X96.449 Y121.749 E3.34375
G1 X96.217 Y121.522 E3.35886
G1 X95.735 Y120.993 E3.39218
G1 X95.314 Y120.415 E3.42548
G1 X94.991 Y119.853 E3.45566
G1 X94.654 Y119.152 E3.49188
G1 X94.412 Y118.465 E3.5258
G1 X94.256 Y117.798 E3.55769
G1 X94.173 Y117.3 E3.5812
G1 X94.107 Y116.546 E3.61645
G1 X94.095 Y116.047 E3.63969
G1 X94.095 Y93.221 E4.70256
G1 X94.104 Y92.556 E4.73353
G1 X94.153 Y91.843 E4.76681
G1 X94.282 Y91.139 E4.80014
G1 X94.489 Y90.455 E4.83341
G1 X94.771 Y89.797 E4.86675
G1 X95.124 Y89.175 E4.90005
G1 X95.544 Y88.597 E4.93332
G1 X96.027 Y88.069 E4.96664
M204 S3000
M205 X10 Y10
G0 F3000 X96.574 Y88.322
M204 S1800
M205 X8 Y8
G1 F2400 X97.106 Y87.893 E4.99846
G1 X97.684 Y87.528 E5.03029
G1 X98.301 Y87.234 E5.06212
G1 X98.947 Y87.014 E5.0939
G1 X99.615 Y86.871 E5.12571
G1 X100.339 Y86.805 E5.15956
G1 X100.824 Y86.794 E5.18215
G1 X108.799 Y86.794 E5.5535
G1 X109.581 Y86.805 E5.58991
G1 X110.262 Y86.854 E5.62171
G1 X110.933 Y86.983 E5.65352
G1 X111.584 Y87.19 E5.68533
G1 X112.207 Y87.471 E5.71715
G1 X112.793 Y87.823 E5.74899
G1 X113.333 Y88.241 E5.78078
G1 X113.821 Y88.719 E5.81259
G1 X114.25 Y89.251 E5.84441
G1 X114.614 Y89.829 E5.87622
G1 X114.908 Y90.446 E5.90805
G1 X115.127 Y91.093 E5.93985
G1 X115.27 Y91.761 E5.97166
G1 X115.335 Y92.48 E6.00528
G1 X115.346 Y92.964 E6.02782
G1 X115.345 Y115.72 E7.08744
G1 X115.336 Y116.368 E7.11761
G1 X115.235 Y117.376 E7.16478
G1 X115.164 Y117.75 E7.18251
G1 X114.997 Y118.413 E7.21435
G1 X114.754 Y119.052 E7.24618
G1 X114.392 Y119.735 E7.28217
G1 X114.012 Y120.301 E7.31392
G1 X113.587 Y120.835 E7.3457
G1 X112.877 Y121.504 E7.39112
G1 X112.373 Y121.884 E7.42051
G1 X111.798 Y122.253 E7.45233
G1 X111.29 Y122.506 E7.47875
G1 X110.576 Y122.787 E7.51448
G1 X109.922 Y122.984 E7.54629
G1 X109.361 Y123.091 E7.57288
G1 X108.666 Y123.17 E7.60545
G1 X108.196 Y123.195 E7.62737
G1 X107.414 Y123.206 E7.66378
G1 X102.112 Y123.205 E7.91067
G1 X101.394 Y123.194 E7.9441
G1 X100.567 Y123.123 E7.98275
G1 X100.061 Y123.038 E8.00665
G1 X99.39 Y122.863 E8.03893
G1 X98.592 Y122.536 E8.07909
G1 X98.321 Y122.401 E8.09319
G1 X97.728 Y122.061 E8.12502
G1 X97.179 Y121.655 E8.15681
G1 X96.609 Y121.121 E8.19318
G1 X96.149 Y120.616 E8.22499
G1 X95.752 Y120.06 E8.2568
G1 X95.49 Y119.599 E8.28149
G1 X95.171 Y118.936 E8.31575
G1 X94.941 Y118.279 E8.34817
G1 X94.807 Y117.7 E8.37584
G1 X94.727 Y117.218 E8.39859
G1 X94.666 Y116.53 E8.43075
G1 X94.655 Y116.047 E8.45325
G1 X94.655 Y93.229 E9.51575
G1 X94.664 Y92.564 E9.54672
G1 X94.713 Y91.883 E9.57851
G1 X94.841 Y91.211 E9.61036
G1 X95.047 Y90.56 E9.64216
G1 X95.328 Y89.937 E9.67398
G1 X95.679 Y89.351 E9.70579
G1 X96.097 Y88.81 E9.73762
G1 X96.574 Y88.322 E9.7694
M204 S3000
M205 X10 Y10
G0 F3000 X96.648 Y89.035
M204 S1800
M205 X8 Y8
G1 F2400 X97.12 Y88.589 E9.79964
G1 X97.643 Y88.205 E9.82985
G1 X98.21 Y87.887 E9.86012
G1 X98.811 Y87.641 E9.89036
G1 X99.438 Y87.471 E9.92061
G1 X100.355 Y87.365 E9.96359
G1 X100.824 Y87.354 E9.98544
G1 X108.799 Y87.354 E10.35679
G1 X109.573 Y87.365 E10.39283
G1 X110.22 Y87.414 E10.42305
G1 X110.857 Y87.542 E10.4533
G1 X111.473 Y87.748 E10.48354
G1 X112.06 Y88.028 E10.51383
G1 X112.607 Y88.377 E10.54404
G1 X113.108 Y88.791 E10.5743
G1 X113.553 Y89.264 E10.60454
G1 X113.938 Y89.788 E10.63482
G1 X114.255 Y90.355 E10.66507
G1 X114.5 Y90.956 E10.69529
G1 X114.669 Y91.583 E10.72553
G1 X114.775 Y92.496 E10.76833
G1 X114.786 Y92.964 E10.79013
G1 X114.785 Y115.712 E11.84937
G1 X114.776 Y116.36 E11.87954
G1 X114.684 Y117.272 E11.92223
G1 X114.613 Y117.646 E11.93995
G1 X114.453 Y118.275 E11.97017
G1 X114.217 Y118.88 E12.00041
G1 X113.915 Y119.44 E12.03004
G1 X113.555 Y119.978 E12.06018
G1 X113.148 Y120.485 E12.09046
G1 X112.528 Y121.066 E12.13002
G1 X112.044 Y121.431 E12.15825
G1 X111.496 Y121.78 E12.1885
G1 X110.957 Y122.04 E12.21637
G1 X110.384 Y122.261 E12.24496
G1 X109.761 Y122.447 E12.27524
G1 X108.928 Y122.582 E12.31453
G1 X108.188 Y122.635 E12.34908
G1 X107.414 Y122.646 E12.38512
G1 X102.12 Y122.645 E12.63163
G1 X101.402 Y122.634 E12.66507
G1 X100.655 Y122.57 E12.69998
G1 X100.161 Y122.486 E12.72331
G1 X99.533 Y122.32 E12.75356
G1 X98.842 Y122.035 E12.78836
G1 X98.571 Y121.9 E12.80246
G1 X98.008 Y121.575 E12.83273
G1 X97.49 Y121.184 E12.86295
G1 X97 Y120.721 E12.89434
G1 X96.565 Y120.239 E12.92458
G1 X96.192 Y119.707 E12.95483
G1 X95.858 Y119.088 E12.98758
G1 X95.683 Y118.709 E13.00702
G1 X95.471 Y118.095 E13.03727
G1 X95.359 Y117.602 E13.06081
G1 X95.281 Y117.137 E13.08276
G1 X95.226 Y116.514 E13.11189
G1 X95.215 Y116.047 E13.13364
G1 X95.214 Y93.237 E14.19577
G1 X95.223 Y92.572 E14.22673
G1 X95.272 Y91.924 E14.25699
G1 X95.4 Y91.287 E14.28725
G1 X95.605 Y90.67 E14.31752
G1 X95.885 Y90.084 E14.34776
G1 X96.234 Y89.536 E14.37802
G1 X96.648 Y89.035 E14.40828
M204 S3000
M205 X10 Y10
G1 F2400 E8.40828
;MESH:led_strip_mk7_test.stl
G0 F3000 X99.829 Y93.488
G0 X101.348 Y93.488
G0 X108.106 Y115.959
M204 S1800
M205 X8 Y8
;TYPE:WALL-INNER
G1 F2400 E14.40828
G1 F1500 X108.049 Y115.966 E14.41095
G1 X101.894 Y115.966 E14.69756
G1 X101.894 Y94.034 E15.7188
G1 X108.106 Y94.034 E16.00806
G1 X108.106 Y115.959 E17.02898
M204 S3000
M205 X10 Y10
G0 F3000 X108.666 Y116.257
M204 S1800
M205 X8 Y8
G1 F1500 X108.63 Y116.357 E17.03393
G1 X108.357 Y116.494 E17.04815
G1 X108.078 Y116.526 E17.06123
G1 X101.563 Y116.526 E17.36459
G1 X101.407 Y116.488 E17.37207
G1 X101.353 Y116.415 E17.3763
G1 X101.334 Y116.296 E17.38191
G1 X101.334 Y93.474 E18.4446
G1 X108.666 Y93.474 E18.78601
G1 X108.666 Y116.257 E19.84688
M204 S3000
M205 X10 Y10
G0 F3000 X109.226 Y116.316
M204 S1800
M205 X8 Y8
;TYPE:WALL-OUTER
G1 F1500 X109.177 Y116.548 E19.85792
G1 X109.039 Y116.75 E19.86931
G1 X108.809 Y116.921 E19.88266
G1 X108.492 Y117.042 E19.89846
G1 X108.107 Y117.086 E19.9165
G1 X101.519 Y117.086 E20.22326
G1 X101.273 Y117.047 E20.23486
G1 X101.072 Y116.945 E20.24536
G1 X100.913 Y116.785 E20.25586
G1 X100.814 Y116.59 E20.26604
G1 X100.774 Y116.341 E20.27779
G1 X100.774 Y92.914 E21.36865
G1 X109.226 Y92.914 E21.76221
G1 X109.226 Y116.316 E22.8519
M204 S3000
M205 X10 Y10
G0 F3000 X109.185 Y116.511
G0 X108.551 Y116.283
G0 X107.556 Y115.416
M204 S1800
M205 X8 Y8
;TYPE:SKIN
G1 F1500 X102.444 Y115.416 E23.08994
G1 X102.444 Y94.584 E24.05996
G1 X107.556 Y94.584 E24.298
G1 X107.556 Y115.416 E25.26802
M204 S3000
M205 X10 Y10
G0 F3000 X103.275 Y115.155
M204 S1800
M205 X8 Y8
G1 F1500 X102.703 Y114.583 E25.30569
M204 S3000
M205 X10 Y10
G0 F3000 X102.703 Y113.791
M204 S1800
M205 X8 Y8
G1 F1500 X104.067 Y115.155 E25.39551
M204 S3000
M205 X10 Y10
G0 F3000 X104.859 Y115.155
M204 S1800
M205 X8 Y8
G1 F1500 X102.703 Y112.999 E25.53749
M204 S3000
M205 X10 Y10
G0 F3000 X102.703 Y112.207
M204 S1800
M205 X8 Y8
G1 F1500 X105.651 Y115.155 E25.73162
M204 S3000
M205 X10 Y10
G0 F3000 X106.443 Y115.155
M204 S1800
M205 X8 Y8
G1 F1500 X102.703 Y111.415 E25.97791
M204 S3000
M205 X10 Y10
G0 F3000 X102.703 Y110.623
M204 S1800
M205 X8 Y8
G1 F1500 X107.235 Y115.155 E26.27635
M204 S3000
M205 X10 Y10
G0 F3000 X107.296 Y114.424
M204 S1800
M205 X8 Y8
G1 F1500 X102.703 Y109.831 E26.5788
M204 S3000
M205 X10 Y10
G0 F3000 X102.703 Y109.039
M204 S1800
M205 X8 Y8
G1 F1500 X107.296 Y113.632 E26.88126
M204 S3000
M205 X10 Y10
G0 F3000 X107.296 Y112.84
M204 S1800
M205 X8 Y8
G1 F1500 X102.703 Y108.247 E27.18372
M204 S3000
M205 X10 Y10
G0 F3000 X102.703 Y107.455
M204 S1800
M205 X8 Y8
G1 F1500 X107.296 Y112.048 E27.48617
M204 S3000
M205 X10 Y10
G0 F3000 X107.296 Y111.256
M204 S1800
M205 X8 Y8
G1 F1500 X102.703 Y106.663 E27.78863
M204 S3000
M205 X10 Y10
G0 F3000 X102.703 Y105.871
M204 S1800
M205 X8 Y8
G1 F1500 X107.296 Y110.464 E28.09109
M204 S3000
M205 X10 Y10
G0 F3000 X107.296 Y109.672
M204 S1800
M205 X8 Y8
G1 F1500 X102.703 Y105.079 E28.39354
M204 S3000
M205 X10 Y10
G0 F3000 X102.703 Y104.286
M204 S1800
M205 X8 Y8
G1 F1500 X107.296 Y108.88 E28.69603
M204 S3000
M205 X10 Y10
G0 F3000 X107.296 Y108.088
M204 S1800
M205 X8 Y8
G1 F1500 X102.703 Y103.494 E28.99852
M204 S3000
M205 X10 Y10
G0 F3000 X102.703 Y102.703
M204 S1800
M205 X8 Y8
G1 F1500 X107.296 Y107.296 E29.30098
M204 S3000
M205 X10 Y10
G0 F3000 X107.296 Y106.504
M204 S1800
M205 X8 Y8
G1 F1500 X102.703 Y101.911 E29.60344
M204 S3000
M205 X10 Y10
G0 F3000 X102.703 Y101.119
M204 S1800
M205 X8 Y8
G1 F1500 X107.296 Y105.712 E29.90589
M204 S3000
M205 X10 Y10
G0 F3000 X107.295 Y104.919
M204 S1800
M205 X8 Y8
G1 F1500 X102.703 Y100.327 E30.20829
M204 S3000
M205 X10 Y10
G0 F3000 X102.703 Y99.535
M204 S1800
M205 X8 Y8
G1 F1500 X107.295 Y104.127 E30.51068
M204 S3000
M205 X10 Y10
G0 F3000 X107.295 Y103.335
M204 S1800
M205 X8 Y8
G1 F1500 X102.703 Y98.743 E30.81307
M204 S3000
M205 X10 Y10
G0 F3000 X102.703 Y97.951
M204 S1800
M205 X8 Y8
G1 F1500 X107.295 Y102.543 E31.11546
M204 S3000
M205 X10 Y10
G0 F3000 X107.295 Y101.751
M204 S1800
M205 X8 Y8
G1 F1500 X102.703 Y97.159 E31.41785
M204 S3000
M205 X10 Y10
G0 F3000 X102.703 Y96.367
M204 S1800
M205 X8 Y8
G1 F1500 X107.295 Y100.959 E31.72024
M204 S3000
M205 X10 Y10
G0 F3000 X107.295 Y100.168
M204 S1800
M205 X8 Y8
G1 F1500 X102.703 Y95.575 E32.02266
M204 S3000
M205 X10 Y10
G0 F3000 X102.763 Y94.844
M204 S1800
M205 X8 Y8
G1 F1500 X107.295 Y99.376 E32.3211
M204 S3000
M205 X10 Y10
G0 F3000 X107.295 Y98.584
M204 S1800
M205 X8 Y8
G1 F1500 X103.555 Y94.844 E32.56739
M204 S3000
M205 X10 Y10
G0 F3000 X104.347 Y94.844
M204 S1800
M205 X8 Y8
G1 F1500 X107.295 Y97.792 E32.76152
M204 S3000
M205 X10 Y10
G0 F3000 X107.295 Y97
M204 S1800
M205 X8 Y8
G1 F1500 X105.139 Y94.844 E32.9035
M204 S3000
M205 X10 Y10
G0 F3000 X105.931 Y94.844
M204 S1800
M205 X8 Y8
G1 F1500 X107.295 Y96.208 E32.99332
M204 S3000
M205 X10 Y10
G0 F3000 X107.295 Y95.416
M204 S1800
M205 X8 Y8
G1 F1500 X106.723 Y94.844 E33.03099
M204 S3000
M205 X10 Y10
;MESH:NONMESH
G0 F600 X106.723 Y94.844 Z0.4
G0 F3000 X108.506 Y116.223
;TIME_ELAPSED:30.804865
;LAYER:1
M204 S1800
M205 X8 Y8
;TYPE:WALL-INNER
;MESH:led_strip_mk7_test.stl
G1 F2250 X108.328 Y116.334 E33.03796
G1 X108.029 Y116.366 E33.04796
G1 X101.601 Y116.366 E33.26176
G1 X101.501 Y116.333 E33.26526
G1 X101.494 Y116.287 E33.26681
G1 X101.494 Y93.634 E34.02025
G1 X108.506 Y93.634 E34.25347
G1 X108.506 Y116.223 E35.00479
M204 S3000
M205 X10 Y10
G0 F4500 X108.906 Y116.282
M204 S1800
M205 X8 Y8
G1 F2250 X108.877 Y116.421 E35.00951
G1 X108.65 Y116.64 E35.02
G1 X108.421 Y116.727 E35.02815
G1 X108.052 Y116.766 E35.04049
G1 X101.542 Y116.766 E35.25701
G1 X101.264 Y116.684 E35.26665
G1 X101.121 Y116.491 E35.27464
G1 X101.094 Y116.316 E35.28053
G1 X101.094 Y93.234 E36.04824
G1 X108.906 Y93.234 E36.30807
G1 X108.906 Y116.282 E37.07465
M204 S3000
M205 X10 Y10
G0 F4500 X109.306 Y116.323
M204 S1800
M205 X8 Y8
;TYPE:WALL-OUTER
G1 F2250 X109.251 Y116.582 E37.08346
G1 X109.099 Y116.805 E37.09243
G1 X108.845 Y116.994 E37.10296
G1 X108.514 Y117.12 E37.11474
G1 X108.075 Y117.166 E37.12942
G1 X101.512 Y117.166 E37.34771
G1 X101.246 Y117.124 E37.35667
G1 X101.025 Y117.011 E37.36492
G1 X100.848 Y116.834 E37.37325
G1 X100.736 Y116.614 E37.38146
G1 X100.694 Y116.346 E37.39048
G1 X100.694 Y92.834 E38.17249
G1 X109.306 Y92.834 E38.45893
G1 X109.306 Y116.323 E39.24018
M204 S3000
M205 X10 Y10
G0 F4500 X109.265 Y116.519
G0 X108.79 Y116.373
G0 X108.116 Y115.964
M204 S1800
M205 X8 Y8
;TYPE:SKIN
G1 F1350 X108.006 Y115.976 E39.24386
G1 X101.884 Y115.976 E39.44748
G1 X101.884 Y94.024 E40.1776
G1 X108.116 Y94.024 E40.38488
G1 X108.116 Y115.964 E41.11461
M204 S3000
M205 X10 Y10
G0 F4500 X107.65 Y115.795
M204 S1800
M205 X8 Y8
G1 F1350 X107.935 Y115.51 E41.12801
M204 S3000
M205 X10 Y10
G0 F4500 X107.935 Y114.944
M204 S1800
M205 X8 Y8
G1 F1350 X107.084 Y115.795 E41.16804
M204 S3000
M205 X10 Y10
G0 F4500 X106.519 Y115.795
M204 S1800
M205 X8 Y8
G1 F1350 X107.935 Y114.378 E41.23467
M204 S3000
M205 X10 Y10
G0 F4500 X107.935 Y113.813
M204 S1800
M205 X8 Y8
G1 F1350 X105.953 Y115.795 E41.3279
M204 S3000
M205 X10 Y10
G0 F4500 X105.387 Y115.795
M204 S1800
M205 X8 Y8
G1 F1350 X107.935 Y113.247 E41.44775
M204 S3000
M205 X10 Y10
G0 F4500 X107.935 Y112.681
M204 S1800
M205 X8 Y8
G1 F1350 X104.822 Y115.795 E41.59419
M204 S3000
M205 X10 Y10
G0 F4500 X104.256 Y115.795
M204 S1800
M205 X8 Y8
G1 F1350 X107.935 Y112.116 E41.76724
M204 S3000
M205 X10 Y10
G0 F4500 X107.935 Y111.55
M204 S1800
M205 X8 Y8
G1 F1350 X103.69 Y115.795 E41.96692
M204 S3000
M205 X10 Y10
G0 F4500 X103.125 Y115.795
M204 S1800
M205 X8 Y8
G1 F1350 X107.935 Y110.984 E42.19319
M204 S3000
M205 X10 Y10
G0 F4500 X107.935 Y110.418
M204 S1800
M205 X8 Y8
G1 F1350 X102.559 Y115.795 E42.44608
M204 S3000
M205 X10 Y10
G0 F4500 X102.064 Y115.724
M204 S1800
M205 X8 Y8
G1 F1350 X107.935 Y109.853 E42.72223
M204 S3000
M205 X10 Y10
G0 F4500 X107.935 Y109.287
M204 S1800
M205 X8 Y8
G1 F1350 X102.064 Y115.158 E42.99839
M204 S3000
M205 X10 Y10
G0 F4500 X102.064 Y114.593
M204 S1800
M205 X8 Y8
G1 F1350 X107.935 Y108.721 E43.27457
M204 S3000
M205 X10 Y10
G0 F4500 X107.935 Y108.156
M204 S1800
M205 X8 Y8
G1 F1350 X102.064 Y114.027 E43.55072
M204 S3000
M205 X10 Y10
G0 F4500 X102.064 Y113.461
M204 S1800
M205 X8 Y8
