;FLAVOR:Marlin
;TIME:1247
;Filament used: 1.35694m
;Layer height: 0.2
;MINX:92.719
;MINY:79.653
;MINZ:0.2
;MAXX:117.281
;MAXY:130.347
;MAXZ:14.8
;Generated with Cura_SteamEngine 4.8.0
M140 S60
M105
M190 S60
M104 S200
M105
M109 S200
M82 ;absolute extrusion mode
; Script based on an original created by tjjfvi (https://github.com/tjjfvi)
; An up-to-date version of the tjjfvi's original script can be found
; here:  https://csi.t6.fyi/
; Note - This script will only work in Cura V4.2 and above!
; --- Global Settings
; layer_height = 0.2
; smooth_spiralized_contours = True
; magic_mesh_surface_mode = normal
; machine_extruder_count = 1
; --- Single Extruder Settings
; speed_z_hop = 10
; retraction_amount = 6
; retraction_hop = 0.075
; retraction_hop_enabled = True
; retraction_enable = True
; retraction_speed = 40
; retraction_retract_speed = 40
; retraction_prime_speed = 40
; speed_travel = 100


G21 ;metric values
G90 ;absolute positioning
M82 ;set extruder to absolute mode
M107 ;start with the fan off
G28 X0 Y0 ;move X/Y to min endstops
G28 Z0 ;move Z to min endstops
G1 Z15.0 F100 ;move the platform down 15mm
G92 E0 ;zero the extruded length
G1 F200 E3 ;extrude 3mm of feed stock
G92 E0 ;zero the extruded length again
G1 F100
G0 Y20 F100
M117 Printing...
G5
G92 E0
G92 E0
G1 F2400 E-6
;LAYER_COUNT:74
;LAYER:0
M106 S255
M204 S3000
M205 X10 Y10
G1 F600 Z0.275
G0 F3000 X94.409 Y82.346 Z0.275
M204 S1800
M205 X8 Y8
;TYPE:SKIRT
G1 F600 Z0.2
G1 F2400 E0
G1 X94.763 Y81.978 E0.02378
G1 X94.931 Y81.816 E0.03464
G1 X95.472 Y81.349 E0.06792
G1 X95.881 Y81.06 E0.09124
G1 X96.489 Y80.678 E0.12468
G1 X97.122 Y80.345 E0.15798
G1 X97.788 Y80.084 E0.19129
G1 X98.287 Y79.942 E0.21545
G1 X98.784 Y79.833 E0.23914
G1 X99.16 Y79.765 E0.25693
G1 X100.206 Y79.664 E0.30587
G1 X100.984 Y79.653 E0.3421
G1 X108.7 Y79.653 E0.70139
G1 X109.434 Y79.663 E0.73557
G1 X110.385 Y79.747 E0.78002
G1 X110.998 Y79.848 E0.80895
G1 X111.697 Y80.004 E0.8423
G1 X112.373 Y80.236 E0.87558
G1 X113.025 Y80.537 E0.90902
G1 X113.342 Y80.699 E0.92559
G1 X113.803 Y80.965 E0.95038
G1 X114.19 Y81.21 E0.97171
G1 X114.772 Y81.625 E1.00499
G1 X115.304 Y82.103 E1.03829
G1 X115.78 Y82.638 E1.07164
G1 X116.192 Y83.222 E1.10492
G1 X116.537 Y83.849 E1.13824
G1 X116.81 Y84.51 E1.17154
G1 X117 Y85.163 E1.20321
G1 X117.125 Y85.719 E1.22974
G1 X117.151 Y85.852 E1.23606
G1 X117.266 Y86.866 E1.28357
G1 X117.281 Y87.409 E1.30887
G1 X117.28 Y123.299 E2.98006
G1 X117.27 Y124.026 E3.01391
G1 X117.221 Y124.74 E3.04724
G1 X117.092 Y125.443 E3.08052
G1 X116.885 Y126.128 E3.11384
G1 X116.603 Y126.785 E3.14713
G1 X116.249 Y127.407 E3.18046
G1 X115.829 Y127.985 E3.21373
G1 X115.346 Y128.513 E3.24705
G1 X114.808 Y128.984 E3.28034
G1 X114.22 Y129.392 E3.31367
G1 X113.59 Y129.732 E3.347
G1 X112.927 Y129.999 E3.38028
G1 X112.238 Y130.19 E3.41358
G1 X111.532 Y130.304 E3.44688
G1 X110.731 Y130.344 E3.48422
G1 X110.551 Y130.347 E3.4926
G1 X99.743 Y130.346 E3.99587
G1 X99.045 Y130.337 E4.02837
G1 X98.332 Y130.288 E4.06165
G1 X97.628 Y130.16 E4.09497
G1 X96.943 Y129.954 E4.12828
G1 X96.286 Y129.672 E4.16157
G1 X95.664 Y129.319 E4.19487
G1 X95.085 Y128.899 E4.22818
G1 X94.556 Y128.417 E4.2615
G1 X94.085 Y127.879 E4.2948
G1 X93.677 Y127.292 E4.32809
G1 X93.337 Y126.662 E4.36142
G1 X93.069 Y125.999 E4.39472
G1 X92.877 Y125.31 E4.42802
G1 X92.763 Y124.604 E4.46132
G1 X92.721 Y123.778 E4.49984
G1 X92.719 Y123.605 E4.50789
G1 X92.72 Y87.255 E6.2005
G1 X92.73 Y86.574 E6.23221
G1 X92.78 Y85.861 E6.2655
G1 X92.91 Y85.157 E6.29883
G1 X93.117 Y84.473 E6.33211
G1 X93.4 Y83.816 E6.36542
G1 X93.754 Y83.194 E6.39874
G1 X94.409 Y82.346 E6.44864
M204 S3000
M205 X10 Y10
G0 F3000 X94.822 Y82.724
M204 S1800
M205 X8 Y8
G1 F2400 X95.319 Y82.219 E6.48163
G1 X95.838 Y81.774 E6.51346
G1 X96.401 Y81.389 E6.54522
G1 X96.778 Y81.158 E6.56581
G1 X97.383 Y80.841 E6.59762
G1 X98.021 Y80.597 E6.62942
G1 X98.555 Y80.453 E6.65517
G1 X99.26 Y80.316 E6.68862
G1 X100.214 Y80.224 E6.73325
G1 X100.984 Y80.213 E6.7691
G1 X108.7 Y80.213 E7.12839
G1 X109.426 Y80.223 E7.1622
G1 X110.294 Y80.3 E7.20278
G1 X110.907 Y80.401 E7.23171
G1 X111.574 Y80.551 E7.26354
G1 X112.496 Y80.903 E7.3095
G1 X112.947 Y81.124 E7.33288
G1 X113.504 Y81.438 E7.36265
G1 X113.891 Y81.683 E7.38398
G1 X114.446 Y82.081 E7.41578
G1 X114.95 Y82.542 E7.44759
G1 X115.398 Y83.058 E7.47941
G1 X115.781 Y83.624 E7.51123
G1 X116.097 Y84.23 E7.54305
G1 X116.339 Y84.869 E7.57487
G1 X116.531 Y85.62 E7.61097
G1 X116.602 Y85.96 E7.62714
G1 X116.707 Y86.885 E7.67049
G1 X116.721 Y87.409 E7.6949
G1 X116.72 Y123.291 E9.36571
G1 X116.71 Y124.018 E9.39957
G1 X116.661 Y124.7 E9.43141
G1 X116.533 Y125.371 E9.46321
G1 X116.326 Y126.022 E9.49502
G1 X116.046 Y126.645 E9.52683
G1 X115.694 Y127.231 E9.55866
G1 X115.277 Y127.772 E9.59046
G1 X114.799 Y128.26 E9.62227
G1 X114.267 Y128.689 E9.6541
G1 X113.689 Y129.053 E9.6859
G1 X113.072 Y129.347 E9.71773
G1 X112.425 Y129.567 E9.74955
G1 X111.757 Y129.71 E9.78136
G1 X111.035 Y129.776 E9.81512
G1 X110.551 Y129.787 E9.83766
G1 X99.751 Y129.787 E10.34055
G1 X99.053 Y129.778 E10.37306
G1 X98.371 Y129.729 E10.4049
G1 X97.7 Y129.601 E10.4367
G1 X97.049 Y129.395 E10.4685
G1 X96.425 Y129.115 E10.50035
G1 X95.839 Y128.764 E10.53215
G1 X95.298 Y128.347 E10.56396
G1 X94.809 Y127.869 E10.5958
G1 X94.38 Y127.338 E10.62759
G1 X94.015 Y126.76 E10.65942
G1 X93.721 Y126.144 E10.6912
G1 X93.5 Y125.497 E10.72304
G1 X93.356 Y124.829 E10.75486
G1 X93.29 Y124.096 E10.78913
G1 X93.279 Y123.605 E10.812
G1 X93.28 Y87.263 E12.50423
G1 X93.29 Y86.582 E12.53595
G1 X93.34 Y85.901 E12.56774
G1 X93.469 Y85.23 E12.59956
G1 X93.676 Y84.579 E12.63137
G1 X93.957 Y83.956 E12.66319
G1 X94.309 Y83.371 E12.69498
G1 X94.822 Y82.724 E12.73343
M204 S3000
M205 X10 Y10
G0 F3000 X95.235 Y83.102
M204 S1800
M205 X8 Y8
G1 F2400 X95.708 Y82.622 E12.76481
G1 X96.202 Y82.201 E12.79503
G1 X96.707 Y81.858 E12.82346
G1 X97.066 Y81.638 E12.84306
G1 X97.642 Y81.339 E12.87328
G1 X98.55 Y81.031 E12.91793
G1 X99.359 Y80.867 E12.95637
G1 X100.222 Y80.784 E12.99674
G1 X100.984 Y80.773 E13.03222
G1 X108.7 Y80.773 E13.39151
G1 X109.419 Y80.783 E13.42499
G1 X110.203 Y80.852 E13.46164
G1 X110.816 Y80.953 E13.49057
G1 X111.45 Y81.098 E13.52085
G1 X112.253 Y81.408 E13.56093
G1 X112.824 Y81.691 E13.59061
G1 X113.591 Y82.156 E13.63237
G1 X114.118 Y82.536 E13.66263
G1 X114.593 Y82.979 E13.69287
G1 X115.011 Y83.476 E13.72311
G1 X115.365 Y84.021 E13.75337
G1 X115.649 Y84.605 E13.78361
G1 X115.909 Y85.417 E13.82331
G1 X116.026 Y85.934 E13.84799
G1 X116.052 Y86.067 E13.85431
G1 X116.147 Y86.904 E13.89353
G1 X116.161 Y87.409 E13.91705
G1 X116.161 Y123.284 E15.58754
G1 X116.151 Y124.011 E15.6214
G1 X116.102 Y124.658 E15.65161
G1 X115.974 Y125.295 E15.68187
G1 X115.768 Y125.912 E15.71216
G1 X115.489 Y126.498 E15.74238
G1 X115.14 Y127.046 E15.77263
G1 X114.726 Y127.546 E15.80286
G1 X114.253 Y127.992 E15.83313
G1 X113.73 Y128.377 E15.86337
G1 X113.163 Y128.695 E15.89364
G1 X112.562 Y128.94 E15.92386
G1 X111.935 Y129.11 E15.95411
G1 X111.019 Y129.216 E15.99705
G1 X110.551 Y129.227 E16.01885
G1 X99.758 Y129.227 E16.52141
G1 X99.06 Y129.218 E16.55392
G1 X98.412 Y129.169 E16.58418
G1 X97.775 Y129.042 E16.61442
G1 X97.159 Y128.837 E16.64465
G1 X96.572 Y128.558 E16.67492
G1 X96.024 Y128.209 E16.70517
G1 X95.523 Y127.796 E16.7354
G1 X95.076 Y127.324 E16.76567
G1 X94.691 Y126.801 E16.79591
G1 X94.373 Y126.234 E16.82618
G1 X94.127 Y125.633 E16.85642
G1 X93.957 Y125.006 E16.88667
G1 X93.85 Y124.081 E16.93003
G1 X93.839 Y123.605 E16.9522
G1 X93.84 Y87.271 E18.64406
G1 X93.85 Y86.59 E18.67578
G1 X93.899 Y85.943 E18.70599
G1 X94.028 Y85.306 E18.73626
G1 X94.234 Y84.69 E18.7665
G1 X94.514 Y84.104 E18.79674
G1 X94.863 Y83.556 E18.82699
G1 X95.235 Y83.102 E18.85432
M204 S3000
M205 X10 Y10
G1 F2400 E12.85432
;MESH:led_strip_mk9_test.stl
G0 F3000 X108.941 Y85.388
G0 X108.941 Y86.907
G0 X109.422 Y86.909
M204 S1800
M205 X8 Y8
;TYPE:WALL-INNER
G1 F2400 E18.85432
G1 F1500 X109.699 Y86.96 E18.86744
G1 X110.031 Y87.126 E18.88472
G1 X110.041 Y87.171 E18.88687
G1 X110.041 Y123.107 E20.5602
G1 X108.927 Y123.107 E20.61207
G1 X108.927 Y86.985 E22.29406
G1 X108.927 Y86.893 E22.29835
G1 X109.332 Y86.893 E22.31721
G1 X109.422 Y86.909 E22.32101
M204 S3000
M205 X10 Y10
G0 F3000 X109.877 Y86.423
M204 S1800
M205 X8 Y8
;TYPE:WALL-OUTER
G1 F1500 X110.331 Y86.65 E22.34465
G1 X110.529 Y86.782 E22.35573
G1 X110.601 Y87.112 E22.37145
G1 X110.601 Y123.667 E24.07361
G1 X108.367 Y123.667 E24.17763
G1 X108.367 Y86.333 E25.91606
G1 X109.384 Y86.333 E25.96342
G1 X109.877 Y86.423 E25.98675
M204 S3000
M205 X10 Y10
G0 F3000 X110.056 Y86.512
G0 X109.558 Y87.213
M204 S1800
M205 X8 Y8
;TYPE:SKIN
G1 F1500 X109.765 Y87.421 E25.99163
M204 S3000
M205 X10 Y10
G0 F3000 X109.497 Y87.435
M204 S1800
M205 X8 Y8
G1 F1500 X109.483 Y87.704 E26.00429
G1 X109.483 Y122.494 E27.63914
G1 X109.227 Y122.803 E27.658
M204 S3000
M205 X10 Y10
G0 F3000 X109.487 Y122.547
G1 F2400 E21.658
G0 F3000 X107.219 Y122.267
G0 X106.66 Y122.267
M204 S1800
M205 X8 Y8
;TYPE:WALL-INNER
G1 F2400 E27.658
G1 F1500 X106.66 Y122.547 E27.67104
G1 X106.38 Y122.547 E27.67948
G1 X100.519 Y122.547 E27.95239
G1 X100.519 Y87.453 E29.58651
G1 X106.659 Y87.453 E29.87242
G1 X106.66 Y122.267 E31.4935
M204 S3000
M205 X10 Y10
G0 F3000 X107.22 Y122.827
M204 S1800
M205 X8 Y8
G1 F1500 X107.22 Y123.107 E31.50654
G1 X106.94 Y123.107 E31.51498
G1 X99.959 Y123.107 E31.84004
G1 X99.959 Y87.033 E33.5198
G1 X100.094 Y86.949 E33.52721
G1 X100.373 Y86.893 E33.54046
G1 X107.219 Y86.893 E33.85923
G1 X107.22 Y122.827 E35.53247
M204 S3000
M205 X10 Y10
G0 F3000 X107.78 Y123.387
M204 S1800
M205 X8 Y8
;TYPE:WALL-OUTER
G1 F1500 X107.78 Y123.667 E35.54551
G1 X107.5 Y123.667 E35.55395
G1 X99.399 Y123.667 E35.93117
G1 X99.399 Y86.779 E37.64883
G1 X99.548 Y86.63 E37.65864
G1 X99.885 Y86.42 E37.67713
G1 X100.318 Y86.333 E37.69769
G1 X107.779 Y86.333 E38.04511
G1 X107.78 Y123.387 E39.7705
M204 S3000
M205 X10 Y10
G0 F3000 X107.78 Y123.587
G0 X107.15 Y123.037
G0 X106.11 Y121.997
M204 S1800
M205 X8 Y8
;TYPE:SKIN
G1 F1500 X101.069 Y121.997 E40.00523
G1 X101.069 Y88.003 E41.58813
G1 X106.109 Y88.003 E41.82281
G1 X106.11 Y121.997 E43.40572
M204 S3000
M205 X10 Y10
G0 F3000 X101.937 Y121.736
M204 S1800
M205 X8 Y8
G1 F1500 X101.328 Y121.127 E43.44582
M204 S3000
M205 X10 Y10
G0 F3000 X101.328 Y120.335
M204 S1800
M205 X8 Y8
G1 F1500 X102.729 Y121.736 E43.53808
M204 S3000
M205 X10 Y10
G0 F3000 X103.521 Y121.736
M204 S1800
M205 X8 Y8
G1 F1500 X101.328 Y119.543 E43.68249
M204 S3000
M205 X10 Y10
G0 F3000 X101.328 Y118.751
M204 S1800
M205 X8 Y8
G1 F1500 X104.313 Y121.736 E43.87906
M204 S3000
M205 X10 Y10
G0 F3000 X105.105 Y121.736
M204 S1800
M205 X8 Y8
G1 F1500 X101.328 Y117.959 E44.12778
M204 S3000
M205 X10 Y10
G0 F3000 X101.328 Y117.167
M204 S1800
M205 X8 Y8
G1 F1500 X105.85 Y121.689 E44.42556
M204 S3000
M205 X10 Y10
G0 F3000 X105.85 Y120.897
M204 S1800
M205 X8 Y8
G1 F1500 X101.328 Y116.375 E44.72334
M204 S3000
M205 X10 Y10
G0 F3000 X101.328 Y115.583
M204 S1800
M205 X8 Y8
G1 F1500 X105.85 Y120.105 E45.02113
M204 S3000
M205 X10 Y10
G0 F3000 X105.85 Y119.313
M204 S1800
M205 X8 Y8
G1 F1500 X101.328 Y114.791 E45.31891
M204 S3000
M205 X10 Y10
G0 F3000 X101.328 Y113.999
M204 S1800
M205 X8 Y8
G1 F1500 X105.85 Y118.521 E45.61669
M204 S3000
M205 X10 Y10
G0 F3000 X105.85 Y117.729
M204 S1800
M205 X8 Y8
G1 F1500 X101.328 Y113.207 E45.91447
M204 S3000
M205 X10 Y10
G0 F3000 X101.328 Y112.415
M204 S1800
M205 X8 Y8
G1 F1500 X105.85 Y116.937 E46.21225
M204 S3000
M205 X10 Y10
G0 F3000 X105.85 Y116.145
M204 S1800
M205 X8 Y8
G1 F1500 X101.328 Y111.623 E46.51003
M204 S3000
M205 X10 Y10
G0 F3000 X101.328 Y110.831
M204 S1800
M205 X8 Y8
G1 F1500 X105.85 Y115.353 E46.80781
M204 S3000
M205 X10 Y10
G0 F3000 X105.85 Y114.561
M204 S1800
M205 X8 Y8
G1 F1500 X101.328 Y110.039 E47.1056
M204 S3000
M205 X10 Y10
G0 F3000 X101.328 Y109.247
M204 S1800
M205 X8 Y8
G1 F1500 X105.85 Y113.769 E47.40338
M204 S3000
M205 X10 Y10
G0 F3000 X105.85 Y112.977
M204 S1800
M205 X8 Y8
G1 F1500 X101.328 Y108.456 E47.70113
M204 S3000
M205 X10 Y10
G0 F3000 X101.328 Y107.664
M204 S1800
M205 X8 Y8
G1 F1500 X105.85 Y112.186 E47.99891
M204 S3000
M205 X10 Y10
G0 F3000 X105.85 Y111.394
M204 S1800
M205 X8 Y8
G1 F1500 X101.328 Y106.872 E48.29669
M204 S3000
M205 X10 Y10
G0 F3000 X101.328 Y106.08
M204 S1800
M205 X8 Y8
G1 F1500 X105.85 Y110.602 E48.59447
M204 S3000
M205 X10 Y10
G0 F3000 X105.849 Y109.809
M204 S1800
M205 X8 Y8
G1 F1500 X101.328 Y105.288 E48.89218
M204 S3000
M205 X10 Y10
G0 F3000 X101.328 Y104.496
M204 S1800
M205 X8 Y8
G1 F1500 X105.849 Y109.017 E49.1899
M204 S3000
M205 X10 Y10
G0 F3000 X105.849 Y108.225
M204 S1800
M205 X8 Y8
G1 F1500 X101.328 Y103.704 E49.48762
M204 S3000
M205 X10 Y10
G0 F3000 X101.328 Y102.912
M204 S1800
M205 X8 Y8
G1 F1500 X105.849 Y107.433 E49.78533
M204 S3000
M205 X10 Y10
G0 F3000 X105.849 Y106.641
M204 S1800
M205 X8 Y8
G1 F1500 X101.328 Y102.12 E50.08305
M204 S3000
M205 X10 Y10
G0 F3000 X101.328 Y101.328
M204 S1800
M205 X8 Y8
G1 F1500 X105.849 Y105.849 E50.38076
M204 S3000
M205 X10 Y10
G0 F3000 X105.849 Y105.057
M204 S1800
M205 X8 Y8
G1 F1500 X101.328 Y100.536 E50.67848
M204 S3000
M205 X10 Y10
G0 F3000 X101.328 Y99.744
M204 S1800
M205 X8 Y8
G1 F1500 X105.849 Y104.265 E50.97619
M204 S3000
M205 X10 Y10
G0 F3000 X105.849 Y103.473
M204 S1800
M205 X8 Y8
G1 F1500 X101.328 Y98.952 E51.27391
M204 S3000
M205 X10 Y10
G0 F3000 X101.328 Y98.16
M204 S1800
M205 X8 Y8
G1 F1500 X105.849 Y102.681 E51.57162
M204 S3000
M205 X10 Y10
G0 F3000 X105.849 Y101.889
M204 S1800
M205 X8 Y8
G1 F1500 X101.328 Y97.368 E51.86934
M204 S3000
M205 X10 Y10
G0 F3000 X101.328 Y96.576
M204 S1800
M205 X8 Y8
G1 F1500 X105.849 Y101.097 E52.16706
M204 S3000
M205 X10 Y10
G0 F3000 X105.849 Y100.305
M204 S1800
M205 X8 Y8
G1 F1500 X101.328 Y95.784 E52.46477
M204 S3000
M205 X10 Y10
G0 F3000 X101.328 Y94.992
M204 S1800
M205 X8 Y8
G1 F1500 X105.849 Y99.513 E52.76249
M204 S3000
M205 X10 Y10
G0 F3000 X105.848 Y98.721
M204 S1800
M205 X8 Y8
G1 F1500 X101.328 Y94.2 E53.06017
M204 S3000
M205 X10 Y10
G0 F3000 X101.328 Y93.408
M204 S1800
M205 X8 Y8
G1 F1500 X105.848 Y97.929 E53.35785
M204 S3000
M205 X10 Y10
G0 F3000 X105.848 Y97.137
M204 S1800
M205 X8 Y8
G1 F1500 X101.328 Y92.616 E53.65554
M204 S3000
M205 X10 Y10
G0 F3000 X101.328 Y91.824
M204 S1800
M205 X8 Y8
G1 F1500 X105.848 Y96.345 E53.95322
M204 S3000
M205 X10 Y10
G0 F3000 X105.848 Y95.553
M204 S1800
M205 X8 Y8
G1 F1500 X101.328 Y91.032 E54.2509
M204 S3000
M205 X10 Y10
G0 F3000 X101.328 Y90.24
M204 S1800
M205 X8 Y8
G1 F1500 X105.848 Y94.761 E54.54858
M204 S3000
M205 X10 Y10
G0 F3000 X105.848 Y93.969
M204 S1800
M205 X8 Y8
G1 F1500 X101.328 Y89.449 E54.84623
M204 S3000
M205 X10 Y10
G0 F3000 X101.328 Y88.657
M204 S1800
M205 X8 Y8
G1 F1500 X105.848 Y93.177 E55.14388
M204 S3000
M205 X10 Y10
G0 F3000 X105.848 Y92.385
M204 S1800
M205 X8 Y8
G1 F1500 X101.725 Y88.262 E55.41539
M204 S3000
M205 X10 Y10
G0 F3000 X102.517 Y88.262
M204 S1800
M205 X8 Y8
G1 F1500 X105.848 Y91.593 E55.63474
M204 S3000
M205 X10 Y10
G0 F3000 X105.848 Y90.801
M204 S1800
M205 X8 Y8
G1 F1500 X103.309 Y88.262 E55.80194
M204 S3000
M205 X10 Y10
G0 F3000 X104.101 Y88.262
M204 S1800
M205 X8 Y8
G1 F1500 X105.848 Y90.009 E55.91698
M204 S3000
M205 X10 Y10
G0 F3000 X105.848 Y89.217
M204 S1800
M205 X8 Y8
G1 F1500 X104.893 Y88.262 E55.97987
M204 S3000
M205 X10 Y10
G0 F3000 X105.685 Y88.262
M204 S1800
M205 X8 Y8
G1 F1500 X105.848 Y88.425 E55.9906
M204 S3000
M205 X10 Y10
G1 F2400 E49.9906
;MESH:NONMESH
G0 F600 X105.848 Y88.425 Z0.4
G0 F3000 X107.219 Y87.077
G0 X108.947 Y87.077
G0 X109.308 Y87.077
;TIME_ELAPSED:49.757470
;LAYER:1
M204 S1800
M205 X8 Y8
;TYPE:WALL-INNER
;MESH:led_strip_mk9_test.stl
G1 F2400 E55.9906
G1 F2250 X109.645 Y87.114 E56.00188
G1 X109.881 Y87.24 E56.01078
G1 X109.881 Y122.947 E57.1984
G1 X109.087 Y122.947 E57.22481
G1 X109.087 Y87.276 E58.41123
G1 X109.087 Y87.275 E58.41126
G1 X109.087 Y87.053 E58.41865
G1 X109.308 Y87.077 E58.42329
M204 S3000
M205 X10 Y10
G0 F4500 X109.776 Y86.731
M204 S1800
M205 X8 Y8
G1 F2250 X110.264 Y86.99 E58.44167
G1 X110.281 Y87.05 E58.44374
G1 X110.281 Y123.347 E59.65098
