;FLAVOR:Marlin
;TIME:4487
;Filament used: 4.2654m
;Layer height: 0.2
;MINX:93.354
;MINY:20.6
;MINZ:0.2
;MAXX:116.646
;MAXY:189.4
;MAXZ:15
;Generated with Cura_SteamEngine 4.8.0
M140 S60
M105
M190 S60
M104 S200
M105
M109 S200
M82 ;absolute extrusion mode
; Script based on an original created by tjjfvi (https://github.com/tjjfvi)
; An up-to-date version of the tjjfvi's original script can be found
; here:  https://csi.t6.fyi/
; Note - This script will only work in Cura V4.2 and above!
; --- Global Settings
; layer_height = 0.2
; smooth_spiralized_contours = True
; magic_mesh_surface_mode = normal
; machine_extruder_count = 1
; --- Single Extruder Settings
; speed_z_hop = 10
; retraction_amount = 6
; retraction_hop = 0.075
; retraction_hop_enabled = True
; retraction_enable = True
; retraction_speed = 40
; retraction_retract_speed = 40
; retraction_prime_speed = 40
; speed_travel = 100


G21 ;metric values
G90 ;absolute positioning
M82 ;set extruder to absolute mode
M107 ;start with the fan off
G28 X0 Y0 ;move X/Y to min endstops
G28 Z0 ;move Z to min endstops
G1 Z15.0 F100 ;move the platform down 15mm
G92 E0 ;zero the extruded length
G1 F200 E3 ;extrude 3mm of feed stock
G92 E0 ;zero the extruded length again
G1 F100
G0 Y20 F100
M117 Printing...
G5
G92 E0
G92 E0
G1 F2400 E-6
;LAYER_COUNT:75
;LAYER:0
M106 S255
M204 S3000
M205 X10 Y10
G1 F600 Z0.275
G0 F3000 X93.651 Y26.069 Z0.275
M204 S1800
M205 X8 Y8
;TYPE:SKIRT
G1 F600 Z0.2
G1 F2400 E0
G1 X93.872 Y25.389 E0.03329
G1 X94.168 Y24.737 E0.06664
G1 X94.535 Y24.123 E0.09994
G1 X94.956 Y23.556 E0.13283
G1 X95.423 Y23.014 E0.16614
G1 X96.085 Y22.418 E0.20762
G1 X96.237 Y22.299 E0.21661
G1 X96.847 Y21.876 E0.25117
G1 X97.073 Y21.738 E0.2635
G1 X97.703 Y21.4 E0.29679
G1 X98.318 Y21.151 E0.32769
G1 X98.883 Y20.965 E0.35539
G1 X99.577 Y20.79 E0.38871
G1 X100.179 Y20.703 E0.41704
G1 X100.79 Y20.644 E0.44562
G1 X101.49 Y20.606 E0.47826
G1 X101.885 Y20.6 E0.49666
G1 X108.539 Y20.6 E0.8065
G1 X109.354 Y20.612 E0.84445
G1 X110.264 Y20.691 E0.88698
G1 X110.54 Y20.735 E0.9
G1 X111.1 Y20.85 E0.92662
G1 X111.783 Y21.062 E0.95992
G1 X112.361 Y21.31 E0.9892
G1 X112.789 Y21.525 E1.01151
G1 X113.403 Y21.892 E1.04482
G1 X113.973 Y22.325 E1.07815
G1 X114.521 Y22.84 E1.11316
G1 X115.003 Y23.369 E1.14649
G1 X115.422 Y23.948 E1.17977
G1 X115.695 Y24.415 E1.20496
G1 X115.813 Y24.638 E1.2167
G1 X116.112 Y25.288 E1.25002
G1 X116.32 Y25.911 E1.2806
G1 X116.368 Y26.083 E1.28892
G1 X116.522 Y26.781 E1.3222
G1 X116.598 Y27.417 E1.35203
G1 X116.632 Y27.978 E1.3782
G1 X116.646 Y28.885 E1.42044
G1 X116.645 Y181.371 E8.52082
G1 X116.634 Y182.089 E8.55426
G1 X116.556 Y182.991 E8.59642
G1 X116.512 Y183.269 E8.60952
G1 X116.361 Y183.969 E8.64287
G1 X116.008 Y184.939 E8.69093
G1 X115.777 Y185.42 E8.71578
G1 X115.721 Y185.527 E8.7214
G1 X115.355 Y186.141 E8.75469
G1 X114.922 Y186.71 E8.78798
G1 X114.404 Y187.262 E8.82323
G1 X113.877 Y187.745 E8.85652
G1 X113.3 Y188.167 E8.8898
G1 X112.732 Y188.495 E8.92035
G1 X112.452 Y188.638 E8.93499
G1 X111.798 Y188.927 E8.96828
G1 X111.115 Y189.141 E9.00161
G1 X110.343 Y189.287 E9.03819
G1 X109.832 Y189.343 E9.06213
G1 X109.094 Y189.387 E9.09655
G1 X108.216 Y189.4 E9.13744
G1 X101.939 Y189.399 E9.42973
G1 X101.241 Y189.389 E9.46223
G1 X100.72 Y189.363 E9.48652
G1 X100.12 Y189.301 E9.51461
G1 X99.415 Y189.181 E9.54791
G1 X98.883 Y189.037 E9.57357
G1 X98.346 Y188.86 E9.5999
G1 X97.682 Y188.592 E9.63324
G1 X97.058 Y188.255 E9.66626
G1 X96.49 Y187.89 E9.6977
G1 X95.92 Y187.459 E9.73098
G1 X95.4 Y186.967 E9.76431
G1 X95.068 Y186.587 E9.78781
G1 X94.793 Y186.238 E9.8085
G1 X94.386 Y185.65 E9.8418
G1 X94.048 Y185.02 E9.87509
G1 X93.782 Y184.356 E9.90839
G1 X93.575 Y183.632 E9.94346
G1 X93.432 Y182.931 E9.97677
G1 X93.367 Y182.204 E10.01076
G1 X93.354 Y181.561 E10.04071
G1 X93.355 Y28.607 E17.16288
G1 X93.366 Y27.9 E17.19581
G1 X93.417 Y27.187 E17.22909
G1 X93.516 Y26.614 E17.25617
G1 X93.651 Y26.069 E17.28232
M204 S3000
M205 X10 Y10
G0 F3000 X94.192 Y26.212
M204 S1800
M205 X8 Y8
G1 F2400 X94.405 Y25.563 E17.31412
G1 X94.693 Y24.943 E17.34595
G1 X95.207 Y24.148 E17.39004
G1 X95.4 Y23.897 E17.40478
G1 X95.848 Y23.381 E17.4366
G1 X96.43 Y22.859 E17.473
G1 X96.582 Y22.74 E17.48199
G1 X97.139 Y22.354 E17.51355
G1 X97.365 Y22.216 E17.52588
G1 X97.967 Y21.894 E17.55767
G1 X98.501 Y21.68 E17.58445
G1 X99.05 Y21.499 E17.61137
G1 X99.713 Y21.334 E17.64319
G1 X100.233 Y21.26 E17.66764
G1 X100.844 Y21.201 E17.69623
G1 X101.511 Y21.166 E17.72733
G1 X101.89 Y21.16 E17.74498
G1 X108.539 Y21.16 E18.05458
G1 X109.346 Y21.172 E18.09216
G1 X110.175 Y21.244 E18.13091
G1 X110.451 Y21.288 E18.14392
G1 X110.964 Y21.393 E18.16831
G1 X111.616 Y21.598 E18.20013
G1 X112.115 Y21.813 E18.22543
G1 X112.53 Y22.022 E18.24707
G1 X113.115 Y22.373 E18.27884
G1 X113.656 Y22.791 E18.31067
G1 X114.129 Y23.24 E18.34104
G1 X114.588 Y23.746 E18.37285
G1 X114.984 Y24.303 E18.40467
G1 X115.318 Y24.9 E18.43653
G1 X115.602 Y25.521 E18.46832
G1 X115.781 Y26.061 E18.49481
G1 X115.829 Y26.233 E18.50313
G1 X116.012 Y27.197 E18.54882
G1 X116.041 Y27.475 E18.56183
G1 X116.072 Y27.987 E18.58572
G1 X116.086 Y28.885 E18.62754
G1 X116.085 Y181.362 E25.72751
G1 X116.074 Y182.08 E25.76094
G1 X116.003 Y182.904 E25.79945
G1 X115.959 Y183.182 E25.81256
G1 X115.813 Y183.849 E25.84435
G1 X115.499 Y184.705 E25.88681
G1 X115.281 Y185.16 E25.9103
G1 X115.225 Y185.267 E25.91593
G1 X114.874 Y185.853 E25.94773
G1 X114.233 Y186.635 E25.99482
G1 X114.003 Y186.871 E26.01016
G1 X113.499 Y187.332 E26.04197
G1 X112.944 Y187.73 E26.07377
G1 X112.477 Y187.996 E26.09879
G1 X112.197 Y188.139 E26.11343
G1 X111.572 Y188.414 E26.14523
G1 X110.918 Y188.613 E26.17706
G1 X110.273 Y188.732 E26.2076
G1 X109.427 Y188.812 E26.24717
G1 X109.085 Y188.827 E26.26311
G1 X108.216 Y188.84 E26.30358
G1 X101.947 Y188.839 E26.59549
G1 X101.249 Y188.829 E26.62799
G1 X100.501 Y188.781 E26.6629
G1 X100.183 Y188.745 E26.6778
G1 X99.184 Y188.542 E26.72527
G1 X98.526 Y188.33 E26.75746
G1 X97.893 Y188.072 E26.78929
G1 X97.351 Y187.778 E26.818
G1 X96.802 Y187.425 E26.84839
G1 X96.258 Y187.012 E26.88019
G1 X95.557 Y186.3 E26.92672
G1 X95.235 Y185.895 E26.95081
G1 X94.848 Y185.332 E26.98262
G1 X94.529 Y184.727 E27.01447
G1 X94.199 Y183.8 E27.06029
G1 X94.117 Y183.489 E27.07527
G1 X93.982 Y182.819 E27.10709
G1 X93.927 Y182.186 E27.13668
G1 X93.914 Y181.556 E27.16602
G1 X93.915 Y28.616 E34.28755
G1 X93.926 Y27.909 E34.32047
G1 X93.976 Y27.228 E34.35227
G1 X94.065 Y26.727 E34.37596
G1 X94.192 Y26.212 E34.40066
M204 S3000
M205 X10 Y10
G0 F3000 X94.733 Y26.355
M204 S1800
M205 X8 Y8
G1 F2400 X94.938 Y25.739 E34.43089
G1 X95.217 Y25.152 E34.46115
G1 X95.651 Y24.49 E34.49801
G1 X95.844 Y24.239 E34.51275
G1 X96.271 Y23.749 E34.54302
G1 X96.775 Y23.3 E34.57445
G1 X96.927 Y23.181 E34.58344
G1 X97.43 Y22.832 E34.61195
G1 X97.656 Y22.694 E34.62428
G1 X98.231 Y22.39 E34.65456
G1 X98.875 Y22.144 E34.68666
G1 X99.218 Y22.034 E34.70344
G1 X99.848 Y21.878 E34.73366
G1 X100.287 Y21.817 E34.7543
G1 X100.898 Y21.758 E34.78288
G1 X101.532 Y21.726 E34.81244
G1 X101.895 Y21.72 E34.82934
G1 X108.539 Y21.72 E35.13872
G1 X109.337 Y21.732 E35.17588
G1 X110.087 Y21.797 E35.21093
G1 X110.813 Y21.933 E35.24533
G1 X111.448 Y22.133 E35.27633
G1 X112.057 Y22.408 E35.30744
G1 X112.27 Y22.518 E35.3186
G1 X112.826 Y22.854 E35.34885
G1 X113.52 Y23.428 E35.39079
G1 X113.736 Y23.64 E35.40488
G1 X114.171 Y24.122 E35.43511
G1 X114.543 Y24.655 E35.46538
G1 X114.823 Y25.162 E35.49235
G1 X115.091 Y25.753 E35.52257
G1 X115.29 Y26.384 E35.55337
G1 X115.456 Y27.255 E35.59466
G1 X115.512 Y27.996 E35.62926
G1 X115.526 Y28.885 E35.67067
G1 X115.525 Y181.354 E42.77026
G1 X115.514 Y182.072 E42.8037
G1 X115.45 Y182.816 E42.83847
G1 X115.406 Y183.094 E42.85158
G1 X115.265 Y183.729 E42.88186
G1 X114.99 Y184.472 E42.91875
G1 X114.729 Y185.007 E42.94647
G1 X114.393 Y185.563 E42.97672
G1 X113.832 Y186.244 E43.01781
G1 X113.602 Y186.48 E43.03315
G1 X113.121 Y186.917 E43.06341
G1 X112.59 Y187.291 E43.09366
G1 X111.943 Y187.64 E43.12789
G1 X111.347 Y187.9 E43.15816
G1 X110.724 Y188.084 E43.18841
G1 X110.203 Y188.176 E43.21305
G1 X109.386 Y188.254 E43.25126
G1 X109.076 Y188.267 E43.26571
G1 X108.216 Y188.28 E43.30576
G1 X101.955 Y188.279 E43.5973
G1 X101.257 Y188.269 E43.6298
G1 X100.564 Y188.224 E43.66214
G1 X100.246 Y188.188 E43.67704
G1 X99.342 Y188.005 E43.71999
G1 X98.706 Y187.8 E43.75111
G1 X98.105 Y187.553 E43.78136
G1 X97.644 Y187.3 E43.80585
G1 X97.114 Y186.96 E43.83517
G1 X96.598 Y186.566 E43.8654
G1 X95.988 Y185.943 E43.906
G1 X95.677 Y185.551 E43.9293
G1 X95.311 Y185.015 E43.95952
G1 X95.013 Y184.437 E43.9898
G1 X94.74 Y183.657 E44.02828
G1 X94.658 Y183.346 E44.04326
G1 X94.532 Y182.709 E44.0735
G1 X94.487 Y182.168 E44.09877
G1 X94.474 Y181.552 E44.12746
G1 X94.475 Y28.625 E51.24839
G1 X94.486 Y27.918 E51.28131
G1 X94.536 Y27.27 E51.31157
G1 X94.68 Y26.555 E51.34554
G1 X94.733 Y26.355 E51.35517
M204 S3000
M205 X10 Y10
G1 F2400 E45.35517
;MESH:led_strip_mk6.stl
G0 F3000 X99.149 Y27.711
G0 X100.613 Y28.11
G0 X108.846 Y181.6
M204 S1800
M205 X8 Y8
;TYPE:WALL-INNER
G1 F2400 E51.35517
G1 F1500 X101.394 Y181.6 E51.70217
G1 X101.154 Y181.575 E51.7134
G1 X101.154 Y28.429 E58.84452
G1 X101.524 Y28.4 E58.8618
G1 X108.846 Y28.4 E59.20275
G1 X108.846 Y181.6 E66.33638
M204 S3000
M205 X10 Y10
G0 F3000 X109.28 Y27.963
G0 X109.334 Y27.879
M204 S1800
M205 X8 Y8
G1 F1500 X109.381 Y27.938 E66.33989
G1 X109.406 Y28.156 E66.35011
G1 X109.406 Y181.911 E73.50959
G1 X109.364 Y182.079 E73.51765
G1 X109.306 Y182.127 E73.52116
G1 X108.931 Y182.16 E73.53868
G1 X101.368 Y182.16 E73.89085
G1 X101.011 Y182.124 E73.90756
G1 X100.624 Y181.956 E73.9272
G1 X100.594 Y181.894 E73.93041
G1 X100.594 Y28.106 E81.09142
G1 X100.624 Y28.044 E81.09463
G1 X100.76 Y27.957 E81.10215
G1 X101.004 Y27.879 E81.11408
G1 X101.507 Y27.84 E81.13757
G1 X109.177 Y27.84 E81.49472
G1 X109.334 Y27.879 E81.50225
M204 S3000
M205 X10 Y10
G0 F3000 X109.467 Y27.319
M204 S1800
M205 X8 Y8
;TYPE:WALL-OUTER
G1 F1500 X109.668 Y27.421 E81.51274
G1 X109.825 Y27.578 E81.52308
G1 X109.925 Y27.775 E81.53337
G1 X109.966 Y28.125 E81.54978
G1 X109.966 Y181.955 E88.71275
G1 X109.926 Y182.207 E88.72463
G1 X109.821 Y182.414 E88.73544
G1 X109.657 Y182.577 E88.7462
G1 X109.464 Y182.676 E88.7563
G1 X108.956 Y182.72 E88.78005
G1 X101.342 Y182.72 E89.13459
G1 X100.893 Y182.675 E89.1556
G1 X100.521 Y182.554 E89.17381
G1 X100.245 Y182.378 E89.18906
G1 X100.088 Y182.182 E89.20075
G1 X100.034 Y181.964 E89.21121
G1 X100.034 Y28.036 E96.37874
G1 X100.088 Y27.818 E96.3892
G1 X100.245 Y27.622 E96.40089
G1 X100.521 Y27.446 E96.41613
G1 X100.893 Y27.326 E96.43433
G1 X101.49 Y27.28 E96.46222
G1 X109.221 Y27.28 E96.8222
G1 X109.467 Y27.319 E96.8338
M204 S3000
M205 X10 Y10
G0 F3000 X109.645 Y27.409
G0 X109.28 Y27.963
G0 X108.296 Y28.95
M204 S1800
M205 X8 Y8
;TYPE:SKIN
G1 F1500 X108.296 Y181.05 E103.91621
G1 X101.704 Y181.05 E104.22317
G1 X101.704 Y28.95 E111.30558
G1 X108.296 Y28.95 E111.61253
M204 S3000
M205 X10 Y10
G0 F3000 X107.614 Y29.21
M204 S1800
M205 X8 Y8
G1 F1500 X108.036 Y29.632 E111.64032
M204 S3000
M205 X10 Y10
G0 F3000 X108.036 Y30.423
M204 S1800
M205 X8 Y8
G1 F1500 X106.822 Y29.21 E111.72023
M204 S3000
M205 X10 Y10
G0 F3000 X106.03 Y29.21
M204 S1800
M205 X8 Y8
G1 F1500 X108.036 Y31.215 E111.8523
M204 S3000
M205 X10 Y10
G0 F3000 X108.036 Y32.007
M204 S1800
M205 X8 Y8
G1 F1500 X105.238 Y29.21 E112.03652
M204 S3000
M205 X10 Y10
G0 F3000 X104.446 Y29.21
M204 S1800
M205 X8 Y8
G1 F1500 X108.036 Y32.799 E112.27289
M204 S3000
M205 X10 Y10
G0 F3000 X108.036 Y33.591
M204 S1800
M205 X8 Y8
G1 F1500 X103.654 Y29.21 E112.56142
M204 S3000
M205 X10 Y10
G0 F3000 X102.862 Y29.21
M204 S1800
M205 X8 Y8
G1 F1500 X108.036 Y34.383 E112.9021
M204 S3000
M205 X10 Y10
G0 F3000 X108.036 Y35.175
M204 S1800
M205 X8 Y8
G1 F1500 X102.07 Y29.21 E113.29494
M204 S3000
M205 X10 Y10
G0 F3000 X101.963 Y29.895
M204 S1800
M205 X8 Y8
G1 F1500 X108.036 Y35.967 E113.69483
M204 S3000
M205 X10 Y10
G0 F3000 X108.036 Y36.759
M204 S1800
M205 X8 Y8
G1 F1500 X101.963 Y30.687 E114.09471
M204 S3000
M205 X10 Y10
G0 F3000 X101.963 Y31.478
M204 S1800
M205 X8 Y8
G1 F1500 X108.036 Y37.551 E114.49463
M204 S3000
M205 X10 Y10
G0 F3000 X108.036 Y38.343
M204 S1800
M205 X8 Y8
G1 F1500 X101.963 Y32.27 E114.89455
M204 S3000
M205 X10 Y10
G0 F3000 X101.963 Y33.062
M204 S1800
M205 X8 Y8
G1 F1500 X108.036 Y39.135 E115.29446
M204 S3000
M205 X10 Y10
G0 F3000 X108.036 Y39.927
M204 S1800
M205 X8 Y8
G1 F1500 X101.963 Y33.854 E115.69438
M204 S3000
M205 X10 Y10
G0 F3000 X101.963 Y34.646
M204 S1800
M205 X8 Y8
G1 F1500 X108.036 Y40.719 E116.0943
M204 S3000
M205 X10 Y10
G0 F3000 X108.036 Y41.511
M204 S1800
M205 X8 Y8
G1 F1500 X101.963 Y35.438 E116.49422
M204 S3000
M205 X10 Y10
G0 F3000 X101.963 Y36.23
M204 S1800
M205 X8 Y8
G1 F1500 X108.036 Y42.303 E116.89413
M204 S3000
M205 X10 Y10
G0 F3000 X108.036 Y43.095
M204 S1800
M205 X8 Y8
G1 F1500 X101.963 Y37.022 E117.29405
M204 S3000
M205 X10 Y10
G0 F3000 X101.963 Y37.814
M204 S1800
M205 X8 Y8
G1 F1500 X108.036 Y43.887 E117.69397
M204 S3000
M205 X10 Y10
G0 F3000 X108.036 Y44.679
M204 S1800
M205 X8 Y8
G1 F1500 X101.963 Y38.606 E118.09389
M204 S3000
M205 X10 Y10
G0 F3000 X101.963 Y39.398
M204 S1800
M205 X8 Y8
G1 F1500 X108.036 Y45.471 E118.4938
M204 S3000
M205 X10 Y10
G0 F3000 X108.036 Y46.263
M204 S1800
M205 X8 Y8
G1 F1500 X101.963 Y40.19 E118.89372
M204 S3000
M205 X10 Y10
G0 F3000 X101.963 Y40.982
M204 S1800
M205 X8 Y8
G1 F1500 X108.036 Y47.055 E119.29364
M204 S3000
M205 X10 Y10
G0 F3000 X108.036 Y47.847
M204 S1800
M205 X8 Y8
G1 F1500 X101.963 Y41.774 E119.69356
M204 S3000
M205 X10 Y10
G0 F3000 X101.963 Y42.566
M204 S1800
M205 X8 Y8
G1 F1500 X108.036 Y48.639 E120.09347
M204 S3000
M205 X10 Y10
G0 F3000 X108.036 Y49.431
M204 S1800
M205 X8 Y8
G1 F1500 X101.963 Y43.358 E120.49339
M204 S3000
M205 X10 Y10
G0 F3000 X101.963 Y44.15
M204 S1800
M205 X8 Y8
G1 F1500 X108.036 Y50.222 E120.89327
M204 S3000
M205 X10 Y10
G0 F3000 X108.036 Y51.014
M204 S1800
M205 X8 Y8
G1 F1500 X101.963 Y44.942 E121.29316
M204 S3000
M205 X10 Y10
G0 F3000 X101.963 Y45.734
M204 S1800
M205 X8 Y8
G1 F1500 X108.036 Y51.806 E121.69304
M204 S3000
M205 X10 Y10
G0 F3000 X108.036 Y52.598
M204 S1800
M205 X8 Y8
G1 F1500 X101.963 Y46.526 E122.09293
M204 S3000
M205 X10 Y10
G0 F3000 X101.963 Y47.318
M204 S1800
M205 X8 Y8
G1 F1500 X108.036 Y53.39 E122.49281
M204 S3000
M205 X10 Y10
G0 F3000 X108.036 Y54.182
M204 S1800
M205 X8 Y8
G1 F1500 X101.963 Y48.11 E122.8927
M204 S3000
M205 X10 Y10
G0 F3000 X101.963 Y48.902
M204 S1800
M205 X8 Y8
G1 F1500 X108.036 Y54.974 E123.29258
M204 S3000
M205 X10 Y10
G0 F3000 X108.036 Y55.766
M204 S1800
M205 X8 Y8
G1 F1500 X101.963 Y49.694 E123.69247
M204 S3000
M205 X10 Y10
G0 F3000 X101.963 Y50.486
M204 S1800
M205 X8 Y8
G1 F1500 X108.036 Y56.558 E124.09235
M204 S3000
M205 X10 Y10
G0 F3000 X108.036 Y57.35
M204 S1800
M205 X8 Y8
G1 F1500 X101.963 Y51.277 E124.49227
M204 S3000
M205 X10 Y10
G0 F3000 X101.963 Y52.069
M204 S1800
M205 X8 Y8
G1 F1500 X108.036 Y58.142 E124.89219
M204 S3000
M205 X10 Y10
G0 F3000 X108.036 Y58.934
M204 S1800
M205 X8 Y8
G1 F1500 X101.963 Y52.861 E125.2921
M204 S3000
M205 X10 Y10
G0 F3000 X101.963 Y53.653
M204 S1800
M205 X8 Y8
G1 F1500 X108.036 Y59.726 E125.69202
M204 S3000
M205 X10 Y10
G0 F3000 X108.036 Y60.518
M204 S1800
M205 X8 Y8
G1 F1500 X101.963 Y54.445 E126.09194
M204 S3000
M205 X10 Y10
G0 F3000 X101.963 Y55.237
M204 S1800
M205 X8 Y8
G1 F1500 X108.036 Y61.31 E126.49186
M204 S3000
M205 X10 Y10
G0 F3000 X108.036 Y62.102
M204 S1800
M205 X8 Y8
G1 F1500 X101.963 Y56.029 E126.89177
M204 S3000
M205 X10 Y10
G0 F3000 X101.963 Y56.821
M204 S1800
M205 X8 Y8
G1 F1500 X108.036 Y62.894 E127.29169
M204 S3000
M205 X10 Y10
G0 F3000 X108.036 Y63.686
M204 S1800
M205 X8 Y8
G1 F1500 X101.963 Y57.613 E127.69161
M204 S3000
M205 X10 Y10
G0 F3000 X101.963 Y58.405
M204 S1800
M205 X8 Y8
G1 F1500 X108.036 Y64.478 E128.09153
M204 S3000
M205 X10 Y10
G0 F3000 X108.036 Y65.27
M204 S1800
M205 X8 Y8
G1 F1500 X101.963 Y59.197 E128.49144
M204 S3000
M205 X10 Y10
G0 F3000 X101.963 Y59.989
M204 S1800
M205 X8 Y8
G1 F1500 X108.036 Y66.062 E128.89136
M204 S3000
