;FLAVOR:Marlin
;TIME:1165
;Filament used: 1.20368m
;Layer height: 0.2
;MINX:91.957
;MINY:82.58
;MINZ:0.2
;MAXX:118.043
;MAXY:127.42
;MAXZ:14.8
;Generated with Cura_SteamEngine 4.8.0
M140 S60
M105
M190 S60
M104 S200
M105
M109 S200
M82 ;absolute extrusion mode
; Script based on an original created by tjjfvi (https://github.com/tjjfvi)
; An up-to-date version of the tjjfvi's original script can be found
; here:  https://csi.t6.fyi/
; Note - This script will only work in Cura V4.2 and above!
; --- Global Settings
; layer_height = 0.2
; smooth_spiralized_contours = True
; magic_mesh_surface_mode = normal
; machine_extruder_count = 1
; --- Single Extruder Settings
; speed_z_hop = 10
; retraction_amount = 6
; retraction_hop = 0.075
; retraction_hop_enabled = True
; retraction_enable = True
; retraction_speed = 40
; retraction_retract_speed = 40
; retraction_prime_speed = 40
; speed_travel = 100


G21 ;metric values
G90 ;absolute positioning
M82 ;set extruder to absolute mode
M107 ;start with the fan off
G28 X0 Y0 ;move X/Y to min endstops
G28 Z0 ;move Z to min endstops
G1 Z15.0 F100 ;move the platform down 15mm
G92 E0 ;zero the extruded length
G1 F200 E3 ;extrude 3mm of feed stock
G92 E0 ;zero the extruded length again
G1 F100
G0 Y20 F100
M117 Printing...
G5
G92 E0
G92 E0
G1 F2400 E-6
;LAYER_COUNT:74
;LAYER:0
M106 S255
M204 S3000
M205 X10 Y10
G1 F600 Z0.275
G0 F3000 X93.413 Y85.557 Z0.275
M204 S1800
M205 X8 Y8
;TYPE:SKIRT
G1 F600 Z0.2
G1 F2400 E0
G1 X94.093 Y84.845 E0.04584
G1 X94.404 Y84.566 E0.0653
G1 X94.963 Y84.119 E0.09863
G1 X95.554 Y83.744 E0.13122
G1 X96.173 Y83.416 E0.16384
G1 X96.826 Y83.124 E0.19715
G1 X97.508 Y82.906 E0.23049
G1 X98.366 Y82.729 E0.27128
G1 X98.759 Y82.664 E0.28983
G1 X99.627 Y82.592 E0.33039
G1 X100.455 Y82.58 E0.36894
G1 X109.464 Y82.58 E0.78844
G1 X110.195 Y82.59 E0.82248
G1 X111.13 Y82.672 E0.86619
G1 X111.703 Y82.765 E0.89322
G1 X112.402 Y82.919 E0.92655
G1 X113.11 Y83.162 E0.9614
G1 X113.351 Y83.261 E0.97353
G1 X113.848 Y83.49 E0.99901
G1 X114.555 Y83.873 E1.03646
G1 X114.98 Y84.145 E1.05995
G1 X115.172 Y84.278 E1.07083
G1 X115.737 Y84.717 E1.10414
G1 X116.248 Y85.217 E1.13743
G1 X116.701 Y85.771 E1.17076
G1 X117.089 Y86.372 E1.20407
G1 X117.408 Y87.012 E1.23737
G1 X117.653 Y87.684 E1.27067
G1 X117.862 Y88.529 E1.3112
G1 X117.981 Y89.234 E1.3445
G1 X118.02 Y89.813 E1.37152
G1 X118.042 Y90.858 E1.42019
G1 X118.043 Y120.284 E2.79039
G1 X118.032 Y121.099 E2.82834
G1 X117.983 Y121.813 E2.86166
G1 X117.854 Y122.516 E2.89494
G1 X117.647 Y123.201 E2.92827
G1 X117.365 Y123.858 E2.96156
G1 X117.011 Y124.48 E2.99488
G1 X116.591 Y125.058 E3.02815
G1 X116.108 Y125.586 E3.06147
G1 X115.57 Y126.057 E3.09477
G1 X114.982 Y126.465 E3.12809
G1 X114.352 Y126.805 E3.16143
G1 X113.689 Y127.072 E3.19471
G1 X113 Y127.263 E3.228
G1 X112.294 Y127.377 E3.2613
G1 X111.493 Y127.417 E3.29865
G1 X111.313 Y127.42 E3.30703
G1 X98.981 Y127.419 E3.88126
G1 X98.283 Y127.41 E3.91376
G1 X97.57 Y127.361 E3.94704
G1 X96.866 Y127.233 E3.98036
G1 X96.181 Y127.027 E4.01367
G1 X95.524 Y126.745 E4.04696
G1 X94.902 Y126.392 E4.08026
G1 X94.323 Y125.972 E4.11357
G1 X93.794 Y125.49 E4.14689
G1 X93.323 Y124.952 E4.18019
G1 X92.915 Y124.365 E4.21348
G1 X92.575 Y123.735 E4.24681
G1 X92.307 Y123.072 E4.28011
G1 X92.115 Y122.383 E4.31341
G1 X92.001 Y121.677 E4.34672
G1 X91.959 Y120.851 E4.38523
G1 X91.957 Y120.678 E4.39328
G1 X91.958 Y90.202 E5.81237
G1 X91.968 Y89.516 E5.84432
G1 X92.018 Y88.802 E5.87765
G1 X92.148 Y88.099 E5.91094
G1 X92.355 Y87.414 E5.94426
G1 X92.638 Y86.757 E5.97757
G1 X92.992 Y86.136 E6.01085
G1 X93.413 Y85.557 E6.04419
M204 S3000
M205 X10 Y10
G0 F3000 X93.965 Y85.772
M204 S1800
M205 X8 Y8
G1 F2400 X94.467 Y85.262 E6.07751
G1 X94.778 Y84.983 E6.09696
G1 X95.313 Y84.557 E6.12881
G1 X95.827 Y84.233 E6.1571
G1 X96.43 Y83.913 E6.18889
G1 X97.054 Y83.636 E6.22068
G1 X98.008 Y83.368 E6.26682
G1 X98.693 Y83.241 E6.29926
G1 X98.844 Y83.218 E6.30637
G1 X99.635 Y83.152 E6.34333
G1 X100.455 Y83.14 E6.38152
G1 X109.464 Y83.14 E6.80102
G1 X110.187 Y83.15 E6.83469
G1 X111.041 Y83.224 E6.8746
G1 X111.614 Y83.317 E6.90163
G1 X112.28 Y83.466 E6.93341
G1 X112.897 Y83.68 E6.96382
G1 X113.591 Y83.988 E6.99917
G1 X114.264 Y84.351 E7.03478
G1 X114.853 Y84.738 E7.0676
G1 X115.391 Y85.16 E7.09943
G1 X115.876 Y85.641 E7.13124
G1 X116.302 Y86.175 E7.16305
G1 X116.662 Y86.756 E7.19488
G1 X116.952 Y87.374 E7.22666
G1 X117.223 Y88.244 E7.26909
G1 X117.316 Y88.653 E7.28862
G1 X117.428 Y89.327 E7.32044
G1 X117.46 Y89.825 E7.34368
G1 X117.482 Y90.87 E7.39235
G1 X117.483 Y120.284 E8.76199
G1 X117.472 Y121.091 E8.79957
G1 X117.423 Y121.773 E8.8314
G1 X117.295 Y122.444 E8.86321
G1 X117.088 Y123.095 E8.89502
G1 X116.808 Y123.718 E8.92683
G1 X116.456 Y124.304 E8.95866
G1 X116.039 Y124.845 E8.99046
G1 X115.561 Y125.333 E9.02227
G1 X115.029 Y125.762 E9.05409
G1 X114.451 Y126.126 E9.0859
G1 X113.834 Y126.42 E9.11773
G1 X113.187 Y126.64 E9.14955
G1 X112.519 Y126.783 E9.18136
G1 X111.797 Y126.849 E9.21512
G1 X111.313 Y126.86 E9.23766
G1 X98.989 Y126.86 E9.81152
G1 X98.291 Y126.851 E9.84402
G1 X97.609 Y126.802 E9.87586
G1 X96.938 Y126.674 E9.90767
G1 X96.287 Y126.468 E9.93946
G1 X95.663 Y126.188 E9.97131
G1 X95.077 Y125.837 E10.00312
G1 X94.536 Y125.42 E10.03492
G1 X94.047 Y124.942 E10.06676
G1 X93.618 Y124.411 E10.09855
G1 X93.253 Y123.833 E10.13038
G1 X92.959 Y123.217 E10.16216
G1 X92.738 Y122.57 E10.194
G1 X92.594 Y121.902 E10.22582
G1 X92.528 Y121.169 E10.26009
G1 X92.517 Y120.678 E10.28296
G1 X92.518 Y90.21 E11.70168
G1 X92.528 Y89.524 E11.73362
G1 X92.578 Y88.842 E11.76546
G1 X92.707 Y88.172 E11.79724
G1 X92.913 Y87.52 E11.82907
G1 X93.195 Y86.898 E11.86088
G1 X93.547 Y86.312 E11.89271
G1 X93.965 Y85.772 E11.9245
M204 S3000
M205 X10 Y10
G0 F3000 X94.101 Y86.498
M204 S1800
M205 X8 Y8
G1 F2400 X94.515 Y85.997 E11.95477
G1 X95.152 Y85.4 E11.99542
G1 X95.661 Y84.997 E12.02565
G1 X96.101 Y84.722 E12.04981
G1 X96.687 Y84.411 E12.0807
G1 X97.281 Y84.149 E12.11093
G1 X98.113 Y83.918 E12.15114
G1 X98.777 Y83.794 E12.18259
G1 X98.928 Y83.771 E12.1897
G1 X99.644 Y83.712 E12.22316
G1 X100.455 Y83.7 E12.26092
G1 X109.464 Y83.7 E12.68042
G1 X110.179 Y83.71 E12.71372
G1 X110.951 Y83.777 E12.7498
G1 X111.524 Y83.87 E12.77683
G1 X112.158 Y84.014 E12.8071
G1 X112.684 Y84.198 E12.83305
G1 X113.335 Y84.486 E12.8662
G1 X113.973 Y84.83 E12.89995
G1 X114.535 Y85.199 E12.93126
G1 X115.045 Y85.601 E12.96149
G1 X115.502 Y86.062 E12.99172
G1 X115.899 Y86.577 E13.022
G1 X116.229 Y87.136 E13.05223
G1 X116.489 Y87.731 E13.08246
G1 X116.677 Y88.368 E13.11339
G1 X116.77 Y88.777 E13.13292
G1 X116.874 Y89.418 E13.16316
G1 X116.9 Y89.837 E13.1827
G1 X116.923 Y90.993 E13.23654
G1 X116.923 Y120.357 E14.60385
G1 X116.913 Y121.084 E14.63771
G1 X116.864 Y121.731 E14.66792
G1 X116.736 Y122.368 E14.69818
G1 X116.53 Y122.985 E14.72847
G1 X116.251 Y123.571 E14.75869
G1 X115.902 Y124.119 E14.78894
G1 X115.488 Y124.619 E14.81917
G1 X115.015 Y125.065 E14.84944
G1 X114.492 Y125.45 E14.87968
G1 X113.925 Y125.768 E14.90995
G1 X113.324 Y126.013 E14.94017
G1 X112.697 Y126.183 E14.97042
G1 X111.781 Y126.289 E15.01336
G1 X111.313 Y126.3 E15.03516
G1 X98.996 Y126.3 E15.60869
G1 X98.298 Y126.291 E15.64119
G1 X97.65 Y126.242 E15.67145
G1 X97.013 Y126.115 E15.7017
G1 X96.397 Y125.91 E15.73193
G1 X95.81 Y125.631 E15.76219
G1 X95.262 Y125.282 E15.79244
G1 X94.761 Y124.869 E15.82268
G1 X94.314 Y124.397 E15.85295
G1 X93.929 Y123.874 E15.88319
G1 X93.611 Y123.307 E15.91346
G1 X93.365 Y122.706 E15.9437
G1 X93.195 Y122.079 E15.97395
G1 X93.088 Y121.154 E16.01731
G1 X93.077 Y120.678 E16.03948
G1 X93.078 Y90.218 E17.45782
G1 X93.088 Y89.532 E17.48977
G1 X93.137 Y88.884 E17.52003
G1 X93.266 Y88.248 E17.55025
G1 X93.471 Y87.631 E17.58052
G1 X93.751 Y87.045 E17.61076
G1 X94.101 Y86.498 E17.641
M204 S3000
M205 X10 Y10
G1 F2400 E11.641
;MESH:led_strip_mk10_test.stl
G0 F3000 X109.675 Y88.315
G0 X109.675 Y89.834
G0 X110.243 Y90.416
M204 S1800
M205 X8 Y8
;TYPE:WALL-INNER
G1 F2400 E17.641
G1 F1500 X110.243 Y119.62 E19.00086
G1 X110.221 Y119.62 E19.00188
G1 X110.221 Y90.412 E19.0554
G1 X110.243 Y90.416 E19.05645
M204 S3000
M205 X10 Y10
G0 F3000 X110.168 Y89.833
M204 S1800
M205 X8 Y8
G1 F1500 X110.462 Y89.887 E19.07036
G1 X110.793 Y90.05 E19.08754
G1 X110.803 Y90.098 E19.08983
G1 X110.803 Y120.18 E20.49057
G1 X109.661 Y120.18 E20.54375
G1 X109.661 Y89.894 E21.95399
G1 X109.661 Y89.82 E21.95744
G1 X110.096 Y89.82 E21.97769
G1 X110.168 Y89.833 E21.98081
M204 S3000
M205 X10 Y10
G0 F3000 X110.639 Y89.35
M204 S1800
M205 X8 Y8
;TYPE:WALL-OUTER
G1 F1500 X111.095 Y89.575 E22.00448
G1 X111.293 Y89.708 E22.01559
G1 X111.363 Y90.037 E22.03125
G1 X111.363 Y120.74 E23.46091
G1 X109.101 Y120.74 E23.56624
G1 X109.101 Y89.26 E25.03208
G1 X110.148 Y89.26 E25.08084
G1 X110.639 Y89.35 E25.10408
M204 S3000
M205 X10 Y10
G0 F3000 X110.818 Y89.438
G0 X110.243 Y90.443
G1 F2400 E19.10408
G0 F3000 X109.681 Y119.62
G0 X107.931 Y119.62
G0 X107.391 Y119.62
M204 S1800
M205 X8 Y8
;TYPE:WALL-INNER
G1 F2400 E25.10408
G1 F1500 X99.757 Y119.62 E25.45955
G1 X99.757 Y90.395 E26.82039
G1 X99.842 Y90.38 E26.82441
G1 X107.391 Y90.38 E27.17592
G1 X107.391 Y119.62 E28.53746
M204 S3000
M205 X10 Y10
G0 F3000 X107.951 Y120.18
M204 S1800
M205 X8 Y8
G1 F1500 X99.197 Y120.18 E28.94508
G1 X99.197 Y89.997 E30.35053
G1 X99.403 Y89.887 E30.3614
G1 X99.794 Y89.82 E30.37987
G1 X107.951 Y89.82 E30.7597
G1 X107.951 Y120.18 E32.17339
M204 S3000
M205 X10 Y10
G0 F3000 X108.511 Y120.74
M204 S1800
M205 X8 Y8
;TYPE:WALL-OUTER
G1 F1500 X98.637 Y120.74 E32.63316
G1 X98.637 Y89.716 E34.07777
G1 X98.811 Y89.567 E34.08844
G1 X99.218 Y89.351 E34.10989
G1 X99.745 Y89.26 E34.13479
G1 X108.511 Y89.26 E34.54298
G1 X108.511 Y120.74 E36.00882
M204 S3000
M205 X10 Y10
G0 F3000 X108.311 Y120.74
G0 X107.881 Y120.11
G0 X106.841 Y119.07
M204 S1800
M205 X8 Y8
;TYPE:SKIN
G1 F1500 X100.307 Y119.07 E36.31307
G1 X100.307 Y90.93 E37.62338
G1 X106.841 Y90.93 E37.92763
G1 X106.841 Y119.07 E39.23795
M204 S3000
M205 X10 Y10
G0 F3000 X101.385 Y118.808
M204 S1800
M205 X8 Y8
G1 F1500 X100.566 Y117.989 E39.29188
M204 S3000
M205 X10 Y10
G0 F3000 X100.566 Y117.197
M204 S1800
M205 X8 Y8
G1 F1500 X102.177 Y118.808 E39.39797
M204 S3000
M205 X10 Y10
G0 F3000 X102.969 Y118.808
M204 S1800
M205 X8 Y8
G1 F1500 X100.566 Y116.405 E39.55621
M204 S3000
M205 X10 Y10
G0 F3000 X100.566 Y115.613
M204 S1800
M205 X8 Y8
G1 F1500 X103.761 Y118.808 E39.76661
M204 S3000
M205 X10 Y10
G0 F3000 X104.553 Y118.808
M204 S1800
M205 X8 Y8
G1 F1500 X100.566 Y114.821 E40.02916
M204 S3000
M205 X10 Y10
G0 F3000 X100.566 Y114.029
M204 S1800
M205 X8 Y8
G1 F1500 X105.345 Y118.808 E40.34386
M204 S3000
M205 X10 Y10
G0 F3000 X106.137 Y118.808
M204 S1800
M205 X8 Y8
G1 F1500 X100.566 Y113.237 E40.71072
M204 S3000
M205 X10 Y10
G0 F3000 X100.566 Y112.445
M204 S1800
M205 X8 Y8
G1 F1500 X106.58 Y118.46 E41.10679
M204 S3000
M205 X10 Y10
G0 F3000 X106.58 Y117.668
M204 S1800
M205 X8 Y8
G1 F1500 X100.566 Y111.653 E41.50285
M204 S3000
M205 X10 Y10
G0 F3000 X100.566 Y110.861
M204 S1800
M205 X8 Y8
G1 F1500 X106.58 Y116.876 E41.89892
M204 S3000
M205 X10 Y10
G0 F3000 X106.58 Y116.084
M204 S1800
M205 X8 Y8
G1 F1500 X100.566 Y110.069 E42.29498
M204 S3000
M205 X10 Y10
G0 F3000 X100.566 Y109.277
M204 S1800
M205 X8 Y8
G1 F1500 X106.58 Y115.292 E42.69105
M204 S3000
M205 X10 Y10
G0 F3000 X106.58 Y114.5
M204 S1800
M205 X8 Y8
G1 F1500 X100.566 Y108.485 E43.08711
M204 S3000
M205 X10 Y10
G0 F3000 X100.566 Y107.693
M204 S1800
M205 X8 Y8
G1 F1500 X106.58 Y113.708 E43.48318
M204 S3000
M205 X10 Y10
G0 F3000 X106.58 Y112.916
M204 S1800
M205 X8 Y8
G1 F1500 X100.566 Y106.901 E43.87924
M204 S3000
M205 X10 Y10
G0 F3000 X100.566 Y106.109
M204 S1800
M205 X8 Y8
G1 F1500 X106.58 Y112.124 E44.27531
M204 S3000
M205 X10 Y10
G0 F3000 X106.58 Y111.332
M204 S1800
M205 X8 Y8
G1 F1500 X100.566 Y105.317 E44.67137
M204 S3000
M205 X10 Y10
G0 F3000 X100.566 Y104.525
M204 S1800
M205 X8 Y8
G1 F1500 X106.58 Y110.54 E45.06744
M204 S3000
M205 X10 Y10
G0 F3000 X106.58 Y109.748
M204 S1800
M205 X8 Y8
G1 F1500 X100.566 Y103.733 E45.4635
M204 S3000
M205 X10 Y10
G0 F3000 X100.566 Y102.942
M204 S1800
M205 X8 Y8
G1 F1500 X106.58 Y108.956 E45.85954
M204 S3000
M205 X10 Y10
G0 F3000 X106.58 Y108.164
M204 S1800
M205 X8 Y8
G1 F1500 X100.566 Y102.15 E46.25557
M204 S3000
M205 X10 Y10
G0 F3000 X100.566 Y101.358
M204 S1800
M205 X8 Y8
G1 F1500 X106.58 Y107.372 E46.6516
M204 S3000
M205 X10 Y10
G0 F3000 X106.58 Y106.58
M204 S1800
M205 X8 Y8
G1 F1500 X100.566 Y100.566 E47.04763
M204 S3000
M205 X10 Y10
G0 F3000 X100.566 Y99.774
M204 S1800
M205 X8 Y8
G1 F1500 X106.58 Y105.788 E47.44366
M204 S3000
M205 X10 Y10
G0 F3000 X106.58 Y104.996
M204 S1800
M205 X8 Y8
G1 F1500 X100.566 Y98.982 E47.8397
M204 S3000
M205 X10 Y10
G0 F3000 X100.566 Y98.19
M204 S1800
M205 X8 Y8
G1 F1500 X106.58 Y104.204 E48.23573
M204 S3000
M205 X10 Y10
G0 F3000 X106.58 Y103.412
M204 S1800
M205 X8 Y8
G1 F1500 X100.566 Y97.398 E48.63176
M204 S3000
M205 X10 Y10
G0 F3000 X100.566 Y96.606
M204 S1800
M205 X8 Y8
G1 F1500 X106.58 Y102.62 E49.02779
M204 S3000
M205 X10 Y10
G0 F3000 X106.58 Y101.829
M204 S1800
M205 X8 Y8
G1 F1500 X100.566 Y95.814 E49.42386
M204 S3000
M205 X10 Y10
G0 F3000 X100.566 Y95.022
M204 S1800
M205 X8 Y8
G1 F1500 X106.58 Y101.037 E49.81992
M204 S3000
M205 X10 Y10
G0 F3000 X106.58 Y100.245
M204 S1800
M205 X8 Y8
G1 F1500 X100.566 Y94.23 E50.21599
M204 S3000
M205 X10 Y10
G0 F3000 X100.566 Y93.438
M204 S1800
M205 X8 Y8
G1 F1500 X106.58 Y99.453 E50.61205
M204 S3000
M205 X10 Y10
G0 F3000 X106.58 Y98.661
M204 S1800
M205 X8 Y8
G1 F1500 X100.566 Y92.646 E51.00812
M204 S3000
M205 X10 Y10
G0 F3000 X100.566 Y91.854
M204 S1800
M205 X8 Y8
G1 F1500 X106.58 Y97.869 E51.40418
M204 S3000
M205 X10 Y10
G0 F3000 X106.58 Y97.077
M204 S1800
M205 X8 Y8
G1 F1500 X100.693 Y91.189 E51.79189
M204 S3000
M205 X10 Y10
G0 F3000 X101.485 Y91.189
M204 S1800
M205 X8 Y8
G1 F1500 X106.58 Y96.285 E52.12743
M204 S3000
M205 X10 Y10
G0 F3000 X106.58 Y95.493
M204 S1800
M205 X8 Y8
G1 F1500 X102.277 Y91.189 E52.41083
M204 S3000
M205 X10 Y10
G0 F3000 X103.069 Y91.189
M204 S1800
M205 X8 Y8
G1 F1500 X106.58 Y94.701 E52.64206
M204 S3000
M205 X10 Y10
G0 F3000 X106.58 Y93.909
M204 S1800
M205 X8 Y8
G1 F1500 X103.861 Y91.189 E52.82115
M204 S3000
M205 X10 Y10
G0 F3000 X104.653 Y91.189
M204 S1800
M205 X8 Y8
G1 F1500 X106.58 Y93.117 E52.94808
M204 S3000
M205 X10 Y10
G0 F3000 X106.58 Y92.325
M204 S1800
M205 X8 Y8
G1 F1500 X105.445 Y91.189 E53.02285
M204 S3000
M205 X10 Y10
G0 F3000 X106.237 Y91.189
M204 S1800
M205 X8 Y8
G1 F1500 X106.58 Y91.533 E53.04547
M204 S3000
M205 X10 Y10
G1 F2400 E47.04547
;MESH:NONMESH
G0 F600 X106.58 Y91.533 Z0.4
G0 F3000 X107.931 Y89.995
G0 X109.681 Y89.995
G0 X110.159 Y89.995
;TIME_ELAPSED:49.187184
;LAYER:1
M204 S1800
M205 X8 Y8
;TYPE:WALL-INNER
;MESH:led_strip_mk10_test.stl
G1 F2400 E53.04547
G1 F2250 X110.411 Y90.041 E53.05399
G1 X110.643 Y90.163 E53.06271
G1 X110.643 Y120.02 E54.05576
G1 X109.821 Y120.02 E54.0831
G1 X109.821 Y90.068 E55.07931
G1 X109.821 Y89.98 E55.08223
G1 X110.073 Y89.98 E55.09061
G1 X110.159 Y89.995 E55.0931
M204 S3000
M205 X10 Y10
G0 F4500 X110.541 Y89.658
M204 S1800
M205 X8 Y8
G1 F2250 X111.025 Y89.912 E55.11128
G1 X111.043 Y89.977 E55.11353
G1 X111.043 Y120.42 E56.12607
G1 X109.421 Y120.42 E56.18001
G1 X109.421 Y89.58 E57.20576
G1 X110.112 Y89.58 E57.22874
G1 X110.541 Y89.658 E57.24324
M204 S3000
M205 X10 Y10
G0 F4500 X110.667 Y89.274
M204 S1800
M205 X8 Y8
;TYPE:WALL-OUTER
G1 F2250 X111.14 Y89.508 E57.26079
G1 X111.37 Y89.662 E57.27
G1 X111.443 Y89.923 E57.27901
G1 X111.443 Y120.82 E58.30665
G1 X109.021 Y120.82 E58.38721
G1 X109.021 Y89.469 E59.42995
G1 X109.032 Y89.18 E59.43957
G1 X110.151 Y89.18 E59.47678
G1 X110.667 Y89.274 E59.49423
M204 S3000
M205 X10 Y10
G0 F4500 X110.846 Y89.362
G0 X110.612 Y89.807
G0 X110.253 Y90.409
M204 S1800
M205 X8 Y8
;TYPE:SKIN
G1 F1350 X110.253 Y119.63 E60.46612
G1 X110.211 Y119.63 E60.46752
G1 X110.211 Y90.402 E61.43965
G1 X110.253 Y90.409 E61.44106
M204 S3000
M205 X10 Y10
G1 F2400 E55.44106
G0 F4500 X109.441 Y120.02
G0 X108.171 Y120.02
G0 X107.791 Y120.02
M204 S1800
M205 X8 Y8
;TYPE:WALL-INNER
