;FLAVOR:Marlin
;TIME:4003
;Filament used: 3.90123m
;Layer height: 0.2
;MINX:94.401
;MINY:20.6
;MINZ:0.2
;MAXX:115.7
;MAXY:189.399
;MAXZ:15
;Generated with Cura_SteamEngine 4.8.0
M140 S60
M105
M190 S60
M104 S200
M105
M109 S200
M82 ;absolute extrusion mode
; Script based on an original created by tjjfvi (https://github.com/tjjfvi)
; An up-to-date version of the tjjfvi's original script can be found
; here:  https://csi.t6.fyi/
; Note - This script will only work in Cura V4.2 and above!
; --- Global Settings
; layer_height = 0.2
; smooth_spiralized_contours = True
; magic_mesh_surface_mode = normal
; machine_extruder_count = 1
; --- Single Extruder Settings
; speed_z_hop = 10
; retraction_amount = 6
; retraction_hop = 0.075
; retraction_hop_enabled = True
; retraction_enable = True
; retraction_speed = 40
; retraction_retract_speed = 40
; retraction_prime_speed = 40
; speed_travel = 100


G21 ;metric values
G90 ;absolute positioning
M82 ;set extruder to absolute mode
M107 ;start with the fan off
G28 X0 Y0 ;move X/Y to min endstops
G28 Z0 ;move Z to min endstops
G1 Z15.0 F100 ;move the platform down 15mm
G92 E0 ;zero the extruded length
G1 F200 E3 ;extrude 3mm of feed stock
G92 E0 ;zero the extruded length again
G1 F100
G0 Y20 F100
M117 Printing...
G5
G92 E0
G92 E0
G1 F2400 E-6
;LAYER_COUNT:75
;LAYER:0
M106 S255
M204 S3000
M205 X10 Y10
G1 F600 Z0.275
G0 F3000 X94.761 Y25.754 Z0.275
M204 S1800
M205 X8 Y8
;TYPE:SKIRT
G1 F600 Z0.2
G1 F2400 E0
G1 X95.11 Y24.885 E0.04361
G1 X95.334 Y24.44 E0.0668
G1 X95.703 Y23.827 E0.10012
G1 X96.137 Y23.259 E0.13341
G1 X96.64 Y22.725 E0.16756
G1 X97.169 Y22.243 E0.20089
G1 X97.748 Y21.824 E0.23417
G1 X98.241 Y21.537 E0.26073
G1 X98.522 Y21.39 E0.2755
G1 X99.174 Y21.094 E0.30884
G1 X99.854 Y20.873 E0.34213
G1 X100.391 Y20.756 E0.36773
G1 X100.888 Y20.675 E0.39117
G1 X101.608 Y20.613 E0.42482
G1 X102.099 Y20.601 E0.44769
G1 X107.592 Y20.6 E0.70347
G1 X108.408 Y20.612 E0.74147
G1 X109.31 Y20.69 E0.78363
G1 X109.843 Y20.779 E0.80879
G1 X110.546 Y20.961 E0.8426
G1 X111.412 Y21.309 E0.88606
G1 X111.843 Y21.525 E0.90851
G1 X112.457 Y21.892 E0.94182
G1 X113.027 Y22.325 E0.97515
G1 X113.575 Y22.84 E1.01017
G1 X114.057 Y23.369 E1.04349
G1 X114.476 Y23.948 E1.07677
G1 X114.749 Y24.415 E1.10196
G1 X114.867 Y24.638 E1.11371
G1 X115.166 Y25.288 E1.14702
G1 X115.397 Y25.992 E1.18152
G1 X115.446 Y26.177 E1.19044
G1 X115.624 Y27.144 E1.23622
G1 X115.652 Y27.409 E1.24863
G1 X115.686 Y27.979 E1.27522
G1 X115.7 Y28.9 E1.31811
G1 X115.699 Y181.371 E8.4178
G1 X115.688 Y182.089 E8.45123
G1 X115.61 Y182.993 E8.49348
G1 X115.565 Y183.277 E8.50687
G1 X115.414 Y183.976 E8.54017
G1 X115.186 Y184.654 E8.57348
G1 X114.845 Y185.389 E8.61121
G1 X114.494 Y186.012 E8.64451
G1 X114.076 Y186.592 E8.6778
G1 X113.677 Y187.04 E8.70573
G1 X113.459 Y187.263 E8.72025
G1 X112.932 Y187.746 E8.75354
G1 X112.353 Y188.166 E8.78685
G1 X111.88 Y188.444 E8.81239
G1 X111.426 Y188.679 E8.8362
G1 X110.768 Y188.959 E8.86949
G1 X110.082 Y189.163 E8.90282
G1 X109.494 Y189.278 E8.93072
G1 X109.217 Y189.321 E8.94377
G1 X108.47 Y189.387 E8.97869
G1 X107.977 Y189.399 E9.00165
G1 X102.409 Y189.399 E9.26092
G1 X101.691 Y189.388 E9.29436
G1 X100.785 Y189.31 E9.3367
G1 X100.257 Y189.221 E9.36164
G1 X99.554 Y189.039 E9.39545
G1 X98.64 Y188.667 E9.4414
G1 X98.362 Y188.528 E9.45587
G1 X97.741 Y188.173 E9.48918
G1 X97.164 Y187.751 E9.52247
G1 X96.741 Y187.372 E9.54891
G1 X96.525 Y187.16 E9.56301
G1 X96.043 Y186.631 E9.59633
G1 X95.624 Y186.052 E9.62961
G1 X95.337 Y185.559 E9.65617
G1 X95.19 Y185.278 E9.67094
G1 X94.894 Y184.626 E9.70428
G1 X94.673 Y183.946 E9.73757
G1 X94.556 Y183.409 E9.76317
G1 X94.475 Y182.912 E9.78661
G1 X94.413 Y182.182 E9.82073
G1 X94.401 Y181.685 E9.84388
G1 X94.401 Y28.609 E16.97174
G1 X94.412 Y27.891 E17.00517
G1 X94.49 Y26.985 E17.04752
G1 X94.579 Y26.457 E17.07245
G1 X94.761 Y25.754 E17.10626
M204 S3000
M205 X10 Y10
G0 F3000 X95.303 Y25.896
M204 S1800
M205 X8 Y8
G1 F2400 X95.613 Y25.131 E17.1447
G1 X95.83 Y24.701 E17.16713
G1 X96.183 Y24.116 E17.19894
G1 X96.828 Y23.333 E17.24618
G1 X97.04 Y23.117 E17.26027
G1 X97.546 Y22.658 E17.29208
G1 X98.103 Y22.262 E17.32391
G1 X98.782 Y21.886 E17.36005
G1 X99.405 Y21.606 E17.39185
G1 X100.056 Y21.399 E17.42366
G1 X100.688 Y21.273 E17.45367
G1 X100.968 Y21.23 E17.46686
G1 X101.625 Y21.173 E17.49757
G1 X102.099 Y21.161 E17.51965
G1 X107.592 Y21.16 E17.77542
G1 X108.4 Y21.172 E17.81305
G1 X109.223 Y21.243 E17.85151
G1 X109.733 Y21.328 E17.87559
G1 X110.404 Y21.503 E17.90788
G1 X111.166 Y21.812 E17.94617
G1 X111.584 Y22.022 E17.96795
G1 X112.169 Y22.373 E17.99972
G1 X112.71 Y22.791 E18.03155
G1 X113.183 Y23.24 E18.06192
G1 X113.642 Y23.746 E18.09373
G1 X114.038 Y24.303 E18.12555
G1 X114.372 Y24.9 E18.15741
G1 X114.656 Y25.521 E18.1892
G1 X114.855 Y26.136 E18.2193
G1 X114.904 Y26.321 E18.22821
G1 X115.067 Y27.202 E18.26993
G1 X115.095 Y27.467 E18.28234
G1 X115.126 Y27.988 E18.30664
G1 X115.14 Y28.9 E18.34912
G1 X115.139 Y181.362 E25.44839
G1 X115.128 Y182.08 E25.48182
G1 X115.057 Y182.905 E25.52038
G1 X115.012 Y183.189 E25.53377
G1 X114.866 Y183.856 E25.56556
G1 X114.643 Y184.502 E25.59739
G1 X114.342 Y185.142 E25.63032
G1 X114.006 Y185.736 E25.6621
G1 X113.602 Y186.287 E25.69391
G1 X113.059 Y186.871 E25.73104
G1 X112.554 Y187.331 E25.76285
G1 X111.998 Y187.729 E25.79469
G1 X111.401 Y188.064 E25.82657
G1 X111.178 Y188.177 E25.83821
G1 X110.549 Y188.442 E25.86999
G1 X109.599 Y188.691 E25.91572
G1 X109.135 Y188.767 E25.93761
G1 X108.453 Y188.827 E25.96949
G1 X107.977 Y188.839 E25.99166
G1 X102.418 Y188.839 E26.25051
G1 X101.7 Y188.828 E26.28395
G1 X100.873 Y188.757 E26.3226
G1 X100.367 Y188.672 E26.34649
G1 X99.696 Y188.497 E26.37878
G1 X98.89 Y188.166 E26.41935
G1 X98.612 Y188.027 E26.43383
G1 X98.02 Y187.687 E26.46562
G1 X97.472 Y187.279 E26.49743
G1 X96.917 Y186.76 E26.53281
G1 X96.458 Y186.254 E26.56462
G1 X96.062 Y185.697 E26.59645
G1 X95.686 Y185.018 E26.63259
G1 X95.406 Y184.395 E26.66439
G1 X95.199 Y183.744 E26.6962
G1 X95.073 Y183.112 E26.72621
G1 X95.03 Y182.832 E26.7394
G1 X94.972 Y182.166 E26.77053
G1 X94.961 Y181.685 E26.79293
G1 X94.961 Y28.618 E33.92037
G1 X94.972 Y27.9 E33.95381
G1 X95.043 Y27.073 E33.99246
G1 X95.128 Y26.567 E34.01635
G1 X95.303 Y25.896 E34.04864
M204 S3000
M205 X10 Y10
G0 F3000 X95.846 Y26.039
M204 S1800
M205 X8 Y8
G1 F2400 X96.116 Y25.378 E34.08189
G1 X96.325 Y24.962 E34.10357
G1 X96.663 Y24.407 E34.13382
G1 X97.228 Y23.726 E34.17503
G1 X97.44 Y23.51 E34.18912
G1 X97.922 Y23.075 E34.21935
G1 X98.455 Y22.703 E34.24962
G1 X99.042 Y22.383 E34.28075
G1 X99.635 Y22.117 E34.31101
G1 X100.256 Y21.927 E34.34125
G1 X100.784 Y21.824 E34.3663
G1 X101.048 Y21.784 E34.37873
G1 X101.642 Y21.732 E34.4065
G1 X102.099 Y21.721 E34.42779
G1 X107.592 Y21.72 E34.68356
G1 X108.391 Y21.732 E34.72077
G1 X109.135 Y21.796 E34.75554
G1 X109.633 Y21.88 E34.77906
G1 X110.261 Y22.046 E34.80931
G1 X110.92 Y22.315 E34.84245
G1 X111.324 Y22.518 E34.8635
G1 X111.88 Y22.854 E34.89375
G1 X112.574 Y23.428 E34.93569
G1 X112.79 Y23.64 E34.94978
G1 X113.225 Y24.122 E34.98002
G1 X113.597 Y24.655 E35.01028
G1 X113.877 Y25.162 E35.03725
G1 X114.145 Y25.753 E35.06747
G1 X114.314 Y26.279 E35.09319
G1 X114.363 Y26.464 E35.1021
G1 X114.51 Y27.261 E35.13984
G1 X114.566 Y27.997 E35.17421
G1 X114.58 Y28.9 E35.21626
G1 X114.579 Y181.354 E42.31516
G1 X114.568 Y182.072 E42.3486
G1 X114.504 Y182.817 E42.38342
G1 X114.459 Y183.101 E42.39681
G1 X114.318 Y183.735 E42.42705
G1 X113.983 Y184.604 E42.47042
G1 X113.84 Y184.895 E42.48551
G1 X113.518 Y185.459 E42.51575
G1 X113.129 Y185.979 E42.54599
G1 X112.659 Y186.48 E42.57798
G1 X112.177 Y186.916 E42.60824
G1 X111.645 Y187.289 E42.6385
G1 X111.138 Y187.569 E42.66547
G1 X110.931 Y187.674 E42.67628
G1 X110.332 Y187.925 E42.70652
G1 X109.503 Y188.14 E42.7464
G1 X109.053 Y188.213 E42.76762
G1 X108.437 Y188.268 E42.79642
G1 X107.977 Y188.279 E42.81785
G1 X102.426 Y188.279 E43.07633
G1 X101.708 Y188.268 E43.10976
G1 X100.961 Y188.204 E43.14467
G1 X100.467 Y188.12 E43.16801
G1 X99.839 Y187.954 E43.19825
G1 X99.141 Y187.666 E43.23341
G1 X98.863 Y187.527 E43.24789
G1 X98.301 Y187.201 E43.27814
G1 X97.783 Y186.809 E43.30839
G1 X97.31 Y186.36 E43.33875
G1 X96.875 Y185.878 E43.36899
G1 X96.503 Y185.345 E43.39925
G1 X96.183 Y184.758 E43.43038
G1 X95.917 Y184.165 E43.46065
G1 X95.727 Y183.544 E43.49089
G1 X95.624 Y183.016 E43.51594
G1 X95.584 Y182.752 E43.52837
G1 X95.532 Y182.15 E43.55651
G1 X95.521 Y181.685 E43.57816
G1 X95.521 Y28.626 E50.70523
G1 X95.532 Y27.908 E50.73867
G1 X95.596 Y27.161 E50.77358
G1 X95.68 Y26.667 E50.79691
G1 X95.846 Y26.039 E50.82716
M204 S3000
M205 X10 Y10
G1 F2400 E44.82716
;MESH:led_strip_mk5.stl
G0 F3000 X100.16 Y27.814
G0 X101.659 Y28.071
G0 X107.9 Y181.6
M204 S1800
M205 X8 Y8
;TYPE:WALL-INNER
G1 F2400 E50.82716
G1 F1500 X102.2 Y181.6 E51.09258
G1 X102.2 Y28.4 E58.22621
G1 X107.9 Y28.4 E58.49163
G1 X107.9 Y181.6 E65.62526
M204 S3000
M205 X10 Y10
G0 F3000 X108.334 Y27.963
G0 X108.388 Y27.879
M204 S1800
M205 X8 Y8
G1 F1500 X108.435 Y27.938 E65.62877
G1 X108.46 Y28.156 E65.63899
G1 X108.46 Y181.911 E72.79847
G1 X108.417 Y182.08 E72.80659
G1 X108.334 Y182.141 E72.81138
G1 X108.211 Y182.16 E72.81718
G1 X101.869 Y182.16 E73.11249
G1 X101.712 Y182.121 E73.12002
G1 X101.658 Y182.048 E73.12425
G1 X101.64 Y181.931 E73.12976
G1 X101.64 Y28.069 E80.29422
G1 X101.679 Y27.912 E80.30175
G1 X101.752 Y27.858 E80.30598
G1 X101.869 Y27.84 E80.31149
G1 X108.231 Y27.84 E80.60773
G1 X108.388 Y27.879 E80.61527
M204 S3000
M205 X10 Y10
G0 F3000 X108.521 Y27.319
M204 S1800
M205 X8 Y8
;TYPE:WALL-OUTER
G1 F1500 X108.722 Y27.421 E80.62576
G1 X108.879 Y27.578 E80.6361
G1 X108.979 Y27.775 E80.64639
G1 X109.02 Y28.125 E80.6628
G1 X109.02 Y181.955 E87.82577
G1 X108.98 Y182.207 E87.83765
G1 X108.875 Y182.414 E87.84846
G1 X108.714 Y182.575 E87.85906
G1 X108.507 Y182.68 E87.86987
G1 X108.255 Y182.72 E87.88175
G1 X101.825 Y182.72 E88.18115
G1 X101.579 Y182.681 E88.19275
G1 X101.378 Y182.579 E88.20325
G1 X101.221 Y182.422 E88.21359
G1 X101.119 Y182.221 E88.22408
G1 X101.08 Y181.975 E88.23568
G1 X101.08 Y28.025 E95.40424
G1 X101.119 Y27.779 E95.41583
G1 X101.221 Y27.578 E95.42633
G1 X101.378 Y27.421 E95.43667
G1 X101.579 Y27.319 E95.44716
G1 X101.825 Y27.28 E95.45876
G1 X108.275 Y27.28 E95.7591
G1 X108.521 Y27.319 E95.7707
M204 S3000
M205 X10 Y10
G0 F3000 X108.699 Y27.409
G0 X108.334 Y27.963
G0 X107.35 Y28.95
M204 S1800
M205 X8 Y8
;TYPE:SKIN
G1 F1500 X107.35 Y181.05 E102.85311
G1 X102.75 Y181.05 E103.06731
G1 X102.75 Y28.95 E110.14972
G1 X107.35 Y28.95 E110.36392
M204 S3000
M205 X10 Y10
G0 F3000 X107.089 Y29.477
M204 S1800
M205 X8 Y8
G1 F1500 X106.821 Y29.209 E110.38156
M204 S3000
M205 X10 Y10
G0 F3000 X106.029 Y29.209
M204 S1800
M205 X8 Y8
G1 F1500 X107.089 Y30.269 E110.45137
M204 S3000
M205 X10 Y10
G0 F3000 X107.089 Y31.061
M204 S1800
M205 X8 Y8
G1 F1500 X105.237 Y29.209 E110.57332
M204 S3000
M205 X10 Y10
G0 F3000 X104.446 Y29.209
M204 S1800
M205 X8 Y8
G1 F1500 X107.089 Y31.853 E110.7474
M204 S3000
M205 X10 Y10
G0 F3000 X107.089 Y32.645
M204 S1800
M205 X8 Y8
G1 F1500 X103.654 Y29.209 E110.97364
M204 S3000
M205 X10 Y10
G0 F3000 X103.009 Y29.356
M204 S1800
M205 X8 Y8
G1 F1500 X107.089 Y33.437 E111.24234
M204 S3000
M205 X10 Y10
G0 F3000 X107.089 Y34.229
M204 S1800
M205 X8 Y8
G1 F1500 X103.009 Y30.148 E111.51105
M204 S3000
M205 X10 Y10
G0 F3000 X103.009 Y30.94
M204 S1800
M205 X8 Y8
G1 F1500 X107.089 Y35.021 E111.77976
M204 S3000
M205 X10 Y10
G0 F3000 X107.089 Y35.813
M204 S1800
M205 X8 Y8
G1 F1500 X103.009 Y31.732 E112.04847
M204 S3000
M205 X10 Y10
G0 F3000 X103.009 Y32.524
M204 S1800
M205 X8 Y8
G1 F1500 X107.089 Y36.605 E112.31718
M204 S3000
M205 X10 Y10
G0 F3000 X107.089 Y37.397
M204 S1800
M205 X8 Y8
G1 F1500 X103.009 Y33.316 E112.58588
M204 S3000
M205 X10 Y10
G0 F3000 X103.009 Y34.108
M204 S1800
M205 X8 Y8
G1 F1500 X107.089 Y38.189 E112.85459
M204 S3000
M205 X10 Y10
G0 F3000 X107.089 Y38.981
M204 S1800
M205 X8 Y8
G1 F1500 X103.009 Y34.9 E113.1233
M204 S3000
M205 X10 Y10
G0 F3000 X103.009 Y35.692
M204 S1800
M205 X8 Y8
G1 F1500 X107.089 Y39.773 E113.39201
M204 S3000
M205 X10 Y10
G0 F3000 X107.089 Y40.565
M204 S1800
M205 X8 Y8
G1 F1500 X103.009 Y36.484 E113.66072
M204 S3000
M205 X10 Y10
G0 F3000 X103.009 Y37.276
M204 S1800
M205 X8 Y8
G1 F1500 X107.089 Y41.357 E113.92942
M204 S3000
M205 X10 Y10
G0 F3000 X107.089 Y42.149
M204 S1800
M205 X8 Y8
G1 F1500 X103.009 Y38.068 E114.19813
M204 S3000
M205 X10 Y10
G0 F3000 X103.009 Y38.86
M204 S1800
M205 X8 Y8
G1 F1500 X107.089 Y42.941 E114.46684
M204 S3000
M205 X10 Y10
G0 F3000 X107.089 Y43.733
M204 S1800
M205 X8 Y8
G1 F1500 X103.009 Y39.652 E114.73555
M204 S3000
M205 X10 Y10
G0 F3000 X103.009 Y40.444
M204 S1800
M205 X8 Y8
G1 F1500 X107.089 Y44.525 E115.00426
M204 S3000
M205 X10 Y10
G0 F3000 X107.089 Y45.317
M204 S1800
M205 X8 Y8
G1 F1500 X103.009 Y41.236 E115.27296
M204 S3000
M205 X10 Y10
G0 F3000 X103.009 Y42.028
M204 S1800
M205 X8 Y8
G1 F1500 X107.089 Y46.109 E115.54167
M204 S3000
M205 X10 Y10
G0 F3000 X107.089 Y46.9
M204 S1800
M205 X8 Y8
G1 F1500 X103.009 Y42.82 E115.81035
M204 S3000
M205 X10 Y10
G0 F3000 X103.009 Y43.612
M204 S1800
M205 X8 Y8
G1 F1500 X107.089 Y47.692 E116.07902
M204 S3000
M205 X10 Y10
G0 F3000 X107.089 Y48.484
M204 S1800
M205 X8 Y8
G1 F1500 X103.009 Y44.404 E116.3477
M204 S3000
M205 X10 Y10
G0 F3000 X103.009 Y45.196
M204 S1800
M205 X8 Y8
G1 F1500 X107.089 Y49.276 E116.61637
M204 S3000
M205 X10 Y10
G0 F3000 X107.089 Y50.068
M204 S1800
M205 X8 Y8
G1 F1500 X103.009 Y45.988 E116.88505
M204 S3000
M205 X10 Y10
G0 F3000 X103.009 Y46.78
M204 S1800
M205 X8 Y8
G1 F1500 X107.089 Y50.86 E117.15372
M204 S3000
M205 X10 Y10
G0 F3000 X107.089 Y51.652
M204 S1800
M205 X8 Y8
G1 F1500 X103.009 Y47.572 E117.4224
M204 S3000
M205 X10 Y10
G0 F3000 X103.009 Y48.363
M204 S1800
M205 X8 Y8
G1 F1500 X107.089 Y52.444 E117.6911
M204 S3000
M205 X10 Y10
G0 F3000 X107.089 Y53.236
M204 S1800
M205 X8 Y8
G1 F1500 X103.009 Y49.155 E117.95981
M204 S3000
M205 X10 Y10
G0 F3000 X103.009 Y49.947
M204 S1800
M205 X8 Y8
G1 F1500 X107.089 Y54.028 E118.22852
M204 S3000
M205 X10 Y10
G0 F3000 X107.089 Y54.82
M204 S1800
M205 X8 Y8
G1 F1500 X103.009 Y50.739 E118.49723
M204 S3000
M205 X10 Y10
G0 F3000 X103.009 Y51.531
M204 S1800
M205 X8 Y8
G1 F1500 X107.089 Y55.612 E118.76594
M204 S3000
M205 X10 Y10
G0 F3000 X107.089 Y56.404
M204 S1800
M205 X8 Y8
G1 F1500 X103.009 Y52.323 E119.03464
M204 S3000
M205 X10 Y10
G0 F3000 X103.009 Y53.115
M204 S1800
M205 X8 Y8
G1 F1500 X107.089 Y57.196 E119.30335
M204 S3000
M205 X10 Y10
G0 F3000 X107.089 Y57.988
M204 S1800
M205 X8 Y8
G1 F1500 X103.009 Y53.907 E119.57206
M204 S3000
M205 X10 Y10
G0 F3000 X103.009 Y54.699
M204 S1800
M205 X8 Y8
G1 F1500 X107.089 Y58.78 E119.84077
M204 S3000
M205 X10 Y10
G0 F3000 X107.089 Y59.572
M204 S1800
M205 X8 Y8
G1 F1500 X103.009 Y55.491 E120.10947
M204 S3000
M205 X10 Y10
G0 F3000 X103.009 Y56.283
M204 S1800
M205 X8 Y8
G1 F1500 X107.089 Y60.364 E120.37818
M204 S3000
M205 X10 Y10
G0 F3000 X107.089 Y61.156
M204 S1800
M205 X8 Y8
G1 F1500 X103.009 Y57.075 E120.64689
M204 S3000
M205 X10 Y10
G0 F3000 X103.009 Y57.867
M204 S1800
M205 X8 Y8
G1 F1500 X107.089 Y61.948 E120.9156
M204 S3000
M205 X10 Y10
G0 F3000 X107.089 Y62.74
M204 S1800
M205 X8 Y8
G1 F1500 X103.009 Y58.659 E121.18431
M204 S3000
M205 X10 Y10
G0 F3000 X103.009 Y59.451
M204 S1800
M205 X8 Y8
G1 F1500 X107.089 Y63.532 E121.45301
M204 S3000
M205 X10 Y10
G0 F3000 X107.089 Y64.324
M204 S1800
M205 X8 Y8
G1 F1500 X103.009 Y60.243 E121.72172
M204 S3000
M205 X10 Y10
G0 F3000 X103.009 Y61.035
M204 S1800
M205 X8 Y8
G1 F1500 X107.089 Y65.116 E121.99043
M204 S3000
M205 X10 Y10
G0 F3000 X107.089 Y65.908
M204 S1800
M205 X8 Y8
G1 F1500 X103.009 Y61.827 E122.25914
M204 S3000
M205 X10 Y10
G0 F3000 X103.009 Y62.619
M204 S1800
M205 X8 Y8
G1 F1500 X107.089 Y66.699 E122.52781
M204 S3000
M205 X10 Y10
G0 F3000 X107.089 Y67.491
M204 S1800
M205 X8 Y8
G1 F1500 X103.009 Y63.411 E122.79649
M204 S3000
M205 X10 Y10
G0 F3000 X103.009 Y64.203
M204 S1800
M205 X8 Y8
G1 F1500 X107.089 Y68.283 E123.06516
M204 S3000
M205 X10 Y10
G0 F3000 X107.089 Y69.075
M204 S1800
M205 X8 Y8
