;FLAVOR:Marlin
;TIME:1015
;Filament used: 1.00191m
;Layer height: 0.2
;MINX:93.333
;MINY:82.669
;MINZ:0.2
;MAXX:116.667
;MAXY:127.331
;MAXZ:15
;Generated with Cura_SteamEngine 4.8.0
M140 S60
M105
M190 S60
M104 S200
M105
M109 S200
M82 ;absolute extrusion mode
; Script based on an original created by tjjfvi (https://github.com/tjjfvi)
; An up-to-date version of the tjjfvi's original script can be found
; here:  https://csi.t6.fyi/
; Note - This script will only work in Cura V4.2 and above!
; --- Global Settings
; layer_height = 0.2
; smooth_spiralized_contours = True
; magic_mesh_surface_mode = normal
; machine_extruder_count = 1
; --- Single Extruder Settings
; speed_z_hop = 10
; retraction_amount = 6
; retraction_hop = 0.075
; retraction_hop_enabled = True
; retraction_enable = True
; retraction_speed = 40
; retraction_retract_speed = 40
; retraction_prime_speed = 40
; speed_travel = 100


G21 ;metric values
G90 ;absolute positioning
M82 ;set extruder to absolute mode
M107 ;start with the fan off
G28 X0 Y0 ;move X/Y to min endstops
G28 Z0 ;move Z to min endstops
G1 Z15.0 F100 ;move the platform down 15mm
G92 E0 ;zero the extruded length
G1 F200 E3 ;extrude 3mm of feed stock
G92 E0 ;zero the extruded length again
G1 F100
G0 Y20 F100
M117 Printing...
G5
G92 E0
G92 E0
G1 F2400 E-6
;LAYER_COUNT:75
;LAYER:0
M106 S255
M204 S3000
M205 X10 Y10
G1 F600 Z0.275
G0 F3000 X95.153 Y85.272 Z0.275
M204 S1800
M205 X8 Y8
;TYPE:SKIRT
G1 F600 Z0.2
G1 F2400 E0
G1 X95.55 Y84.877 E0.02608
G1 X96.082 Y84.417 E0.05883
G1 X96.653 Y83.991 E0.092
G1 X97.256 Y83.606 E0.12531
G1 X97.898 Y83.291 E0.15861
G1 X98.737 Y83.002 E0.19993
G1 X99.017 Y82.927 E0.21343
G1 X99.938 Y82.751 E0.25709
G1 X100.258 Y82.714 E0.27209
G1 X101.085 Y82.673 E0.31065
G1 X102.264 Y82.69 E0.36555
G1 X105.141 Y82.689 E0.49952
G1 X106.494 Y82.669 E0.56252
G1 X107.846 Y82.669 E0.62548
G1 X108.545 Y82.679 E0.65803
G1 X108.921 Y82.695 E0.67555
G1 X109.436 Y82.733 E0.6996
G1 X109.798 Y82.769 E0.71654
G1 X110.838 Y82.973 E0.76589
G1 X111.411 Y83.143 E0.79372
G1 X112.081 Y83.393 E0.82702
G1 X112.623 Y83.663 E0.85521
G1 X113.018 Y83.883 E0.87627
G1 X113.623 Y84.265 E0.90958
G1 X114.181 Y84.713 E0.94291
G1 X114.641 Y85.171 E0.97313
G1 X114.899 Y85.455 E0.991
G1 X115.35 Y86.01 E1.0243
G1 X115.736 Y86.612 E1.0576
G1 X116.052 Y87.254 E1.09092
G1 X116.294 Y87.927 E1.12422
G1 X116.503 Y88.789 E1.16552
G1 X116.619 Y89.494 E1.19879
G1 X116.655 Y90.082 E1.22622
G1 X116.667 Y90.901 E1.26436
G1 X116.666 Y120.283 E2.63251
G1 X116.656 Y121.01 E2.66636
G1 X116.607 Y121.724 E2.69969
G1 X116.478 Y122.427 E2.73297
G1 X116.271 Y123.112 E2.76629
G1 X115.989 Y123.769 E2.79958
G1 X115.635 Y124.391 E2.83291
G1 X115.215 Y124.969 E2.86618
G1 X114.732 Y125.497 E2.8995
G1 X114.194 Y125.968 E2.93279
G1 X113.606 Y126.376 E2.96612
G1 X112.976 Y126.716 E2.99945
G1 X112.313 Y126.983 E3.03274
G1 X111.624 Y127.174 E3.06603
G1 X110.918 Y127.288 E3.09933
G1 X110.117 Y127.328 E3.13667
G1 X109.937 Y127.331 E3.14506
G1 X100.357 Y127.33 E3.59114
G1 X99.659 Y127.321 E3.62364
G1 X98.946 Y127.272 E3.65692
G1 X98.242 Y127.144 E3.69024
G1 X97.557 Y126.938 E3.72355
G1 X96.9 Y126.656 E3.75684
G1 X96.278 Y126.303 E3.79014
G1 X95.699 Y125.883 E3.82345
G1 X95.17 Y125.401 E3.85677
G1 X94.699 Y124.863 E3.89007
G1 X94.291 Y124.276 E3.92336
G1 X93.951 Y123.646 E3.95669
G1 X93.683 Y122.983 E3.98999
G1 X93.491 Y122.294 E4.0233
G1 X93.377 Y121.588 E4.0566
G1 X93.335 Y120.762 E4.09511
G1 X93.333 Y120.589 E4.10316
G1 X93.334 Y90.312 E5.51299
G1 X93.345 Y89.629 E5.5448
G1 X93.396 Y88.916 E5.57808
G1 X93.527 Y88.212 E5.61142
G1 X93.735 Y87.528 E5.64471
G1 X94.019 Y86.871 E5.67804
G1 X94.374 Y86.25 E5.71135
G1 X94.796 Y85.673 E5.74464
G1 X95.153 Y85.272 E5.76964
M204 S3000
M205 X10 Y10
G0 F3000 X95.485 Y85.736
M204 S1800
M205 X8 Y8
G1 F2400 X95.939 Y85.28 E5.7996
G1 X96.424 Y84.86 E5.82947
G1 X96.98 Y84.445 E5.86178
G1 X97.557 Y84.079 E5.8936
G1 X98.172 Y83.783 E5.92538
G1 X98.882 Y83.543 E5.96028
G1 X99.162 Y83.468 E5.97377
G1 X100.002 Y83.308 E6.01359
G1 X100.322 Y83.271 E6.02859
G1 X101.077 Y83.233 E6.06379
G1 X102.256 Y83.25 E6.1187
G1 X105.151 Y83.249 E6.2535
G1 X106.494 Y83.229 E6.31604
G1 X107.846 Y83.229 E6.379
G1 X108.537 Y83.239 E6.41118
G1 X108.88 Y83.254 E6.42716
G1 X109.395 Y83.292 E6.45121
G1 X109.736 Y83.326 E6.46717
G1 X110.685 Y83.512 E6.5122
G1 X111.244 Y83.678 E6.53935
G1 X111.884 Y83.919 E6.57119
G1 X112.351 Y84.152 E6.5955
G1 X112.746 Y84.372 E6.61655
G1 X113.322 Y84.739 E6.64835
G1 X113.852 Y85.17 E6.68016
G1 X114.227 Y85.547 E6.70492
G1 X114.485 Y85.831 E6.72279
G1 X114.914 Y86.363 E6.75461
G1 X115.278 Y86.941 E6.78642
G1 X115.572 Y87.558 E6.81824
G1 X115.862 Y88.488 E6.8636
G1 X115.956 Y88.91 E6.88373
G1 X116.066 Y89.585 E6.91558
G1 X116.095 Y90.091 E6.93918
G1 X116.107 Y90.901 E6.9769
G1 X116.106 Y120.275 E8.34468
G1 X116.096 Y121.002 E8.37853
G1 X116.047 Y121.684 E8.41037
G1 X115.919 Y122.355 E8.44218
G1 X115.712 Y123.006 E8.47399
G1 X115.432 Y123.629 E8.50579
G1 X115.08 Y124.215 E8.53762
G1 X114.663 Y124.756 E8.56943
G1 X114.185 Y125.244 E8.60124
G1 X113.653 Y125.673 E8.63306
G1 X113.075 Y126.037 E8.66487
G1 X112.458 Y126.331 E8.69669
G1 X111.811 Y126.551 E8.72851
G1 X111.143 Y126.694 E8.76032
G1 X110.421 Y126.76 E8.79408
G1 X109.937 Y126.771 E8.81663
G1 X100.365 Y126.771 E9.26234
G1 X99.667 Y126.762 E9.29484
G1 X98.985 Y126.713 E9.32668
G1 X98.314 Y126.585 E9.35849
G1 X97.663 Y126.379 E9.39028
G1 X97.039 Y126.099 E9.42213
G1 X96.453 Y125.748 E9.45394
G1 X95.912 Y125.331 E9.48574
G1 X95.423 Y124.853 E9.51759
G1 X94.994 Y124.322 E9.54937
G1 X94.629 Y123.744 E9.5812
G1 X94.335 Y123.128 E9.61299
G1 X94.114 Y122.481 E9.64482
G1 X93.97 Y121.813 E9.67664
G1 X93.904 Y121.08 E9.71091
G1 X93.893 Y120.589 E9.73378
G1 X93.894 Y90.321 E11.14319
G1 X93.905 Y89.638 E11.17499
G1 X93.956 Y88.957 E11.20679
G1 X94.086 Y88.286 E11.23862
G1 X94.293 Y87.635 E11.27043
G1 X94.576 Y87.013 E11.30225
G1 X94.929 Y86.428 E11.33406
G1 X95.485 Y85.736 E11.3754
M204 S3000
M205 X10 Y10
G0 F3000 X95.894 Y86.119
M204 S1800
M205 X8 Y8
G1 F2400 X96.328 Y85.683 E11.40404
G1 X96.767 Y85.303 E11.43108
G1 X97.307 Y84.9 E11.46245
G1 X97.857 Y84.553 E11.49273
G1 X98.445 Y84.277 E11.52298
G1 X99.027 Y84.084 E11.55153
G1 X99.307 Y84.009 E11.56503
G1 X100.067 Y83.864 E11.60106
G1 X100.387 Y83.827 E11.61606
G1 X101.069 Y83.793 E11.64785
G1 X102.248 Y83.81 E11.70276
G1 X105.159 Y83.809 E11.83831
G1 X106.494 Y83.789 E11.90048
G1 X107.846 Y83.789 E11.96343
G1 X108.529 Y83.799 E11.99524
G1 X108.839 Y83.812 E12.00968
G1 X109.354 Y83.85 E12.03373
G1 X109.674 Y83.882 E12.04871
G1 X110.532 Y84.051 E12.08942
G1 X111.078 Y84.213 E12.11594
G1 X111.685 Y84.443 E12.14617
G1 X112.473 Y84.861 E12.18771
G1 X113.02 Y85.212 E12.21797
G1 X113.52 Y85.627 E12.24823
G1 X114.07 Y86.208 E12.28548
G1 X114.477 Y86.714 E12.31572
G1 X114.818 Y87.267 E12.34597
G1 X115.088 Y87.858 E12.37622
G1 X115.316 Y88.61 E12.41281
G1 X115.41 Y89.032 E12.43295
G1 X115.512 Y89.674 E12.46321
G1 X115.535 Y90.099 E12.48303
G1 X115.547 Y90.901 E12.52038
G1 X115.547 Y120.268 E13.88783
G1 X115.537 Y120.995 E13.92169
G1 X115.488 Y121.642 E13.9519
G1 X115.36 Y122.279 E13.98216
G1 X115.154 Y122.896 E14.01244
G1 X114.875 Y123.482 E14.04267
G1 X114.526 Y124.03 E14.07292
G1 X114.112 Y124.53 E14.10315
G1 X113.639 Y124.976 E14.13342
G1 X113.116 Y125.361 E14.16366
G1 X112.549 Y125.679 E14.19393
G1 X111.948 Y125.924 E14.22415
G1 X111.321 Y126.094 E14.2544
G1 X110.405 Y126.2 E14.29734
G1 X109.937 Y126.211 E14.31914
G1 X100.372 Y126.211 E14.76452
G1 X99.674 Y126.202 E14.79703
G1 X99.026 Y126.153 E14.82729
G1 X98.389 Y126.026 E14.85753
G1 X97.773 Y125.821 E14.88776
G1 X97.186 Y125.542 E14.91802
G1 X96.638 Y125.193 E14.94828
G1 X96.137 Y124.78 E14.97851
G1 X95.69 Y124.308 E15.00878
G1 X95.305 Y123.785 E15.03902
G1 X94.987 Y123.218 E15.06929
G1 X94.741 Y122.617 E15.09953
G1 X94.571 Y121.99 E15.12978
G1 X94.464 Y121.065 E15.17314
G1 X94.453 Y120.589 E15.19531
G1 X94.454 Y90.33 E16.6043
G1 X94.465 Y89.647 E16.6361
G1 X94.515 Y88.999 E16.66637
G1 X94.645 Y88.363 E16.69659
G1 X94.851 Y87.747 E16.72684
G1 X95.132 Y87.161 E16.7571
G1 X95.483 Y86.614 E16.78736
G1 X95.894 Y86.119 E16.81732
M204 S3000
M205 X10 Y10
G1 F2400 E10.81732
;MESH:led_strip_mk8_test.stl
G0 F3000 X101.445 Y88.404
G0 X101.445 Y89.928
G0 X104.193 Y90.616
M204 S1800
M205 X8 Y8
;TYPE:WALL-INNER
G1 F2400 E16.81732
G1 F1500 X104.81 Y90.592 E16.84607
G1 X105.965 Y90.533 E16.89993
G1 X106.258 Y90.519 E16.91358
G1 X106.258 Y90.812 E16.92229
G1 X106.258 Y90.813 E16.92234
G1 X106.258 Y119.531 E18.25957
G1 X101.133 Y119.531 E18.49821
G1 X101.133 Y90.605 E19.84513
G1 X101.133 Y90.469 E19.85146
G1 X101.434 Y90.469 E19.86547
G1 X101.569 Y90.476 E19.87071
G1 X104.193 Y90.616 E19.99307
M204 S3000
M205 X10 Y10
G0 F3000 X106.605 Y90.014
G0 X106.534 Y89.945
M204 S1800
M205 X8 Y8
G1 F1500 X106.535 Y89.909 E19.99475
G1 X106.818 Y89.909 E20.00793
G1 X106.818 Y89.945
G1 X106.818 Y90.09 E20.01468
G1 X106.818 Y120.091 E21.41165
G1 X100.573 Y120.091 E21.70244
G1 X100.573 Y90.109 E23.09853
G1 X100.776 Y89.941 E23.1108
G1 X100.904 Y89.909 E23.11694
G1 X101.445 Y89.909 E23.14213
G1 X104.197 Y90.055 E23.27046
G1 X104.785 Y90.033 E23.29786
G1 X106.39 Y89.952 E23.37269
G1 X106.534 Y89.945 E23.3782
M204 S3000
M205 X10 Y10
G0 F3000 X105.982 Y89.412
M204 S1800
M205 X8 Y8
;TYPE:WALL-OUTER
G1 F1500 X105.983 Y89.349 E23.38114
G1 X107.378 Y89.349 E23.44609
G1 X107.378 Y120.651 E24.90365
G1 X100.013 Y120.651 E25.24659
G1 X100.013 Y89.845 E26.68105
G1 X100.516 Y89.429 E26.71144
G1 X100.836 Y89.349 E26.7268
G1 X101.456 Y89.349 E26.75567
G1 X104.202 Y89.494 E26.88371
G1 X104.761 Y89.474 E26.90976
G1 X105.982 Y89.412 E26.96669
M204 S3000
M205 X10 Y10
G0 F3000 X105.983 Y89.349
G0 X106.12 Y89.349
G0 X106.155 Y90.064
G0 X105.708 Y91.098
M204 S1800
M205 X8 Y8
;TYPE:SKIN
G1 F1500 X105.708 Y118.981 E28.26504
G1 X101.683 Y118.981 E28.45246
G1 X101.683 Y91.034 E29.75379
G1 X104.189 Y91.166 E29.87064
G1 X104.834 Y91.142 E29.90069
G1 X105.708 Y91.098 E29.94144
M204 S3000
M205 X10 Y10
G0 F3000 X104.864 Y91.401
M204 S1800
M205 X8 Y8
G1 F1500 X105.448 Y91.984 E29.97987
M204 S3000
M205 X10 Y10
G0 F3000 X105.448 Y92.776
M204 S1800
M205 X8 Y8
G1 F1500 X104.092 Y91.421 E30.06913
M204 S3000
M205 X10 Y10
G0 F3000 X103.256 Y91.377
M204 S1800
M205 X8 Y8
G1 F1500 X105.448 Y93.568 E30.21344
M204 S3000
M205 X10 Y10
G0 F3000 X105.448 Y94.36
M204 S1800
M205 X8 Y8
G1 F1500 X102.42 Y91.333 E30.41281
M204 S3000
M205 X10 Y10
G0 F3000 X101.942 Y91.647
M204 S1800
M205 X8 Y8
G1 F1500 X105.448 Y95.152 E30.64365
M204 S3000
M205 X10 Y10
G0 F3000 X105.448 Y95.944
M204 S1800
M205 X8 Y8
G1 F1500 X101.942 Y92.439 E30.87449
M204 S3000
M205 X10 Y10
G0 F3000 X101.942 Y93.231
M204 S1800
M205 X8 Y8
G1 F1500 X105.448 Y96.736 E31.10534
M204 S3000
M205 X10 Y10
G0 F3000 X105.448 Y97.528
M204 S1800
M205 X8 Y8
G1 F1500 X101.942 Y94.023 E31.33618
M204 S3000
M205 X10 Y10
G0 F3000 X101.942 Y94.815
M204 S1800
M205 X8 Y8
G1 F1500 X105.448 Y98.32 E31.56702
M204 S3000
M205 X10 Y10
G0 F3000 X105.448 Y99.112
M204 S1800
M205 X8 Y8
G1 F1500 X101.942 Y95.607 E31.79787
M204 S3000
M205 X10 Y10
G0 F3000 X101.942 Y96.399
M204 S1800
M205 X8 Y8
G1 F1500 X105.448 Y99.904 E32.02871
M204 S3000
M205 X10 Y10
G0 F3000 X105.448 Y100.696
M204 S1800
M205 X8 Y8
G1 F1500 X101.942 Y97.191 E32.25955
M204 S3000
M205 X10 Y10
G0 F3000 X101.942 Y97.983
M204 S1800
M205 X8 Y8
G1 F1500 X105.448 Y101.488 E32.4904
M204 S3000
M205 X10 Y10
G0 F3000 X105.448 Y102.28
M204 S1800
M205 X8 Y8
G1 F1500 X101.942 Y98.775 E32.72124
M204 S3000
M205 X10 Y10
G0 F3000 X101.942 Y99.566
M204 S1800
M205 X8 Y8
G1 F1500 X105.448 Y103.072 E32.95212
M204 S3000
M205 X10 Y10
G0 F3000 X105.448 Y103.864
M204 S1800
M205 X8 Y8
G1 F1500 X101.942 Y100.358 E33.18299
M204 S3000
M205 X10 Y10
G0 F3000 X101.942 Y101.15
M204 S1800
M205 X8 Y8
G1 F1500 X105.448 Y104.656 E33.41387
M204 S3000
M205 X10 Y10
G0 F3000 X105.448 Y105.448
M204 S1800
M205 X8 Y8
G1 F1500 X101.942 Y101.942 E33.64474
M204 S3000
M205 X10 Y10
G0 F3000 X101.942 Y102.734
M204 S1800
M205 X8 Y8
G1 F1500 X105.448 Y106.239 E33.87559
M204 S3000
M205 X10 Y10
G0 F3000 X105.448 Y107.031
M204 S1800
M205 X8 Y8
G1 F1500 X101.942 Y103.526 E34.10643
M204 S3000
M205 X10 Y10
G0 F3000 X101.942 Y104.318
M204 S1800
M205 X8 Y8
G1 F1500 X105.448 Y107.823 E34.33727
M204 S3000
M205 X10 Y10
G0 F3000 X105.448 Y108.615
M204 S1800
M205 X8 Y8
G1 F1500 X101.942 Y105.11 E34.56812
M204 S3000
M205 X10 Y10
G0 F3000 X101.942 Y105.902
M204 S1800
M205 X8 Y8
G1 F1500 X105.448 Y109.407 E34.79896
M204 S3000
M205 X10 Y10
G0 F3000 X105.448 Y110.199
M204 S1800
M205 X8 Y8
G1 F1500 X101.942 Y106.694 E35.0298
M204 S3000
M205 X10 Y10
G0 F3000 X101.942 Y107.486
M204 S1800
M205 X8 Y8
G1 F1500 X105.448 Y110.991 E35.26065
M204 S3000
M205 X10 Y10
G0 F3000 X105.448 Y111.783
M204 S1800
M205 X8 Y8
G1 F1500 X101.942 Y108.278 E35.49149
M204 S3000
M205 X10 Y10
G0 F3000 X101.942 Y109.07
M204 S1800
M205 X8 Y8
G1 F1500 X105.448 Y112.575 E35.72233
M204 S3000
M205 X10 Y10
G0 F3000 X105.448 Y113.367
M204 S1800
M205 X8 Y8
G1 F1500 X101.942 Y109.862 E35.95318
M204 S3000
M205 X10 Y10
G0 F3000 X101.942 Y110.654
M204 S1800
M205 X8 Y8
G1 F1500 X105.448 Y114.159 E36.18402
M204 S3000
M205 X10 Y10
G0 F3000 X105.448 Y114.951
M204 S1800
M205 X8 Y8
G1 F1500 X101.942 Y111.446 E36.41486
M204 S3000
M205 X10 Y10
G0 F3000 X101.942 Y112.238
M204 S1800
M205 X8 Y8
G1 F1500 X105.448 Y115.743 E36.64571
M204 S3000
M205 X10 Y10
G0 F3000 X105.448 Y116.535
M204 S1800
M205 X8 Y8
G1 F1500 X101.942 Y113.03 E36.87655
M204 S3000
M205 X10 Y10
G0 F3000 X101.942 Y113.822
M204 S1800
M205 X8 Y8
G1 F1500 X105.448 Y117.327 E37.10739
M204 S3000
M205 X10 Y10
G0 F3000 X105.448 Y118.119
M204 S1800
M205 X8 Y8
G1 F1500 X101.942 Y114.614 E37.33824
M204 S3000
M205 X10 Y10
G0 F3000 X101.942 Y115.406
M204 S1800
M205 X8 Y8
G1 F1500 X105.257 Y118.72 E37.5565
M204 S3000
M205 X10 Y10
G0 F3000 X104.465 Y118.72
M204 S1800
M205 X8 Y8
G1 F1500 X101.942 Y116.198 E37.72261
M204 S3000
M205 X10 Y10
G0 F3000 X101.942 Y116.99
M204 S1800
M205 X8 Y8
G1 F1500 X103.673 Y118.72 E37.83657
M204 S3000
M205 X10 Y10
G0 F3000 X102.881 Y118.72
M204 S1800
M205 X8 Y8
G1 F1500 X101.942 Y117.782 E37.89837
M204 S3000
M205 X10 Y10
G0 F3000 X101.942 Y118.574
M204 S1800
M205 X8 Y8
G1 F1500 X102.089 Y118.72 E37.90802
M204 S3000
M205 X10 Y10
G1 F2400 E31.90802
G0 F3000 X106.798 Y90.046
G0 X108.555 Y90.046
G0 X108.927 Y89.948
M204 S1800
M205 X8 Y8
;TYPE:WALL-INNER
G1 F2400 E37.90802
G1 F1500 X109.034 Y89.979 E37.9132
G1 X109.224 Y90.036 E37.92244
G1 X109.403 Y90.144 E37.93218
G1 X109.427 Y90.262 E37.93778
G1 X109.427 Y120.091 E39.32675
G1 X108.535 Y120.091 E39.36828
G1 X108.535 Y90.06 E40.76665
G1 X108.535 Y89.948 E40.77124
G1 X108.535 Y89.912 E40.77292
G1 X108.927 Y89.948 E40.78522
M204 S3000
M205 X10 Y10
G0 F3000 X109.032 Y89.395
M204 S1800
M205 X8 Y8
;TYPE:WALL-OUTER
G1 F1500 X109.446 Y89.518 E40.80533
G1 X109.759 Y89.7 E40.82219
G1 X109.923 Y89.887 E40.83377
G1 X109.987 Y90.208 E40.84901
G1 X109.987 Y120.651 E42.26656
G1 X107.975 Y120.651 E42.36025
G1 X107.975 Y89.349 E43.8178
G1 X108.538 Y89.349 E43.84402
G1 X109.032 Y89.395 E43.86712
M204 S3000
M205 X10 Y10
G0 F3000 X109.224 Y89.452
G0 X109.021 Y90.354
M204 S1800
M205 X8 Y8
;TYPE:SKIN
G1 F1500 X108.98 Y90.595 E43.87415
G1 X108.98 Y119.445 E44.70406
G1 X108.937 Y119.686 E44.7111
M204 S3000
M205 X10 Y10
G0 F3000 X108.867 Y119.531
G1 F2400 E38.7111
;MESH:NONMESH
G0 F600 X108.867 Y119.531 Z0.4
G0 F3000 X108.555 Y90.202
G0 X106.798 Y90.202
G0 X104.195 Y90.202
;TIME_ELAPSED:41.923686
;LAYER:1
M204 S1800
M205 X8 Y8
;TYPE:WALL-INNER
;MESH:led_strip_mk8_test.stl
G1 F2400 E44.7111
G1 F2250 X105.632 Y90.152 E44.75893
G1 X106.449 Y90.109 E44.78614
G1 X106.658 Y90.099 E44.7931
G1 X106.658 Y90.308 E44.79754
G1 X106.658 Y90.309 E44.79757
G1 X106.658 Y119.931 E45.7828
G1 X100.733 Y119.931 E45.97987
G1 X100.733 Y90.185 E46.96923
G1 X100.921 Y90.069 E46.97657
G1 X101.68 Y90.069 E47.00182
G1 X104.195 Y90.202 E47.08558
M204 S3000
M205 X10 Y10
G0 F4500 X104.199 Y89.802
M204 S1800
M205 X8 Y8
G1 F2250 X105.615 Y89.752 E47.13271
