;FLAVOR:Marlin
;TIME:5519
;Filament used: 6.16996m
;Layer height: 0.2
;MINX:91.956
;MINY:20.647
;MINZ:0.2
;MAXX:118.044
;MAXY:189.353
;MAXZ:14.8
;Generated with Cura_SteamEngine 4.8.0
M140 S60
M105
M190 S60
M104 S200
M105
M109 S200
M82 ;absolute extrusion mode
; Script based on an original created by tjjfvi (https://github.com/tjjfvi)
; An up-to-date version of the tjjfvi's original script can be found
; here:  https://csi.t6.fyi/
; Note - This script will only work in Cura V4.2 and above!
; --- Global Settings
; layer_height = 0.2
; smooth_spiralized_contours = True
; magic_mesh_surface_mode = normal
; machine_extruder_count = 1
; --- Single Extruder Settings
; speed_z_hop = 10
; retraction_amount = 6
; retraction_hop = 0.075
; retraction_hop_enabled = True
; retraction_enable = True
; retraction_speed = 40
; retraction_retract_speed = 40
; retraction_prime_speed = 40
; speed_travel = 100


G21 ;metric values
G90 ;absolute positioning
M82 ;set extruder to absolute mode
M107 ;start with the fan off
G28 X0 Y0 ;move X/Y to min endstops
G28 Z0 ;move Z to min endstops
G1 Z15.0 F100 ;move the platform down 15mm
G92 E0 ;zero the extruded length
G1 F200 E3 ;extrude 3mm of feed stock
G92 E0 ;zero the extruded length again
G1 F100
G0 Y20 F100
M117 Printing...
G5
G92 E0
G92 E0
G1 F2400 E-6
;LAYER_COUNT:74
;LAYER:0
M106 S255
M204 S3000
M205 X10 Y10
G1 F600 Z0.275
G0 F3000 X92.147 Y26.168 Z0.275
M204 S1800
M205 X8 Y8
;TYPE:SKIRT
G1 F600 Z0.2
G1 F2400 E0
G1 X92.354 Y25.483 E0.03332
G1 X92.637 Y24.826 E0.06663
G1 X92.991 Y24.205 E0.09992
G1 X93.412 Y23.626 E0.13325
G1 X94.091 Y22.915 E0.17903
G1 X94.403 Y22.635 E0.19855
G1 X94.962 Y22.188 E0.23188
G1 X95.457 Y21.868 E0.25932
G1 X96.187 Y21.476 E0.29791
G1 X96.841 Y21.186 E0.33122
G1 X97.523 Y20.971 E0.36452
G1 X97.884 Y20.89 E0.38174
G1 X98.383 Y20.793 E0.40541
G1 X98.825 Y20.721 E0.42627
G1 X99.637 Y20.658 E0.46419
G1 X100.416 Y20.647 E0.50047
G1 X109.464 Y20.647 E0.92178
G1 X110.198 Y20.657 E0.95596
G1 X111.137 Y20.739 E0.99985
G1 X111.696 Y20.83 E1.02622
G1 X112.063 Y20.901 E1.04363
G1 X112.753 Y21.089 E1.07693
G1 X113.517 Y21.399 E1.11532
G1 X113.968 Y21.621 E1.13873
G1 X114.083 Y21.681 E1.14477
G1 X114.556 Y21.954 E1.1702
G1 X114.965 Y22.214 E1.19277
G1 X115.547 Y22.631 E1.22611
G1 X116.078 Y23.11 E1.2594
G1 X116.552 Y23.645 E1.29269
G1 X116.964 Y24.23 E1.32601
G1 X117.307 Y24.857 E1.35928
G1 X117.579 Y25.519 E1.39261
G1 X117.77 Y26.183 E1.42478
G1 X117.907 Y26.811 E1.45471
G1 X118.03 Y27.863 E1.50403
G1 X118.044 Y28.408 E1.52942
G1 X118.043 Y181.321 E8.64969
G1 X118.033 Y182.023 E8.68238
G1 X117.983 Y182.737 E8.71571
G1 X117.854 Y183.44 E8.74899
G1 X117.647 Y184.125 E8.78231
G1 X117.364 Y184.782 E8.81562
G1 X116.991 Y185.446 E8.85108
G1 X116.413 Y186.264 E8.89772
G1 X115.968 Y186.784 E8.92959
G1 X115.465 Y187.292 E8.96288
G1 X114.908 Y187.741 E8.99619
G1 X114.434 Y188.05 E9.02254
G1 X113.775 Y188.419 E9.05771
G1 X113.128 Y188.723 E9.091
G1 X112.45 Y188.953 E9.12433
G1 X111.896 Y189.081 E9.15081
G1 X111.332 Y189.181 E9.17748
G1 X111.057 Y189.222 E9.19043
G1 X110.362 Y189.287 E9.22293
G1 X109.457 Y189.326 E9.26511
G1 X108.651 Y189.35 E9.30266
G1 X108.461 Y189.353 E9.31151
G1 X100.336 Y189.352 E9.68984
G1 X99.633 Y189.342 E9.72258
G1 X98.919 Y189.292 E9.75591
G1 X98.216 Y189.163 E9.78919
G1 X97.682 Y189.012 E9.81503
G1 X96.975 Y188.766 E9.84988
G1 X96.306 Y188.482 E9.88373
G1 X95.88 Y188.267 E9.90595
G1 X95.323 Y187.966 E9.93543
G1 X94.714 Y187.592 E9.96871
G1 X94.15 Y187.151 E10.00204
G1 X93.639 Y186.651 E10.03533
G1 X93.187 Y186.097 E10.06863
G1 X92.8 Y185.495 E10.10195
G1 X92.482 Y184.854 E10.13527
G1 X92.238 Y184.182 E10.16856
G1 X92.07 Y183.487 E10.20185
G1 X91.971 Y182.59 E10.24388
G1 X91.956 Y181.858 E10.27797
G1 X91.957 Y28.271 E17.42962
G1 X91.967 Y27.585 E17.46157
G1 X92.017 Y26.871 E17.4949
G1 X92.147 Y26.168 E17.52819
M204 S3000
M205 X10 Y10
G0 F3000 X92.706 Y26.241
M204 S1800
M205 X8 Y8
G1 F2400 X92.912 Y25.589 E17.56002
G1 X93.194 Y24.967 E17.59183
G1 X93.546 Y24.381 E17.62366
G1 X93.964 Y23.841 E17.65545
G1 X94.465 Y23.332 E17.68871
G1 X94.777 Y23.052 E17.70823
G1 X95.312 Y22.626 E17.74008
G1 X95.738 Y22.352 E17.76366
G1 X96.442 Y21.974 E17.80087
G1 X97.067 Y21.699 E17.83266
G1 X97.991 Y21.439 E17.87736
G1 X98.49 Y21.342 E17.90103
G1 X98.904 Y21.276 E17.92055
G1 X99.645 Y21.218 E17.95516
G1 X100.416 Y21.207 E17.99107
G1 X109.464 Y21.207 E18.41238
G1 X110.19 Y21.217 E18.44619
G1 X111.047 Y21.292 E18.48625
G1 X111.606 Y21.383 E18.51262
G1 X111.946 Y21.448 E18.52874
G1 X112.605 Y21.63 E18.56057
G1 X113.273 Y21.903 E18.59417
G1 X113.824 Y22.177 E18.62283
G1 X114.665 Y22.687 E18.66863
G1 X115.219 Y23.086 E18.70042
G1 X115.723 Y23.548 E18.73225
G1 X116.169 Y24.065 E18.76405
G1 X116.552 Y24.631 E18.79587
G1 X116.866 Y25.238 E18.82769
G1 X117.107 Y25.877 E18.85949
G1 X117.294 Y26.614 E18.8949
G1 X117.358 Y26.922 E18.90954
G1 X117.47 Y27.882 E18.95455
G1 X117.484 Y28.408 E18.97905
G1 X117.483 Y181.313 E26.09895
G1 X117.473 Y182.015 E26.13164
G1 X117.424 Y182.697 E26.16348
G1 X117.295 Y183.368 E26.19529
G1 X117.088 Y184.019 E26.2271
G1 X116.654 Y184.915 E26.27346
G1 X116.509 Y185.159 E26.28668
G1 X115.983 Y185.906 E26.32922
G1 X115.549 Y186.413 E26.3603
G1 X115.067 Y186.897 E26.3921
G1 X114.531 Y187.321 E26.42393
G1 X113.995 Y187.659 E26.45343
G1 X113.509 Y187.926 E26.47925
G1 X112.89 Y188.215 E26.51106
G1 X112.241 Y188.429 E26.54288
G1 X111.447 Y188.594 E26.58064
G1 X110.974 Y188.668 E26.60294
G1 X110.34 Y188.728 E26.63259
G1 X109.441 Y188.766 E26.67449
G1 X108.635 Y188.79 E26.71204
G1 X108.461 Y188.793 E26.72014
G1 X100.344 Y188.792 E27.0981
G1 X99.641 Y188.782 E27.13084
G1 X98.96 Y188.733 E27.16263
G1 X98.026 Y188.531 E27.20713
G1 X97.164 Y188.239 E27.24951
G1 X96.554 Y187.98 E27.28037
G1 X96.147 Y187.775 E27.30159
G1 X95.59 Y187.474 E27.33107
G1 X95.009 Y187.114 E27.36289
G1 X94.473 Y186.69 E27.39472
G1 X93.992 Y186.205 E27.42652
G1 X93.57 Y185.668 E27.45832
G1 X93.213 Y185.085 E27.49016
G1 X92.928 Y184.464 E27.52197
G1 X92.716 Y183.814 E27.55381
G1 X92.582 Y183.145 E27.58558
G1 X92.531 Y182.568 E27.61255
G1 X92.516 Y181.853 E27.64585
G1 X92.517 Y28.279 E34.7969
G1 X92.527 Y27.593 E34.82885
G1 X92.577 Y26.911 E34.86069
G1 X92.706 Y26.241 E34.89246
M204 S3000
M205 X10 Y10
G0 F3000 X93.265 Y26.317
M204 S1800
M205 X8 Y8
G1 F2400 X93.47 Y25.7 E34.92274
G1 X93.75 Y25.114 E34.95298
G1 X94.1 Y24.567 E34.98321
G1 X94.514 Y24.066 E35.01348
G1 X95.151 Y23.468 E35.05416
G1 X95.661 Y23.065 E35.08443
G1 X96.123 Y22.776 E35.1098
G1 X96.697 Y22.473 E35.14003
G1 X97.293 Y22.213 E35.1703
G1 X98.097 Y21.989 E35.20917
G1 X98.596 Y21.892 E35.23284
G1 X98.983 Y21.83 E35.25109
G1 X99.653 Y21.778 E35.28238
G1 X100.416 Y21.767 E35.31791
G1 X109.464 Y21.767 E35.73923
G1 X110.183 Y21.777 E35.77271
G1 X110.957 Y21.845 E35.80889
G1 X111.516 Y21.936 E35.83526
G1 X111.83 Y21.996 E35.85015
G1 X112.455 Y22.17 E35.88036
G1 X113.029 Y22.407 E35.90927
G1 X113.565 Y22.674 E35.93716
G1 X114.365 Y23.159 E35.98072
G1 X114.89 Y23.541 E36.01095
G1 X115.365 Y23.984 E36.04119
G1 X115.782 Y24.482 E36.07144
G1 X116.135 Y25.028 E36.10171
G1 X116.418 Y25.613 E36.13197
G1 X116.678 Y26.434 E36.17207
G1 X116.809 Y27.032 E36.20058
G1 X116.91 Y27.9 E36.24127
G1 X116.924 Y28.408 E36.26493
G1 X116.923 Y181.305 E43.38446
G1 X116.913 Y182.007 E43.41715
G1 X116.864 Y182.655 E43.44741
G1 X116.736 Y183.292 E43.47766
G1 X116.53 Y183.908 E43.50791
G1 X116.173 Y184.629 E43.54537
G1 X116.028 Y184.873 E43.55859
G1 X115.552 Y185.548 E43.59705
G1 X115.13 Y186.042 E43.6273
G1 X114.67 Y186.5 E43.65753
G1 X114.157 Y186.899 E43.68779
G1 X113.71 Y187.177 E43.7123
G1 X113.243 Y187.433 E43.7371
G1 X112.653 Y187.706 E43.76737
G1 X112.035 Y187.904 E43.79759
G1 X111.346 Y188.043 E43.83032
G1 X110.892 Y188.114 E43.85171
G1 X110.319 Y188.168 E43.87851
G1 X109.519 Y188.203 E43.9158
G1 X108.618 Y188.231 E43.95778
G1 X108.461 Y188.233 E43.96509
G1 X100.352 Y188.232 E44.34268
G1 X99.649 Y188.222 E44.37541
G1 X99.001 Y188.173 E44.40567
G1 X98.189 Y187.995 E44.44438
G1 X97.353 Y187.712 E44.48548
G1 X96.801 Y187.478 E44.5134
G1 X96.413 Y187.282 E44.53364
G1 X95.856 Y186.981 E44.56312
G1 X95.304 Y186.638 E44.59338
G1 X94.799 Y186.229 E44.62364
G1 X94.348 Y185.762 E44.65387
G1 X93.958 Y185.242 E44.68414
G1 X93.634 Y184.679 E44.71438
G1 X93.382 Y184.08 E44.74464
G1 X93.206 Y183.455 E44.77488
G1 X93.09 Y182.546 E44.81755
G1 X93.076 Y181.848 E44.85006
G1 X93.077 Y28.287 E52.0005
G1 X93.087 Y27.601 E52.03245
G1 X93.136 Y26.953 E52.06271
G1 X93.265 Y26.317 E52.09292
M204 S3000
M205 X10 Y10
G1 F2400 E46.09292
;MESH:led_strip_mk10.stl
G0 F3000 X109.674 Y26.382
G0 X109.674 Y27.901
G0 X110.244 Y28.483
M204 S1800
M205 X8 Y8
;TYPE:WALL-INNER
G1 F2400 E52.09292
G1 F1500 X110.244 Y181.463 E59.21631
G1 X110.22 Y181.467 E59.21745
G1 X110.22 Y28.479 E59.52293
G1 X110.244 Y28.483 E59.52406
M204 S3000
M205 X10 Y10
G0 F3000 X110.168 Y27.9
M204 S1800
M205 X8 Y8
G1 F1500 X110.463 Y27.954 E59.53803
G1 X110.794 Y28.12 E59.55527
G1 X110.804 Y28.165 E59.55742
G1 X110.804 Y181.67 E66.70525
G1 X110.634 Y181.892 E66.71827
G1 X110.448 Y181.996 E66.72819
G1 X110.149 Y182.046 E66.74231
G1 X110.053 Y182.062 E66.74684
G1 X109.66 Y182.062 E66.76514
G1 X109.66 Y181.964 E66.76919
G1 X109.66 Y27.961 E73.94021
G1 X109.66 Y27.887 E73.94366
G1 X110.096 Y27.887 E73.96396
G1 X110.168 Y27.9 E73.96708
M204 S3000
M205 X10 Y10
G0 F3000 X110.641 Y27.417
M204 S1800
M205 X8 Y8
;TYPE:WALL-OUTER
G1 F1500 X111.095 Y27.644 E73.99071
G1 X111.292 Y27.775 E74.00173
G1 X111.364 Y28.106 E74.0175
G1 X111.364 Y181.86 E81.17693
G1 X111.009 Y182.324 E81.20414
G1 X110.635 Y182.532 E81.22406
G1 X110.098 Y182.622 E81.24942
G1 X109.1 Y182.622 E81.29589
G1 X109.1 Y27.327 E88.52708
G1 X110.148 Y27.327 E88.57587
G1 X110.641 Y27.417 E88.59921
M204 S3000
M205 X10 Y10
G0 F3000 X110.82 Y27.506
G0 X110.244 Y28.507
G1 F2400 E82.59921
G0 F3000 X109.68 Y181.553
G0 X107.931 Y181.553
G0 X107.391 Y181.553
M204 S1800
M205 X8 Y8
;TYPE:WALL-INNER
G1 F2400 E88.59921
G1 F1500 X99.951 Y181.553 E88.94565
G1 X99.756 Y181.486 E88.95525
G1 X99.756 Y28.462 E96.08069
G1 X99.841 Y28.447 E96.08471
G1 X107.391 Y28.447 E96.43627
G1 X107.391 Y181.553 E103.56552
M204 S3000
M205 X10 Y10
G0 F3000 X107.951 Y182.113
M204 S1800
M205 X8 Y8
G1 F1500 X99.859 Y182.113 E103.94232
G1 X99.467 Y181.978 E103.96163
G1 X99.196 Y181.833 E103.97594
G1 X99.196 Y28.065 E111.13602
G1 X99.403 Y27.954 E111.14696
G1 X99.792 Y27.887 E111.16534
G1 X107.951 Y27.887 E111.54525
G1 X107.951 Y182.113 E118.72666
M204 S3000
M205 X10 Y10
G0 F3000 X107.881 Y182.043
G0 X99.281 Y181.782
G0 X98.782 Y182.247
M204 S1800
M205 X8 Y8
;TYPE:WALL-OUTER
G1 F1500 X98.636 Y182.172 E118.73431
G1 X98.636 Y27.785 E125.92321
G1 X98.808 Y27.637 E125.93378
G1 X99.219 Y27.417 E125.95548
G1 X99.744 Y27.327 E125.98029
G1 X108.511 Y27.327 E126.38851
G1 X108.511 Y182.673 E133.62208
G1 X99.767 Y182.673 E134.02923
G1 X99.239 Y182.491 E134.05524
G1 X98.782 Y182.247 E134.07936
M204 S3000
M205 X10 Y10
G0 F3000 X98.636 Y182.172
G0 X98.636 Y182.136
G0 X99.281 Y181.782
G0 X100.306 Y181.003
M204 S1800
M205 X8 Y8
;TYPE:SKIN
G1 F1500 X100.306 Y28.997 E141.1574
G1 X106.841 Y28.997 E141.46169
G1 X106.841 Y181.003 E148.53973
G1 X100.306 Y181.003 E148.84403
M204 S3000
M205 X10 Y10
G0 F3000 X100.754 Y180.742
M204 S1800
M205 X8 Y8
G1 F1500 X100.565 Y180.553 E148.85647
M204 S3000
M205 X10 Y10
G0 F3000 X100.565 Y179.761
M204 S1800
M205 X8 Y8
G1 F1500 X101.546 Y180.742 E148.92107
M204 S3000
M205 X10 Y10
G0 F3000 X102.338 Y180.742
M204 S1800
M205 X8 Y8
G1 F1500 X100.565 Y178.969 E149.03783
M204 S3000
M205 X10 Y10
G0 F3000 X100.565 Y178.177
M204 S1800
M205 X8 Y8
G1 F1500 X103.13 Y180.742 E149.20674
M204 S3000
M205 X10 Y10
G0 F3000 X103.922 Y180.742
M204 S1800
M205 X8 Y8
G1 F1500 X100.565 Y177.385 E149.4278
M204 S3000
M205 X10 Y10
G0 F3000 X100.565 Y176.593
M204 S1800
M205 X8 Y8
G1 F1500 X104.714 Y180.742 E149.70102
M204 S3000
M205 X10 Y10
G0 F3000 X105.505 Y180.742
M204 S1800
M205 X8 Y8
G1 F1500 X100.565 Y175.801 E150.02636
M204 S3000
M205 X10 Y10
G0 F3000 X100.565 Y175.009
M204 S1800
M205 X8 Y8
G1 F1500 X106.297 Y180.742 E150.40386
M204 S3000
M205 X10 Y10
G0 F3000 X106.58 Y180.233
M204 S1800
M205 X8 Y8
G1 F1500 X100.565 Y174.217 E150.79999
M204 S3000
M205 X10 Y10
G0 F3000 X100.565 Y173.425
M204 S1800
M205 X8 Y8
G1 F1500 X106.58 Y179.441 E151.19612
M204 S3000
M205 X10 Y10
G0 F3000 X106.58 Y178.649
M204 S1800
M205 X8 Y8
G1 F1500 X100.565 Y172.633 E151.59225
M204 S3000
M205 X10 Y10
G0 F3000 X100.565 Y171.841
M204 S1800
M205 X8 Y8
G1 F1500 X106.58 Y177.857 E151.98838
M204 S3000
M205 X10 Y10
G0 F3000 X106.58 Y177.065
M204 S1800
M205 X8 Y8
G1 F1500 X100.565 Y171.049 E152.38451
M204 S3000
M205 X10 Y10
G0 F3000 X100.565 Y170.257
M204 S1800
M205 X8 Y8
G1 F1500 X106.58 Y176.273 E152.78064
M204 S3000
M205 X10 Y10
G0 F3000 X106.58 Y175.481
M204 S1800
M205 X8 Y8
G1 F1500 X100.565 Y169.465 E153.17677
M204 S3000
M205 X10 Y10
G0 F3000 X100.565 Y168.673
M204 S1800
M205 X8 Y8
G1 F1500 X106.58 Y174.689 E153.5729
M204 S3000
M205 X10 Y10
G0 F3000 X106.58 Y173.897
M204 S1800
M205 X8 Y8
G1 F1500 X100.565 Y167.881 E153.96904
M204 S3000
M205 X10 Y10
G0 F3000 X100.565 Y167.09
M204 S1800
M205 X8 Y8
G1 F1500 X106.58 Y173.105 E154.36513
M204 S3000
M205 X10 Y10
G0 F3000 X106.58 Y172.313
M204 S1800
M205 X8 Y8
G1 F1500 X100.565 Y166.298 E154.76123
M204 S3000
M205 X10 Y10
G0 F3000 X100.565 Y165.506
M204 S1800
M205 X8 Y8
G1 F1500 X106.58 Y171.521 E155.15733
M204 S3000
M205 X10 Y10
G0 F3000 X106.58 Y170.729
M204 S1800
M205 X8 Y8
G1 F1500 X100.565 Y164.714 E155.55343
M204 S3000
M205 X10 Y10
G0 F3000 X100.565 Y163.922
M204 S1800
M205 X8 Y8
G1 F1500 X106.58 Y169.937 E155.94953
M204 S3000
M205 X10 Y10
G0 F3000 X106.58 Y169.145
M204 S1800
M205 X8 Y8
G1 F1500 X100.565 Y163.13 E156.34562
M204 S3000
M205 X10 Y10
G0 F3000 X100.565 Y162.338
M204 S1800
M205 X8 Y8
G1 F1500 X106.58 Y168.353 E156.74172
M204 S3000
M205 X10 Y10
G0 F3000 X106.58 Y167.561
M204 S1800
M205 X8 Y8
G1 F1500 X100.565 Y161.546 E157.13782
M204 S3000
M205 X10 Y10
G0 F3000 X100.565 Y160.754
M204 S1800
M205 X8 Y8
G1 F1500 X106.58 Y166.769 E157.53392
M204 S3000
M205 X10 Y10
G0 F3000 X106.58 Y165.977
M204 S1800
M205 X8 Y8
G1 F1500 X100.565 Y159.962 E157.93002
M204 S3000
M205 X10 Y10
G0 F3000 X100.565 Y159.17
M204 S1800
M205 X8 Y8
G1 F1500 X106.58 Y165.185 E158.32611
M204 S3000
M205 X10 Y10
G0 F3000 X106.58 Y164.393
M204 S1800
M205 X8 Y8
G1 F1500 X100.565 Y158.378 E158.72221
M204 S3000
M205 X10 Y10
G0 F3000 X100.565 Y157.586
M204 S1800
M205 X8 Y8
G1 F1500 X106.58 Y163.601 E159.11831
M204 S3000
M205 X10 Y10
G0 F3000 X106.58 Y162.809
M204 S1800
M205 X8 Y8
G1 F1500 X100.565 Y156.794 E159.51441
M204 S3000
M205 X10 Y10
G0 F3000 X100.565 Y156.002
M204 S1800
M205 X8 Y8
G1 F1500 X106.58 Y162.017 E159.91051
M204 S3000
M205 X10 Y10
G0 F3000 X106.58 Y161.226
M204 S1800
M205 X8 Y8
G1 F1500 X100.565 Y155.21 E160.30664
M204 S3000
M205 X10 Y10
G0 F3000 X100.565 Y154.418
M204 S1800
M205 X8 Y8
G1 F1500 X106.58 Y160.434 E160.70277
M204 S3000
M205 X10 Y10
G0 F3000 X106.58 Y159.642
M204 S1800
M205 X8 Y8
G1 F1500 X100.565 Y153.626 E161.0989
M204 S3000
M205 X10 Y10
G0 F3000 X100.565 Y152.834
M204 S1800
M205 X8 Y8
G1 F1500 X106.58 Y158.85 E161.49503
M204 S3000
M205 X10 Y10
G0 F3000 X106.58 Y158.058
M204 S1800
M205 X8 Y8
G1 F1500 X100.565 Y152.042 E161.89116
M204 S3000
M205 X10 Y10
G0 F3000 X100.565 Y151.25
M204 S1800
M205 X8 Y8
G1 F1500 X106.58 Y157.266 E162.28729
M204 S3000
M205 X10 Y10
G0 F3000 X106.58 Y156.474
M204 S1800
M205 X8 Y8
G1 F1500 X100.565 Y150.458 E162.68342
M204 S3000
M205 X10 Y10
G0 F3000 X100.565 Y149.666
M204 S1800
M205 X8 Y8
G1 F1500 X106.58 Y155.682 E163.07955
M204 S3000
M205 X10 Y10
G0 F3000 X106.58 Y154.89
M204 S1800
M205 X8 Y8
G1 F1500 X100.565 Y148.874 E163.47568
M204 S3000
M205 X10 Y10
G0 F3000 X100.565 Y148.083
M204 S1800
M205 X8 Y8
G1 F1500 X106.58 Y154.098 E163.87178
M204 S3000
M205 X10 Y10
G0 F3000 X106.58 Y153.306
M204 S1800
M205 X8 Y8
G1 F1500 X100.565 Y147.291 E164.26788
M204 S3000
M205 X10 Y10
G0 F3000 X100.565 Y146.499
M204 S1800
M205 X8 Y8
