;FLAVOR:Marlin
;TIME:19929
;Filament used: 19.3347m
;Layer height: 0.2
;MINX:31.785
;MINY:20.059
;MINZ:0.2
;MAXX:166.183
;MAXY:190.034
;MAXZ:15
;Generated with Cura_SteamEngine 4.8.0
M140 S60
M105
M190 S60
M104 S200
M105
M109 S200
M82 ;absolute extrusion mode
; Script based on an original created by tjjfvi (https://github.com/tjjfvi)
; An up-to-date version of the tjjfvi's original script can be found
; here:  https://csi.t6.fyi/
; Note - This script will only work in Cura V4.2 and above!
; --- Global Settings
; layer_height = 0.2
; smooth_spiralized_contours = True
; magic_mesh_surface_mode = normal
; machine_extruder_count = 1
; --- Single Extruder Settings
; speed_z_hop = 10
; retraction_amount = 6
; retraction_hop = 0.075
; retraction_hop_enabled = True
; retraction_enable = True
; retraction_speed = 40
; retraction_retract_speed = 40
; retraction_prime_speed = 40
; speed_travel = 100


G21 ;metric values
G90 ;absolute positioning
M82 ;set extruder to absolute mode
M107 ;start with the fan off
G28 X0 Y0 ;move X/Y to min endstops
G28 Z0 ;move Z to min endstops
G1 Z15.0 F100 ;move the platform down 15mm
G92 E0 ;zero the extruded length
G1 F200 E3 ;extrude 3mm of feed stock
G92 E0 ;zero the extruded length again
G1 F100
G0 Y20 F100
M117 Printing...
G5
G92 E0
G92 E0
G1 F2400 E-6
;LAYER_COUNT:75
;LAYER:0
M106 S255
M204 S3000
M205 X10 Y10
G1 F600 Z0.275
G0 F3000 X33.083 Y24.366 Z0.275
M204 S1800
M205 X8 Y8
;TYPE:SKIRT
G1 F600 Z0.2
G1 F2400 E0
G1 X33.517 Y23.798 E0.03329
G1 X34.03 Y23.254 E0.0681
G1 X34.558 Y22.771 E0.10142
G1 X35.136 Y22.351 E0.13469
G1 X35.706 Y22.024 E0.16529
G1 X36.398 Y21.692 E0.20103
G1 X37.085 Y21.45 E0.23495
G1 X37.752 Y21.294 E0.26684
G1 X38.25 Y21.211 E0.29035
G1 X38.992 Y21.145 E0.32504
G1 X39.483 Y21.133 E0.34791
G1 X45.075 Y21.133 E0.6083
G1 X45.79 Y21.144 E0.64159
G1 X46.329 Y21.175 E0.66673
G1 X49.097 Y21.412 E0.79609
G1 X51.77 Y21.563 E0.92076
G1 X54.376 Y21.637 E1.04215
G1 X57.054 Y21.637 E1.16685
G1 X59.665 Y21.563 E1.28848
G1 X63.575 Y21.318 E1.4709
G1 X64.405 Y21.26 E1.50965
G1 X65.594 Y21.236 E1.56502
G1 X70.49 Y21.235 E1.793
G1 X71.287 Y21.246 E1.83012
G1 X71.891 Y21.278 E1.85828
G1 X74.609 Y21.432 E1.98505
G1 X77.22 Y21.507 E2.10667
G1 X79.863 Y21.507 E2.22974
G1 X82.536 Y21.432 E2.35426
G1 X85.182 Y21.282 E2.47767
G1 X87.809 Y21.06 E2.60043
G1 X90.431 Y20.762 E2.7233
G1 X91.338 Y20.64 E2.76592
G1 X91.537 Y20.617 E2.77524
G1 X92.083 Y20.578 E2.80073
G1 X92.576 Y20.566 E2.8237
G1 X98.138 Y20.566 E3.08269
G1 X98.835 Y20.576 E3.11515
G1 X99.195 Y20.591 E3.13192
G1 X100.14 Y20.658 E3.17604
G1 X101.329 Y20.758 E3.2316
G1 X103.942 Y20.904 E3.35346
G1 X106.619 Y20.978 E3.47816
G1 X109.261 Y20.976 E3.60118
G1 X111.903 Y20.899 E3.72426
G1 X114.505 Y20.75 E3.84561
G1 X117.184 Y20.52 E3.97082
G1 X119.822 Y20.219 E4.09445
G1 X120.425 Y20.138 E4.12278
G1 X120.671 Y20.11 E4.13431
G1 X121.206 Y20.072 E4.15929
G1 X121.699 Y20.06 E4.18225
G1 X127.168 Y20.059 E4.43691
G1 X127.984 Y20.071 E4.47491
G1 X128.699 Y20.122 E4.50829
G1 X130.12 Y20.304 E4.575
G1 X130.633 Y20.372 E4.59909
G1 X133.298 Y20.664 E4.72393
G1 X135.929 Y20.877 E4.84684
G1 X138.568 Y21.015 E4.96989
G1 X141.209 Y21.079 E5.0929
G1 X143.851 Y21.067 E5.21593
G1 X146.534 Y20.98 E5.34092
G1 X149.131 Y20.823 E5.46207
G1 X150.258 Y20.714 E5.51479
G1 X150.552 Y20.702 E5.5285
G1 X151.772 Y20.598 E5.58551
G1 X152.428 Y20.568 E5.61609
G1 X152.631 Y20.565 E5.62554
G1 X158.174 Y20.566 E5.88365
G1 X158.892 Y20.577 E5.91708
G1 X159.805 Y20.656 E5.95976
G1 X160.08 Y20.7 E5.97272
G1 X160.633 Y20.814 E5.99901
G1 X161.316 Y21.026 E6.03232
G1 X161.918 Y21.286 E6.06285
G1 X162.197 Y21.424 E6.07734
G1 X162.82 Y21.777 E6.11069
G1 X163.399 Y22.197 E6.14399
G1 X163.865 Y22.615 E6.17314
G1 X164.084 Y22.832 E6.1875
G1 X164.563 Y23.363 E6.2208
G1 X164.98 Y23.944 E6.2541
G1 X165.232 Y24.378 E6.27747
G1 X165.457 Y24.814 E6.30031
G1 X165.738 Y25.472 E6.33363
G1 X165.944 Y26.157 E6.36694
G1 X166.085 Y26.908 E6.40252
G1 X166.17 Y27.776 E6.44313
G1 X166.182 Y28.301 E6.46758
G1 X166.183 Y181.258 E13.5899
G1 X166.171 Y182.074 E13.6279
G1 X166.093 Y182.975 E13.67001
G1 X166.053 Y183.228 E13.68194
G1 X165.902 Y183.928 E13.71528
G1 X165.59 Y184.806 E13.75867
G1 X165.335 Y185.359 E13.78703
G1 X165.29 Y185.447 E13.79163
G1 X164.929 Y186.064 E13.82491
G1 X164.502 Y186.638 E13.85823
G1 X164.166 Y187.009 E13.88153
G1 X163.937 Y187.243 E13.89678
G1 X163.409 Y187.726 E13.9301
G1 X162.83 Y188.146 E13.96341
G1 X162.15 Y188.532 E13.99982
G1 X161.961 Y188.626 E14.00965
G1 X161.304 Y188.909 E14.04296
G1 X160.619 Y189.116 E14.07628
G1 X159.944 Y189.247 E14.10829
G1 X158.972 Y189.342 E14.15377
G1 X157.887 Y189.364 E14.2043
G1 X152.99 Y189.365 E14.43233
G1 X152.282 Y189.355 E14.4653
G1 X151.527 Y189.299 E14.50055
G1 X150.59 Y189.174 E14.54457
G1 X147.937 Y188.855 E14.66899
G1 X145.246 Y188.61 E14.79482
G1 X142.635 Y188.445 E14.91664
G1 X139.994 Y188.353 E15.03969
G1 X137.316 Y188.336 E15.16439
G1 X134.71 Y188.394 E15.28577
G1 X132.035 Y188.528 E15.41048
G1 X129.398 Y188.736 E15.53365
G1 X128.883 Y188.787 E15.55775
G1 X128.185 Y188.833 E15.59032
G1 X126.983 Y188.858 E15.6463
G1 X122.083 Y188.859 E15.87447
G1 X121.293 Y188.848 E15.91126
G1 X120.933 Y188.833 E15.92804
G1 X119.958 Y188.763 E15.97355
G1 X118.855 Y188.67 E16.0251
G1 X116.206 Y188.521 E16.14864
G1 X113.535 Y188.447 E16.27306
G1 X110.893 Y188.449 E16.39608
G1 X108.279 Y188.525 E16.51785
G1 X105.618 Y188.676 E16.64196
G1 X102.969 Y188.904 E16.76576
G1 X100.298 Y189.209 E16.89094
G1 X99.748 Y189.283 E16.91679
G1 X99.476 Y189.314 E16.92953
G1 X98.944 Y189.352 E16.95437
G1 X98.454 Y189.364 E16.97719
G1 X92.87 Y189.364 E17.23721
G1 X92.165 Y189.354 E17.27004
G1 X91.576 Y189.323 E17.2975
G1 X88.841 Y189.168 E17.42506
G1 X86.23 Y189.093 E17.54669
G1 X83.587 Y189.093 E17.66976
G1 X80.914 Y189.168 E17.79427
G1 X78.268 Y189.318 E17.91768
G1 X75.641 Y189.54 E18.04044
G1 X73.019 Y189.838 E18.16332
G1 X72.112 Y189.96 E18.20593
G1 X71.913 Y189.983 E18.21526
G1 X71.367 Y190.022 E18.24075
G1 X70.874 Y190.034 E18.26371
G1 X65.312 Y190.034 E18.5227
G1 X64.615 Y190.024 E18.55516
G1 X64.112 Y189.997 E18.57861
G1 X63.917 Y189.979 E18.58773
G1 X61.229 Y189.752 E18.71334
G1 X58.583 Y189.603 E18.83675
G1 X55.908 Y189.528 E18.96136
G1 X53.265 Y189.53 E19.08442
G1 X50.657 Y189.605 E19.20591
G1 X47.942 Y189.759 E19.33254
G1 X46.629 Y189.863 E19.39387
G1 X45.908 Y189.916 E19.42753
G1 X45.335 Y189.932 E19.45422
G1 X39.793 Y189.931 E19.71228
G1 X39.076 Y189.92 E19.74567
G1 X38.166 Y189.841 E19.78821
G1 X37.89 Y189.797 E19.80122
G1 X37.334 Y189.683 E19.82765
G1 X36.651 Y189.471 E19.86095
G1 X36.049 Y189.211 E19.89148
G1 X35.77 Y189.073 E19.90598
G1 X35.147 Y188.72 E19.93932
G1 X34.568 Y188.3 E19.97263
G1 X34.125 Y187.905 E20.00026
G1 X33.79 Y187.57 E20.02232
G1 X33.322 Y187.029 E20.05563
G1 X32.917 Y186.44 E20.08892
G1 X32.634 Y185.928 E20.11616
G1 X32.51 Y185.683 E20.12894
G1 X32.23 Y185.026 E20.1622
G1 X32.024 Y184.341 E20.19551
G1 X31.903 Y183.724 E20.22478
G1 X31.858 Y183.432 E20.23854
G1 X31.797 Y182.721 E20.27177
G1 X31.785 Y182.23 E20.29464
G1 X31.785 Y29.137 E27.42329
G1 X31.796 Y28.423 E27.45654
G1 X31.848 Y27.701 E27.49025
G1 X31.934 Y27.147 E27.51635
G1 X32.095 Y26.45 E27.54966
G1 X32.332 Y25.775 E27.58298
G1 X32.584 Y25.233 E27.61081
G1 X32.714 Y24.979 E27.62409
G1 X33.083 Y24.366 E27.65741
M204 S3000
M205 X10 Y10
G0 F3000 X33.563 Y24.655
M204 S1800
M205 X8 Y8
G1 F2400 X34.202 Y23.879 E27.70422
G1 X34.43 Y23.646 E27.7194
G1 X34.936 Y23.186 E27.75124
G1 X35.491 Y22.789 E27.78301
G1 X35.96 Y22.523 E27.80812
G1 X36.614 Y22.209 E27.8419
G1 X37.271 Y21.979 E27.87432
G1 X37.85 Y21.845 E27.90199
G1 X38.332 Y21.765 E27.92474
G1 X39.009 Y21.705 E27.95639
G1 X39.483 Y21.693 E27.97847
G1 X45.067 Y21.693 E28.23848
G1 X45.782 Y21.704 E28.27178
G1 X46.362 Y21.741 E28.29884
G1 X49.055 Y21.97 E28.42469
G1 X51.722 Y22.121 E28.54908
G1 X54.395 Y22.197 E28.67359
G1 X57.035 Y22.197 E28.79652
G1 X59.687 Y22.122 E28.92006
G1 X63.657 Y21.873 E29.10528
G1 X64.416 Y21.82 E29.14071
G1 X65.723 Y21.795 E29.20158
G1 X70.573 Y21.796 E29.42742
G1 X71.279 Y21.806 E29.46029
G1 X71.825 Y21.835 E29.48575
G1 X74.561 Y21.99 E29.61336
G1 X77.239 Y22.067 E29.73811
G1 X79.879 Y22.067 E29.86104
G1 X82.548 Y21.992 E29.98537
G1 X85.223 Y21.841 E30.11012
G1 X87.85 Y21.618 E30.23289
G1 X90.528 Y21.314 E30.35839
G1 X91.286 Y21.211 E30.39401
G1 X91.601 Y21.174 E30.40878
G1 X92.1 Y21.138 E30.43207
G1 X92.576 Y21.126 E30.45424
G1 X98.13 Y21.126 E30.71286
G1 X98.827 Y21.136 E30.74532
G1 X99.156 Y21.15 E30.76065
G1 X100.093 Y21.216 E30.80439
G1 X101.288 Y21.316 E30.86023
G1 X103.93 Y21.464 E30.98345
G1 X106.603 Y21.538 E31.10796
G1 X109.244 Y21.536 E31.23094
G1 X111.95 Y21.458 E31.35699
G1 X114.55 Y21.308 E31.47826
G1 X117.257 Y21.076 E31.60477
G1 X119.881 Y20.776 E31.72775
G1 X120.489 Y20.694 E31.75632
G1 X121.223 Y20.632 E31.79062
G1 X121.699 Y20.62 E31.81279
G1 X127.168 Y20.619 E32.06745
G1 X127.976 Y20.631 E32.10508
G1 X128.628 Y20.677 E32.13551
G1 X130.046 Y20.859 E32.20208
G1 X130.583 Y20.93 E32.22731
G1 X133.226 Y21.22 E32.35111
G1 X135.889 Y21.435 E32.47552
G1 X138.561 Y21.575 E32.60011
G1 X141.198 Y21.639 E32.72293
G1 X143.871 Y21.627 E32.8474
G1 X146.551 Y21.54 E32.97226
G1 X149.163 Y21.382 E33.09411
G1 X150.312 Y21.271 E33.14786
G1 X150.601 Y21.26 E33.16132
G1 X151.82 Y21.156 E33.21829
G1 X152.446 Y21.128 E33.24747
G1 X152.631 Y21.125 E33.25609
G1 X158.165 Y21.126 E33.51377
G1 X158.883 Y21.137 E33.54721
G1 X159.717 Y21.209 E33.58619
G1 X159.992 Y21.253 E33.59916
G1 X160.497 Y21.357 E33.62317
G1 X161.149 Y21.562 E33.65499
G1 X161.67 Y21.788 E33.68143
G1 X161.949 Y21.926 E33.69593
G1 X162.543 Y22.265 E33.72777
G1 X163.093 Y22.67 E33.75958
G1 X163.471 Y23.013 E33.78335
G1 X163.69 Y23.23 E33.7977
G1 X164.146 Y23.738 E33.82949
G1 X164.54 Y24.296 E33.8613
G1 X164.833 Y24.819 E33.88921
G1 X164.955 Y25.062 E33.90187
G1 X165.222 Y25.691 E33.93369
G1 X165.413 Y26.347 E33.9655
G1 X165.533 Y27 E33.99642
G1 X165.61 Y27.792 E34.03347
G1 X165.622 Y28.308 E34.05751
G1 X165.623 Y181.258 E41.1795
G1 X165.611 Y182.065 E41.21708
G1 X165.54 Y182.888 E41.25555
G1 X165.5 Y183.141 E41.26747
G1 X165.354 Y183.808 E41.29927
G1 X165.078 Y184.58 E41.33744
G1 X164.837 Y185.104 E41.3643
G1 X164.792 Y185.192 E41.3689
G1 X164.445 Y185.781 E41.40073
G1 X164.033 Y186.326 E41.43255
G1 X163.537 Y186.852 E41.46621
G1 X163.031 Y187.311 E41.49802
G1 X162.199 Y187.872 E41.54475
G1 X161.712 Y188.125 E41.5703
G1 X161.083 Y188.393 E41.60214
G1 X160.116 Y188.649 E41.64872
G1 X159.847 Y188.696 E41.66143
G1 X158.96 Y188.782 E41.70293
G1 X157.757 Y188.805 E41.75896
G1 X152.904 Y188.804 E41.98493
G1 X152.29 Y188.795 E42.01352
G1 X151.601 Y188.744 E42.0457
G1 X150.652 Y188.617 E42.09028
G1 X147.985 Y188.297 E42.21536
G1 X145.297 Y188.052 E42.34104
G1 X142.653 Y187.885 E42.4644
G1 X140.017 Y187.794 E42.58722
G1 X137.343 Y187.777 E42.71173
G1 X134.67 Y187.835 E42.83623
G1 X131.998 Y187.969 E42.9608
G1 X129.34 Y188.179 E43.08496
G1 X128.836 Y188.229 E43.10854
G1 X128.173 Y188.273 E43.13948
G1 X126.85 Y188.299 E43.2011
G1 X121.999 Y188.298 E43.42698
G1 X121.301 Y188.288 E43.45948
G1 X120.972 Y188.274 E43.47482
G1 X120.005 Y188.205 E43.51996
G1 X118.897 Y188.111 E43.57174
G1 X116.219 Y187.961 E43.69663
G1 X113.55 Y187.887 E43.82096
G1 X110.91 Y187.889 E43.94389
G1 X108.232 Y187.967 E44.06864
G1 X105.573 Y188.118 E44.19266
G1 X102.896 Y188.348 E44.31777
G1 X100.245 Y188.651 E44.44201
G1 X99.684 Y188.726 E44.46837
G1 X98.927 Y188.792 E44.50375
G1 X98.454 Y188.804 E44.52578
G1 X92.878 Y188.804 E44.78542
G1 X92.173 Y188.794 E44.81825
G1 X91.629 Y188.765 E44.84362
G1 X88.889 Y188.61 E44.97141
G1 X86.211 Y188.533 E45.09616
G1 X83.571 Y188.533 E45.21909
G1 X80.902 Y188.608 E45.34342
G1 X78.227 Y188.759 E45.46818
G1 X75.6 Y188.982 E45.59094
G1 X72.922 Y189.286 E45.71644
G1 X72.164 Y189.389 E45.75206
G1 X71.849 Y189.426 E45.76683
G1 X71.35 Y189.462 E45.79013
G1 X70.874 Y189.474 E45.8123
G1 X65.32 Y189.474 E46.07092
G1 X64.623 Y189.464 E46.10337
G1 X63.939 Y189.419 E46.13529
G1 X61.273 Y189.193 E46.25988
G1 X58.595 Y189.043 E46.38477
G1 X55.924 Y188.968 E46.50919
G1 X53.285 Y188.97 E46.63208
G1 X50.611 Y189.047 E46.75664
G1 X47.91 Y189.201 E46.88262
G1 X46.534 Y189.309 E46.94689
G1 X45.89 Y189.357 E46.97696
G1 X45.335 Y189.372 E47.00281
G1 X39.801 Y189.371 E47.26049
G1 X39.084 Y189.36 E47.29388
G1 X38.255 Y189.288 E47.33263
G1 X37.979 Y189.244 E47.34565
G1 X37.47 Y189.14 E47.36984
G1 X36.818 Y188.935 E47.40166
G1 X36.297 Y188.709 E47.42811
G1 X36.018 Y188.571 E47.4426
G1 X35.424 Y188.232 E47.47445
G1 X34.874 Y187.827 E47.50625
G1 X34.359 Y187.35 E47.53894
G1 X34.192 Y187.18 E47.55003
G1 X33.747 Y186.663 E47.5818
G1 X33.223 Y185.844 E47.62707
G1 X33.012 Y185.435 E47.6485
G1 X32.746 Y184.806 E47.6803
G1 X32.495 Y183.855 E47.7261
G1 X32.413 Y183.353 E47.74978
G1 X32.357 Y182.704 E47.78012
G1 X32.345 Y182.23 E47.8022
G1 X32.345 Y29.146 E54.93043
G1 X32.356 Y28.432 E54.96368
G1 X32.403 Y27.772 E54.99449
G1 X32.486 Y27.242 E55.01947
G1 X32.641 Y26.576 E55.05131
G1 X32.991 Y25.676 E55.09627
G1 X33.21 Y25.24 E55.11899
G1 X33.563 Y24.655 E55.15081
M204 S3000
M205 X10 Y10
G0 F3000 X34.043 Y24.946
M204 S1800
M205 X8 Y8
G1 F2400 X34.602 Y24.27 E55.19165
G1 X34.83 Y24.037 E55.20683
G1 X35.312 Y23.602 E55.23707
G1 X35.844 Y23.229 E55.26732
G1 X36.469 Y22.892 E55.30038
G1 X36.841 Y22.721 E55.31945
G1 X37.455 Y22.509 E55.3497
G1 X37.948 Y22.397 E55.37324
G1 X38.413 Y22.319 E55.39519
G1 X39.026 Y22.264 E55.42385
G1 X39.483 Y22.253 E55.44514
G1 X45.058 Y22.253 E55.70473
G1 X45.773 Y22.264 E55.73803
G1 X46.327 Y22.3 E55.76388
G1 X49.008 Y22.528 E55.88917
G1 X51.711 Y22.681 E56.01523
G1 X54.379 Y22.757 E56.13952
G1 X57.051 Y22.757 E56.26394
G1 X59.709 Y22.682 E56.38775
G1 X63.692 Y22.432 E56.57358
G1 X64.427 Y22.38 E56.60789
G1 X65.723 Y22.355 E56.66825
G1 X70.565 Y22.356 E56.89372
G1 X71.271 Y22.366 E56.92659
G1 X71.818 Y22.396 E56.9521
G1 X74.55 Y22.55 E57.07952
G1 X77.223 Y22.627 E57.20404
G1 X79.895 Y22.627 E57.32845
G1 X82.559 Y22.553 E57.45255
G1 X85.27 Y22.399 E57.57899
G1 X87.926 Y22.174 E57.70311
G1 X90.57 Y21.874 E57.82701
G1 X91.467 Y21.753 E57.86916
G1 X92.116 Y21.697 E57.89949
G1 X92.576 Y21.686 E57.92092
G1 X98.122 Y21.686 E58.17916
G1 X98.819 Y21.696 E58.21162
G1 X99.116 Y21.708 E58.22546
G1 X100.046 Y21.775 E58.26888
G1 X101.209 Y21.873 E58.32322
G1 X103.918 Y22.024 E58.44956
G1 X106.589 Y22.098 E58.57398
G1 X109.26 Y22.096 E58.69836
G1 X111.965 Y22.018 E58.82436
G1 X114.593 Y21.867 E58.94694
G1 X117.299 Y21.634 E59.07341
G1 X119.973 Y21.329 E59.19873
G1 X120.552 Y21.251 E59.22593
G1 X121.239 Y21.191 E59.25804
G1 X121.699 Y21.18 E59.27947
G1 X127.25 Y21.18 E59.53794
G1 X127.967 Y21.191 E59.57133
G1 X128.557 Y21.233 E59.59888
G1 X129.972 Y21.414 E59.6653
G1 X130.491 Y21.483 E59.68968
G1 X133.19 Y21.779 E59.81611
G1 X135.852 Y21.994 E59.94047
G1 X138.552 Y22.135 E60.06636
G1 X141.187 Y22.199 E60.1891
G1 X143.892 Y22.187 E60.31505
G1 X146.568 Y22.1 E60.43973
G1 X149.196 Y21.941 E60.56232
G1 X150.366 Y21.828 E60.61705
G1 X150.639 Y21.819 E60.62977
G1 X151.867 Y21.714 E60.68716
G1 X152.463 Y21.688 E60.71494
G1 X152.631 Y21.685 E60.72277
G1 X158.157 Y21.686 E60.98008
G1 X158.875 Y21.697 E61.01352
G1 X159.628 Y21.762 E61.04871
G1 X160.35 Y21.898 E61.08292
G1 X160.981 Y22.097 E61.11373
G1 X161.701 Y22.428 E61.15063
G1 X162.264 Y22.752 E61.18087
G1 X162.784 Y23.142 E61.21114
G1 X163.295 Y23.627 E61.24395
G1 X163.728 Y24.112 E61.27422
G1 X164.243 Y24.903 E61.31817
G1 X164.453 Y25.311 E61.33954
G1 X164.705 Y25.91 E61.3698
G1 X164.929 Y26.781 E61.41168
G1 X164.981 Y27.092 E61.42636
G1 X165.051 Y27.808 E61.45986
G1 X165.063 Y28.316 E61.48352
G1 X165.062 Y181.339 E68.60891
G1 X165.051 Y182.057 E68.64235
G1 X164.987 Y182.801 E68.67712
G1 X164.947 Y183.054 E68.68905
G1 X164.806 Y183.688 E68.71929
G1 X164.565 Y184.355 E68.75231
G1 X164.338 Y184.849 E68.77763
G1 X164.293 Y184.937 E68.78223
G1 X163.962 Y185.496 E68.81248
G1 X163.366 Y186.226 E68.85636
G1 X163.137 Y186.46 E68.87161
G1 X162.655 Y186.895 E68.90184
G1 X161.927 Y187.383 E68.94265
