;FLAVOR:Marlin
;TIME:581
;Filament used: 0.456557m
;Layer height: 0.2
;MINX:88.6
;MINY:88.6
;MINZ:0.2
;MAXX:121.4
;MAXY:121.4
;MAXZ:3
;Generated with Cura_SteamEngine 4.8.0
M140 S60
M105
M190 S60
M104 S200
M105
M109 S200
M82 ;absolute extrusion mode
; Script based on an original created by tjjfvi (https://github.com/tjjfvi)
; An up-to-date version of the tjjfvi's original script can be found
; here:  https://csi.t6.fyi/
; Note - This script will only work in Cura V4.2 and above!
; --- Global Settings
; layer_height = 0.2
; smooth_spiralized_contours = True
; magic_mesh_surface_mode = normal
; machine_extruder_count = 1
; --- Single Extruder Settings
; speed_z_hop = 10
; retraction_amount = 6
; retraction_hop = 0.075
; retraction_hop_enabled = True
; retraction_enable = True
; retraction_speed = 40
; retraction_retract_speed = 40
; retraction_prime_speed = 40
; speed_travel = 100


G21 ;metric values
G90 ;absolute positioning
M82 ;set extruder to absolute mode
M107 ;start with the fan off
G28 X0 Y0 ;move X/Y to min endstops
G28 Z0 ;move Z to min endstops
G1 Z15.0 F100 ;move the platform down 15mm
G92 E0 ;zero the extruded length
G1 F200 E3 ;extrude 3mm of feed stock
G92 E0 ;zero the extruded length again
G1 F100
G0 Y20 F100
M117 Printing...
G5
G92 E0
G92 E0
G1 F2400 E-6
;LAYER_COUNT:15
;LAYER:0
M106 S255
M204 S3000
M205 X10 Y10
G1 F600 Z0.275
G0 F3000 X90.533 Y90.435 Z0.275
M204 S1800
M205 X8 Y8
;TYPE:SKIRT
G1 F600 Z0.2
G1 F2400 E0
G1 X91.071 Y89.964 E0.0333
G1 X91.659 Y89.556 E0.06662
G1 X92.288 Y89.216 E0.09991
G1 X92.952 Y88.949 E0.13324
G1 X93.641 Y88.757 E0.16654
G1 X94.347 Y88.643 E0.19984
G1 X95.151 Y88.603 E0.23733
G1 X95.33 Y88.6 E0.24566
G1 X114.293 Y88.6 E1.12866
G1 X115.083 Y88.611 E1.16545
G1 X115.796 Y88.661 E1.19873
G1 X116.5 Y88.79 E1.23206
G1 X117.184 Y88.998 E1.26535
G1 X117.841 Y89.28 E1.29864
G1 X118.463 Y89.634 E1.33197
G1 X119.041 Y90.055 E1.36526
G1 X119.569 Y90.538 E1.39858
G1 X120.039 Y91.076 E1.43185
G1 X120.447 Y91.664 E1.46517
G1 X120.786 Y92.294 E1.49849
G1 X121.053 Y92.957 E1.53177
G1 X121.244 Y93.647 E1.56511
G1 X121.357 Y94.353 E1.5984
G1 X121.397 Y95.15 E1.63556
G1 X121.4 Y95.33 E1.64394
G1 X121.4 Y114.343 E2.52926
G1 X121.391 Y115.07 E2.56312
G1 X121.342 Y115.784 E2.59644
G1 X121.214 Y116.488 E2.62976
G1 X121.008 Y117.173 E2.66307
G1 X120.727 Y117.83 E2.69634
G1 X120.374 Y118.453 E2.72969
G1 X119.954 Y119.032 E2.76299
G1 X119.472 Y119.56 E2.79628
G1 X118.935 Y120.032 E2.82957
G1 X118.347 Y120.44 E2.8629
G1 X117.718 Y120.781 E2.89622
G1 X117.055 Y121.049 E2.92951
G1 X116.366 Y121.241 E2.96282
G1 X115.66 Y121.356 E2.99613
G1 X114.849 Y121.397 E3.03394
G1 X114.67 Y121.4 E3.04227
G1 X95.624 Y121.399 E3.92914
G1 X94.926 Y121.39 E3.96164
G1 X94.213 Y121.341 E3.99492
G1 X93.509 Y121.213 E4.02824
G1 X92.824 Y121.007 E4.06155
G1 X92.167 Y120.725 E4.09484
G1 X91.545 Y120.372 E4.12814
G1 X90.966 Y119.952 E4.16145
G1 X90.437 Y119.47 E4.19477
G1 X89.966 Y118.932 E4.22807
G1 X89.558 Y118.345 E4.26135
G1 X89.218 Y117.715 E4.29469
G1 X88.95 Y117.052 E4.32799
G1 X88.758 Y116.363 E4.36129
G1 X88.644 Y115.657 E4.39459
G1 X88.602 Y114.831 E4.4331
G1 X88.6 Y114.658 E4.44116
G1 X88.601 Y95.587 E5.32919
G1 X88.61 Y94.922 E5.36015
G1 X88.659 Y94.209 E5.39343
G1 X88.788 Y93.505 E5.42676
G1 X88.995 Y92.821 E5.46004
G1 X89.277 Y92.163 E5.49337
G1 X89.63 Y91.541 E5.52667
G1 X90.05 Y90.963 E5.55994
G1 X90.533 Y90.435 E5.59326
M204 S3000
M205 X10 Y10
G0 F3000 X91.08 Y90.688
M204 S1800
M205 X8 Y8
G1 F2400 X91.612 Y90.259 E5.62509
G1 X92.19 Y89.894 E5.65692
G1 X92.807 Y89.6 E5.68874
G1 X93.453 Y89.38 E5.72052
G1 X94.121 Y89.237 E5.75233
G1 X94.845 Y89.171 E5.78618
G1 X95.33 Y89.16 E5.80877
G1 X114.293 Y89.16 E6.69177
G1 X115.075 Y89.171 E6.72818
G1 X115.756 Y89.22 E6.75998
G1 X116.427 Y89.349 E6.79179
G1 X117.078 Y89.556 E6.8236
G1 X117.701 Y89.837 E6.85543
G1 X118.287 Y90.189 E6.88726
G1 X118.827 Y90.607 E6.91905
G1 X119.315 Y91.085 E6.95086
G1 X119.744 Y91.617 E6.98268
G1 X120.108 Y92.195 E7.01449
G1 X120.402 Y92.812 E7.04632
G1 X120.621 Y93.459 E7.07812
G1 X120.764 Y94.127 E7.10993
G1 X120.829 Y94.846 E7.14355
G1 X120.84 Y95.33 E7.16609
G1 X120.84 Y114.336 E8.05109
G1 X120.831 Y115.063 E8.08494
G1 X120.782 Y115.745 E8.11678
G1 X120.654 Y116.416 E8.14859
G1 X120.449 Y117.068 E8.18042
G1 X120.169 Y117.691 E8.21222
G1 X119.819 Y118.277 E8.244
G1 X119.402 Y118.819 E8.27585
G1 X118.925 Y119.308 E8.30766
G1 X118.394 Y119.737 E8.33944
G1 X117.816 Y120.102 E8.37127
G1 X117.2 Y120.397 E8.40308
G1 X116.553 Y120.618 E8.43491
G1 X115.885 Y120.762 E8.46673
G1 X115.155 Y120.829 E8.50087
G1 X114.67 Y120.84 E8.52346
G1 X95.632 Y120.84 E9.40995
G1 X94.934 Y120.831 E9.44245
G1 X94.252 Y120.782 E9.47429
G1 X93.581 Y120.654 E9.5061
G1 X92.93 Y120.448 E9.53789
G1 X92.306 Y120.168 E9.56974
G1 X91.72 Y119.817 E9.60155
G1 X91.179 Y119.4 E9.63335
G1 X90.69 Y118.922 E9.66519
G1 X90.261 Y118.391 E9.69698
G1 X89.896 Y117.813 E9.72881
G1 X89.602 Y117.197 E9.76059
G1 X89.381 Y116.55 E9.79243
G1 X89.237 Y115.882 E9.82425
G1 X89.171 Y115.149 E9.85852
G1 X89.16 Y114.658 E9.88139
G1 X89.161 Y95.595 E10.76904
G1 X89.17 Y94.93 E10.80001
G1 X89.219 Y94.249 E10.8318
G1 X89.347 Y93.577 E10.86366
G1 X89.553 Y92.926 E10.89545
G1 X89.834 Y92.303 E10.92727
G1 X90.185 Y91.717 E10.95908
G1 X90.603 Y91.176 E10.99092
G1 X91.08 Y90.688 E11.02269
M204 S3000
M205 X10 Y10
G0 F3000 X91.154 Y91.401
M204 S1800
M205 X8 Y8
G1 F2400 X91.626 Y90.955 E11.05293
G1 X92.149 Y90.571 E11.08314
G1 X92.716 Y90.253 E11.11341
G1 X93.317 Y90.007 E11.14365
G1 X93.944 Y89.837 E11.1739
G1 X94.861 Y89.731 E11.21688
G1 X95.33 Y89.72 E11.23873
G1 X114.293 Y89.72 E12.12173
G1 X115.067 Y89.731 E12.15777
G1 X115.714 Y89.78 E12.18798
G1 X116.351 Y89.908 E12.21824
G1 X116.967 Y90.114 E12.24848
G1 X117.554 Y90.394 E12.27877
G1 X118.101 Y90.743 E12.30898
G1 X118.602 Y91.157 E12.33924
G1 X119.047 Y91.63 E12.36948
G1 X119.432 Y92.154 E12.39976
G1 X119.749 Y92.721 E12.43001
G1 X119.994 Y93.322 E12.46023
G1 X120.163 Y93.949 E12.49047
G1 X120.269 Y94.862 E12.53327
G1 X120.28 Y95.33 E12.55506
G1 X120.28 Y114.329 E13.43974
G1 X120.271 Y115.056 E13.47359
G1 X120.223 Y115.704 E13.50385
G1 X120.095 Y116.341 E13.5341
G1 X119.891 Y116.958 E13.56436
G1 X119.612 Y117.545 E13.59463
G1 X119.264 Y118.093 E13.62485
G1 X118.851 Y118.594 E13.65509
G1 X118.379 Y119.041 E13.68536
G1 X117.856 Y119.426 E13.7156
G1 X117.29 Y119.744 E13.74583
G1 X116.688 Y119.991 E13.77613
G1 X116.062 Y120.161 E13.80633
G1 X115.139 Y120.269 E13.8496
G1 X114.67 Y120.28 E13.87145
G1 X95.639 Y120.28 E14.75761
G1 X94.941 Y120.271 E14.79011
G1 X94.293 Y120.222 E14.82037
G1 X93.656 Y120.095 E14.85062
G1 X93.04 Y119.89 E14.88085
G1 X92.453 Y119.611 E14.91111
G1 X91.905 Y119.262 E14.94137
G1 X91.404 Y118.849 E14.9716
G1 X90.957 Y118.377 E15.00187
G1 X90.572 Y117.854 E15.03211
G1 X90.254 Y117.287 E15.06238
G1 X90.008 Y116.686 E15.09262
G1 X89.838 Y116.059 E15.12287
G1 X89.731 Y115.134 E15.16623
G1 X89.72 Y114.658 E15.1884
G1 X89.72 Y95.603 E16.07568
G1 X89.729 Y94.938 E16.10665
G1 X89.778 Y94.29 E16.13691
G1 X89.906 Y93.653 E16.16716
G1 X90.111 Y93.036 E16.19744
G1 X90.391 Y92.45 E16.22768
G1 X90.74 Y91.902 E16.25793
G1 X91.154 Y91.401 E16.28819
M204 S3000
M205 X10 Y10
G1 F2400 E10.28819
;MESH:switch_base_mk3.stl
G0 F3000 X94.335 Y95.854
G0 X95.854 Y95.854
G0 X107.53 Y103.544
M204 S1800
M205 X8 Y8
;TYPE:WALL-INNER
G1 F2400 E16.28819
G1 F1500 X106.952 Y102.83 E16.33097
G1 X106.185 Y102.335 E16.37347
G1 X105.305 Y102.098 E16.41591
G1 X104.393 Y102.148 E16.45844
G1 X103.542 Y102.473 E16.50086
G1 X102.828 Y103.053 E16.54369
G1 X102.334 Y103.819 E16.58613
G1 X102.098 Y104.697 E16.62847
G1 X102.145 Y105.608 E16.67095
G1 X102.476 Y106.463 E16.71364
G1 X103.049 Y107.17 E16.75601
G1 X103.818 Y107.666 E16.79862
G1 X104.699 Y107.902 E16.84109
G1 X105.608 Y107.855 E16.88348
G1 X106.463 Y107.524 E16.92617
G1 X107.17 Y106.952 E16.96851
G1 X107.665 Y106.185 E17.01102
G1 X107.902 Y105.305 E17.05346
G1 X107.852 Y104.394 E17.09594
G1 X107.53 Y103.544 E17.13826
M204 S3000
M205 X10 Y10
G0 F3000 X113.6 Y113.6
M204 S1800
M205 X8 Y8
G1 F1500 X96.4 Y113.6 E17.93917
G1 X96.4 Y96.4 E18.74007
G1 X113.6 Y96.4 E19.54098
G1 X113.6 Y113.6 E20.34188
M204 S3000
M205 X10 Y10
G0 F3000 X114.16 Y114.16
M204 S1800
M205 X8 Y8
G1 F1500 X95.84 Y114.16 E21.19494
G1 X95.84 Y95.84 E22.04799
G1 X114.16 Y95.84 E22.90105
G1 X114.16 Y114.16 E23.7541
M204 S3000
M205 X10 Y10
G0 F3000 X114.09 Y114.09
G0 X106.822 Y106.639
G0 X106.748 Y106.573
M204 S1800
M205 X8 Y8
G1 F1500 X107.147 Y105.955 E23.78836
G1 X107.338 Y105.246 E23.82255
G1 X107.298 Y104.511 E23.85682
G1 X107.038 Y103.827 E23.8909
G1 X106.573 Y103.252 E23.92533
G1 X105.955 Y102.853 E23.95958
G1 X105.246 Y102.662 E23.99378
G1 X104.511 Y102.702 E24.02805
G1 X103.825 Y102.964 E24.06224
G1 X103.25 Y103.431 E24.09674
G1 X102.852 Y104.049 E24.13096
G1 X102.662 Y104.757 E24.1651
G1 X102.7 Y105.489 E24.19923
G1 X102.967 Y106.179 E24.23368
G1 X103.428 Y106.748 E24.26778
G1 X104.048 Y107.148 E24.30214
G1 X104.758 Y107.338 E24.33636
G1 X105.489 Y107.3 E24.37045
G1 X106.179 Y107.033 E24.4049
G1 X106.748 Y106.573 E24.43897
M204 S3000
M205 X10 Y10
G0 F3000 X106.822 Y106.639
G0 X107.377 Y105.25
G0 X107.123 Y103.941
G0 X106.552 Y103.12
G0 X106.194 Y103.674
M204 S1800
M205 X8 Y8
;TYPE:WALL-OUTER
G1 F1500 X105.725 Y103.371 E24.46497
G1 X105.187 Y103.226 E24.49091
G1 X104.629 Y103.256 E24.51693
G1 X104.108 Y103.455 E24.5429
G1 X103.672 Y103.809 E24.56905
G1 X103.37 Y104.278 E24.59503
G1 X103.226 Y104.816 E24.62096
G1 X103.255 Y105.37 E24.64679
G1 X103.458 Y105.895 E24.673
G1 X103.807 Y106.326 E24.69883
G1 X104.278 Y106.63 E24.72493
G1 X104.817 Y106.774 E24.75091
G1 X105.37 Y106.745 E24.77669
G1 X105.895 Y106.542 E24.8029
G1 X106.326 Y106.194 E24.8287
G1 X106.629 Y105.725 E24.8547
G1 X106.774 Y105.187 E24.88064
G1 X106.744 Y104.629 E24.90666
G1 X106.546 Y104.11 E24.93253
G1 X106.194 Y103.674 E24.95862
M204 S3000
M205 X10 Y10
G0 F3000 X106.026 Y103.566
G0 X106.385 Y103.012
G0 X106.941 Y103.656
G0 X114.09 Y114.09
G0 X114.72 Y114.72
M204 S1800
M205 X8 Y8
G1 F1500 X95.28 Y114.72 E25.86383
G1 X95.28 Y95.28 E26.76904
G1 X114.72 Y95.28 E27.67424
G1 X114.72 Y114.72 E28.57945
M204 S3000
M205 X10 Y10
G0 F3000 X114.52 Y114.72
G0 X114.09 Y114.09
G0 X113.05 Y113.05
M204 S1800
M205 X8 Y8
;TYPE:SKIN
G1 F1500 X96.95 Y113.05 E29.32914
G1 X96.95 Y96.95 E30.07882
G1 X113.05 Y96.95 E30.8285
G1 X113.05 Y113.05 E31.57819
M204 S3000
M205 X10 Y10
G0 F3000 X107.584 Y107.324
M204 S1800
M205 X8 Y8
G1 F1500 X108.174 Y106.411 E31.6288
G1 X108.456 Y105.362 E31.67938
G1 X108.396 Y104.278 E31.72994
G1 X108.013 Y103.267 E31.78028
G1 X107.324 Y102.416 E31.83126
G1 X106.411 Y101.826 E31.88188
G1 X105.362 Y101.544 E31.93246
G1 X104.277 Y101.604 E31.98306
G1 X103.263 Y101.99 E32.03358
G1 X102.413 Y102.682 E32.08462
G1 X101.825 Y103.593 E32.13511
G1 X101.544 Y104.638 E32.1855
G1 X101.601 Y105.724 E32.23613
G1 X101.995 Y106.742 E32.28696
G1 X102.677 Y107.584 E32.33742
G1 X103.592 Y108.175 E32.38814
G1 X104.64 Y108.456 E32.43866
G1 X105.724 Y108.399 E32.48921
G1 X106.742 Y108.006 E32.54002
G1 X107.584 Y107.324 E32.59047
M204 S3000
M205 X10 Y10
G0 F3000 X112.789 Y97.742
M204 S1800
M205 X8 Y8
G1 F1500 X112.257 Y97.21 E32.62551
M204 S3000
M205 X10 Y10
G0 F3000 X111.465 Y97.21
M204 S1800
M205 X8 Y8
G1 F1500 X112.789 Y98.534 E32.71269
M204 S3000
M205 X10 Y10
G0 F3000 X112.789 Y99.326
M204 S1800
M205 X8 Y8
G1 F1500 X110.673 Y97.21 E32.85204
M204 S3000
M205 X10 Y10
G0 F3000 X109.881 Y97.21
M204 S1800
M205 X8 Y8
G1 F1500 X112.789 Y100.118 E33.04353
M204 S3000
M205 X10 Y10
G0 F3000 X112.789 Y100.91
M204 S1800
M205 X8 Y8
G1 F1500 X109.089 Y97.21 E33.28718
M204 S3000
M205 X10 Y10
G0 F3000 X108.297 Y97.21
M204 S1800
M205 X8 Y8
G1 F1500 X112.789 Y101.702 E33.58299
M204 S3000
M205 X10 Y10
G0 F3000 X112.789 Y102.494
M204 S1800
M205 X8 Y8
G1 F1500 X107.505 Y97.21 E33.93095
M204 S3000
M205 X10 Y10
G0 F3000 X106.713 Y97.21
M204 S1800
M205 X8 Y8
G1 F1500 X112.789 Y103.286 E34.33107
M204 S3000
M205 X10 Y10
G0 F3000 X112.789 Y104.078
M204 S1800
M205 X8 Y8
G1 F1500 X105.921 Y97.21 E34.78334
M204 S3000
M205 X10 Y10
G0 F3000 X105.129 Y97.21
M204 S1800
M205 X8 Y8
G1 F1500 X112.789 Y104.87 E35.28776
M204 S3000
M205 X10 Y10
G0 F3000 X112.789 Y105.662
M204 S1800
M205 X8 Y8
G1 F1500 X104.337 Y97.21 E35.84434
M204 S3000
M205 X10 Y10
G0 F3000 X103.545 Y97.21
M204 S1800
M205 X8 Y8
G1 F1500 X112.789 Y106.454 E36.45307
M204 S3000
M205 X10 Y10
G0 F3000 X112.789 Y107.246
M204 S1800
M205 X8 Y8
G1 F1500 X102.753 Y97.21 E37.11396
M204 S3000
M205 X10 Y10
G0 F3000 X101.961 Y97.21
M204 S1800
M205 X8 Y8
G1 F1500 X106.271 Y101.519 E37.39775
M204 S3000
M205 X10 Y10
G0 F3000 X105.249 Y101.289
M204 S1800
M205 X8 Y8
G1 F1500 X101.17 Y97.21 E37.66636
M204 S3000
M205 X10 Y10
G0 F3000 X100.378 Y97.21
M204 S1800
M205 X8 Y8
G1 F1500 X104.499 Y101.331 E37.93773
M204 S3000
M205 X10 Y10
G0 F3000 X103.859 Y101.483
M204 S1800
M205 X8 Y8
G1 F1500 X99.586 Y97.21 E38.21912
M204 S3000
M205 X10 Y10
G0 F3000 X98.794 Y97.21
M204 S1800
M205 X8 Y8
G1 F1500 X103.285 Y101.701 E38.51486
M204 S3000
M205 X10 Y10
G0 F3000 X102.812 Y102.02
M204 S1800
M205 X8 Y8
G1 F1500 X98.002 Y97.21 E38.8316
M204 S3000
M205 X10 Y10
G0 F3000 X97.209 Y97.209
M204 S1800
M205 X8 Y8
G1 F1500 X102.376 Y102.376 E39.17186
M204 S3000
M205 X10 Y10
G0 F3000 X102.02 Y102.812
M204 S1800
M205 X8 Y8
G1 F1500 X97.209 Y98.001 E39.48867
M204 S3000
M205 X10 Y10
G0 F3000 X97.209 Y98.793
M204 S1800
M205 X8 Y8
G1 F1500 X101.709 Y103.293 E39.785
M204 S3000
M205 X10 Y10
G0 F3000 X101.483 Y103.859
M204 S1800
M205 X8 Y8
G1 F1500 X97.209 Y99.585 E40.06645
M204 S3000
M205 X10 Y10
G0 F3000 X97.209 Y100.377
M204 S1800
M205 X8 Y8
G1 F1500 X101.315 Y104.483 E40.33684
M204 S3000
M205 X10 Y10
G0 F3000 X101.317 Y105.277
M204 S1800
M205 X8 Y8
G1 F1500 X97.209 Y101.169 E40.60736
M204 S3000
M205 X10 Y10
G0 F3000 X97.209 Y101.961
M204 S1800
M205 X8 Y8
G1 F1500 X101.544 Y106.296 E40.89283
G1 X101.614 Y106.366
M204 S3000
M205 X10 Y10
G0 F3000 X103.729 Y108.48
M204 S1800
M205 X8 Y8
G1 F1500 X108.037 Y112.789 E41.17655
M204 S3000
M205 X10 Y10
G0 F3000 X108.829 Y112.789
M204 S1800
M205 X8 Y8
G1 F1500 X104.75 Y108.71 E41.44516
M204 S3000
M205 X10 Y10
G0 F3000 X105.502 Y108.67
M204 S1800
M205 X8 Y8
G1 F1500 X109.621 Y112.789 E41.7164
M204 S3000
M205 X10 Y10
G0 F3000 X110.413 Y112.789
M204 S1800
M205 X8 Y8
G1 F1500 X106.14 Y108.516 E41.99779
M204 S3000
M205 X10 Y10
G0 F3000 X106.711 Y108.295
M204 S1800
M205 X8 Y8
G1 F1500 X111.205 Y112.789 E42.29372
M204 S3000
M205 X10 Y10
G0 F3000 X111.997 Y112.789
M204 S1800
M205 X8 Y8
G1 F1500 X107.186 Y107.978 E42.61054
M204 S3000
M205 X10 Y10
G0 F3000 X107.624 Y107.624
M204 S1800
M205 X8 Y8
G1 F1500 X112.789 Y112.789 E42.95066
M204 S3000
M205 X10 Y10
G0 F3000 X112.789 Y111.997
M204 S1800
M205 X8 Y8
G1 F1500 X107.979 Y107.187 E43.26741
M204 S3000
M205 X10 Y10
G0 F3000 X108.29 Y106.706
M204 S1800
M205 X8 Y8
G1 F1500 X112.789 Y111.205 E43.56367
M204 S3000
M205 X10 Y10
G0 F3000 X112.789 Y110.414
M204 S1800
M205 X8 Y8
G1 F1500 X108.516 Y106.14 E43.84509
M204 S3000
M205 X10 Y10
G0 F3000 X108.683 Y105.515
M204 S1800
M205 X8 Y8
G1 F1500 X112.789 Y109.622 E44.11551
M204 S3000
M205 X10 Y10
G0 F3000 X112.789 Y108.83
M204 S1800
M205 X8 Y8
G1 F1500 X108.679 Y104.719 E44.38619
M204 S3000
M205 X10 Y10
G0 F3000 X108.454 Y103.702
M204 S1800
M205 X8 Y8
G1 F1500 X112.789 Y108.038 E44.67169
G1 X112.859 Y108.108
M204 S3000
M205 X10 Y10
G0 F3000 X107.245 Y112.789
M204 S1800
M205 X8 Y8
G1 F1500 X97.209 Y102.753 E45.33258
M204 S3000
M205 X10 Y10
G0 F3000 X97.209 Y103.545
M204 S1800
M205 X8 Y8
G1 F1500 X106.453 Y112.789 E45.94131
M204 S3000
M205 X10 Y10
G0 F3000 X105.661 Y112.789
M204 S1800
M205 X8 Y8
G1 F1500 X97.209 Y104.337 E46.49789
M204 S3000
M205 X10 Y10
G0 F3000 X97.209 Y105.129
M204 S1800
M205 X8 Y8
G1 F1500 X104.869 Y112.789 E47.00232
M204 S3000
M205 X10 Y10
G0 F3000 X104.077 Y112.789
M204 S1800
M205 X8 Y8
G1 F1500 X97.209 Y105.921 E47.45459
M204 S3000
M205 X10 Y10
G0 F3000 X97.209 Y106.713
M204 S1800
M205 X8 Y8
G1 F1500 X103.285 Y112.789 E47.8547
M204 S3000
M205 X10 Y10
